(1001)
(PANELCONTROLCONTORNO)
(T5  D=1.4 CR=0. - ZMIN=-2. - FRESA CON PUNTA PLANA)
G90 G94 G91.1 G40 G49 G17
G21
G28 G91 Z0.
G90

(2D CONTORNEADO1)
M5
T5 M6
S5000 M3
G54
M8
G0 X52.62 Y28.776
G43 Z8.5 H5
Z3.5
G1 Z3. F333.
Z2.14
X52.613 Z2.097 F1000.
X52.593 Z2.058
X52.562 Z2.027
X52.523 Z2.007
X52.48 Z2.
X52.34
X52.297 Y28.769
X52.258 Y28.75
X52.227 Y28.719
X52.207 Y28.68
X52.2 Y28.636
Y0. Z1. F333.
Y-90. F1000.
G2 X51.5 Y-90.7 I-0.7 J0.
G1 X-51.5
G2 X-52.2 Y-90. I0. J0.7
G1 Y90.
G2 X-51.5 Y90.7 I0.7 J0.
G1 X51.5
G2 X52.2 Y90. I0. J-0.7
G1 Y0.
Y-31.341 Z0.5 F333.
Y-90. F1000.
G2 X51.5 Y-90.7 I-0.7 J0.
G1 X-51.5
G2 X-52.2 Y-90. I0. J0.7
G1 Y90.
G2 X-51.5 Y90.7 I0.7 J0.
G1 X51.5
G2 X52.2 Y90. I0. J-0.7
G1 Y0.
Y-31.341
Y-62.681 Z0. F333.
Y-90. F1000.
G2 X51.5 Y-90.7 I-0.7 J0.
G1 X-51.5
G2 X-52.2 Y-90. I0. J0.7
G1 Y90.
G2 X-51.5 Y90.7 I0.7 J0.
G1 X51.5
G2 X52.2 Y90. I0. J-0.7
G1 Y-31.341
Y-62.681
Y-90. Z-0.436 F333.
G2 X51.5 Y-90.7 Z-0.453 I-0.7 J0.
G1 X48.578 Z-0.5
X-51.5 F1000.
G2 X-52.2 Y-90. I0. J0.7
G1 Y90.
G2 X-51.5 Y90.7 I0.7 J0.
G1 X51.5
G2 X52.2 Y90. I0. J-0.7
G1 Y-62.681
Y-90.
G2 X51.5 Y-90.7 I-0.7 J0.
G1 X48.578
X17.237 Z-1. F333.
X-51.5 F1000.
G2 X-52.2 Y-90. I0. J0.7
G1 Y90.
G2 X-51.5 Y90.7 I0.7 J0.
G1 X51.5
G2 X52.2 Y90. I0. J-0.7
G1 Y-90.
G2 X51.5 Y-90.7 I-0.7 J0.
G1 X17.237
X10.783 Z-1.103 F333.
Z-1.1
X6.383
Z-1.173
X-6.383 Z-1.377
Z-1.1
X-10.783
Z-1.447
X-14.103 Z-1.5
X-23.55 F1000.
Z-1.1
X-27.95
Z-1.5 F333.
X-40.717 F1000.
Z-1.1
X-45.117
Z-1.5 F333.
X-51.5 F1000.
G2 X-52.2 Y-90. I0. J0.7
G1 Y-84.7
Z-1.1
Y-80.3
Z-1.5 F333.
Y-69.7 F1000.
Z-1.1
Y-65.3
Z-1.5 F333.
Y-54.7 F1000.
Z-1.1
Y-50.3
Z-1.5 F333.
Y-39.7 F1000.
Z-1.1
Y-35.3
Z-1.5 F333.
Y-24.7 F1000.
Z-1.1
Y-20.3
Z-1.5 F333.
Y-9.7 F1000.
Z-1.1
Y-5.3
Z-1.5 F333.
Y5.3 F1000.
Z-1.1
Y9.7
Z-1.5 F333.
Y20.3 F1000.
Z-1.1
Y24.7
Z-1.5 F333.
Y35.3 F1000.
Z-1.1
Y39.7
Z-1.5 F333.
Y50.3 F1000.
Z-1.1
Y54.7
Z-1.5 F333.
Y65.3 F1000.
Z-1.1
Y69.7
Z-1.5 F333.
Y80.3 F1000.
Z-1.1
Y84.7
Z-1.5 F333.
Y90. F1000.
G2 X-51.5 Y90.7 I0.7 J0.
G1 X-45.117
Z-1.1
X-40.717
Z-1.5 F333.
X-27.95 F1000.
Z-1.1
X-23.55
Z-1.5 F333.
X-10.783 F1000.
Z-1.1
X-6.383
Z-1.5 F333.
X6.383 F1000.
Z-1.1
X10.783
Z-1.5 F333.
X23.55 F1000.
Z-1.1
X27.95
Z-1.5 F333.
X40.717 F1000.
Z-1.1
X45.117
Z-1.5 F333.
X51.5 F1000.
G2 X52.2 Y90. I0. J-0.7
G1 Y84.7
Z-1.1
Y80.3
Z-1.5 F333.
Y69.7 F1000.
Z-1.1
Y65.3
Z-1.5 F333.
Y54.7 F1000.
Z-1.1
Y50.3
Z-1.5 F333.
Y39.7 F1000.
Z-1.1
Y35.3
Z-1.5 F333.
Y24.7 F1000.
Z-1.1
Y20.3
Z-1.5 F333.
Y9.7 F1000.
Z-1.1
Y5.3
Z-1.5 F333.
Y-5.3 F1000.
Z-1.1
Y-9.7
Z-1.5 F333.
Y-20.3 F1000.
Z-1.1
Y-24.7
Z-1.5 F333.
Y-35.3 F1000.
Z-1.1
Y-39.7
Z-1.5 F333.
Y-50.3 F1000.
Z-1.1
Y-54.7
Z-1.5 F333.
Y-65.3 F1000.
Z-1.1
Y-69.7
Z-1.5 F333.
Y-80.3 F1000.
Z-1.1
Y-84.7
Z-1.5 F333.
Y-90. F1000.
G2 X51.5 Y-90.7 I-0.7 J0.
G1 X45.117
Z-1.1
X40.717
Z-1.5 F333.
X27.95 F1000.
Z-1.1
X23.55
Z-1.5 F333.
X10.783 F1000.
Z-1.1
X6.383
Z-1.5 F333.
X-6.383 F1000.
Z-1.1
X-10.783
Z-1.5 F333.
X-14.103 F1000.
X-23.55 Z-1.651 F333.
Z-1.1
X-27.95
Z-1.721
X-40.717 Z-1.925
Z-1.1
X-45.117
Z-1.995
X-45.444 Z-2.
X-51.5 F1000.
G2 X-52.2 Y-90. I0. J0.7
G1 Y-84.7
Z-1.1
Y-80.3
Z-2. F333.
Y-69.7 F1000.
Z-1.1
Y-65.3
Z-2. F333.
Y-54.7 F1000.
Z-1.1
Y-50.3
Z-2. F333.
Y-39.7 F1000.
Z-1.1
Y-35.3
Z-2. F333.
Y-24.7 F1000.
Z-1.1
Y-20.3
Z-2. F333.
Y-9.7 F1000.
Z-1.1
Y-5.3
Z-2. F333.
Y5.3 F1000.
Z-1.1
Y9.7
Z-2. F333.
Y20.3 F1000.
Z-1.1
Y24.7
Z-2. F333.
Y35.3 F1000.
Z-1.1
Y39.7
Z-2. F333.
Y50.3 F1000.
Z-1.1
Y54.7
Z-2. F333.
Y65.3 F1000.
Z-1.1
Y69.7
Z-2. F333.
Y80.3 F1000.
Z-1.1
Y84.7
Z-2. F333.
Y90. F1000.
G2 X-51.5 Y90.7 I0.7 J0.
G1 X-45.117
Z-1.1
X-40.717
Z-2. F333.
X-27.95 F1000.
Z-1.1
X-23.55
Z-2. F333.
X-10.783 F1000.
Z-1.1
X-6.383
Z-2. F333.
X6.383 F1000.
Z-1.1
X10.783
Z-2. F333.
X23.55 F1000.
Z-1.1
X27.95
Z-2. F333.
X40.717 F1000.
Z-1.1
X45.117
Z-2. F333.
X51.5 F1000.
G2 X52.2 Y90. I0. J-0.7
G1 Y84.7
Z-1.1
Y80.3
Z-2. F333.
Y69.7 F1000.
Z-1.1
Y65.3
Z-2. F333.
Y54.7 F1000.
Z-1.1
Y50.3
Z-2. F333.
Y39.7 F1000.
Z-1.1
Y35.3
Z-2. F333.
Y24.7 F1000.
Z-1.1
Y20.3
Z-2. F333.
Y9.7 F1000.
Z-1.1
Y5.3
Z-2. F333.
Y-5.3 F1000.
Z-1.1
Y-9.7
Z-2. F333.
Y-20.3 F1000.
Z-1.1
Y-24.7
Z-2. F333.
Y-35.3 F1000.
Z-1.1
Y-39.7
Z-2. F333.
Y-50.3 F1000.
Z-1.1
Y-54.7
Z-2. F333.
Y-65.3 F1000.
Z-1.1
Y-69.7
Z-2. F333.
Y-80.3 F1000.
Z-1.1
Y-84.7
Z-2. F333.
Y-90. F1000.
G2 X51.5 Y-90.7 I-0.7 J0.
G1 X45.117
Z-1.1
X40.717
Z-2. F333.
X27.95 F1000.
Z-1.1
X23.55
Z-2. F333.
X10.783 F1000.
Z-1.1
X6.383
Z-2. F333.
X-6.383 F1000.
Z-1.1
X-10.783
Z-2. F333.
X-23.55 F1000.
Z-1.1
X-27.95
Z-2. F333.
X-40.717 F1000.
Z-1.1
X-45.117
Z-2. F333.
X-45.444 F1000.
X-45.487 Y-90.707
X-45.526 Y-90.727
X-45.557 Y-90.758
X-45.577 Y-90.797
X-45.584 Y-90.84
Y-90.98
Y-91.023 Z-1.993
Y-91.062 Z-1.973
Y-91.093 Z-1.942
Y-91.113 Z-1.903
Y-91.12 Z-1.86
G0 Z8.5

M9
G28 G91 Z0.
G90
G28 G91 X0. Y0.
G90
M30
