(1001)
(PANELCONTROLCONTORNO)
(T5  D=1.4 CR=0. - ZMIN=-3.5 - FRESA CON PUNTA PLANA)
G90 G94 G91.1 G40 G49 G17
G21
G28 G91 Z0.
G90

(2D CONTORNEADO1)
M5
T5 M6
S5000 M3
G54
M8
G0 X52.62 Y35.935
G43 Z7. H5
Z2.
G1 Z1.75 F333.
Z0.64
X52.613 Z0.597 F1000.
X52.593 Z0.558
X52.562 Z0.527
X52.523 Z0.507
X52.48 Z0.5
X52.34
X52.297 Y35.928
X52.258 Y35.909
X52.227 Y35.878
X52.207 Y35.839
X52.2 Y35.795
Y0. Z-0.75 F333.
Y-90. F1000.
G2 X51.5 Y-90.7 I-0.7 J0.
G1 X-51.5
G2 X-52.2 Y-90. I0. J0.7
G1 Y90.
G2 X-51.5 Y90.7 I0.7 J0.
G1 X51.5
G2 X52.2 Y90. I0. J-0.7
G1 Y0.
Y-47.011 Z-1.5 F333.
Y-90. F1000.
G2 X51.5 Y-90.7 I-0.7 J0.
G1 X-51.5
G2 X-52.2 Y-90. I0. J0.7
G1 Y90.
G2 X-51.5 Y90.7 I0.7 J0.
G1 X51.5
G2 X52.2 Y90. I0. J-0.7
G1 Y0.
Y-47.011
Y-90. Z-2.186 F333.
G2 X51.5 Y-90.7 Z-2.203 I-0.7 J0.
G1 X48.578 Z-2.25
X-51.5 F1000.
G2 X-52.2 Y-90. I0. J0.7
G1 Y90.
G2 X-51.5 Y90.7 I0.7 J0.
G1 X51.5
G2 X52.2 Y90. I0. J-0.7
G1 Y-47.011
Y-90.
G2 X51.5 Y-90.7 I-0.7 J0.
G1 X48.578
X26.639 Z-2.6 F333.
X23.55
Z-2.649
X10.783 Z-2.853
Z-2.6
X6.383
Z-2.923
X1.567 Z-3.
X-6.383 F1000.
Z-2.6
X-10.783
Z-3. F333.
X-23.55 F1000.
Z-2.6
X-27.95
Z-3. F333.
X-40.717 F1000.
Z-2.6
X-45.117
Z-3. F333.
X-51.5 F1000.
G2 X-52.2 Y-90. I0. J0.7
G1 Y-84.7
Z-2.6
Y-80.3
Z-3. F333.
Y-69.7 F1000.
Z-2.6
Y-65.3
Z-3. F333.
Y-54.7 F1000.
Z-2.6
Y-50.3
Z-3. F333.
Y-39.7 F1000.
Z-2.6
Y-35.3
Z-3. F333.
Y-24.7 F1000.
Z-2.6
Y-20.3
Z-3. F333.
Y-9.7 F1000.
Z-2.6
Y-5.3
Z-3. F333.
Y5.3 F1000.
Z-2.6
Y9.7
Z-3. F333.
Y20.3 F1000.
Z-2.6
Y24.7
Z-3. F333.
Y35.3 F1000.
Z-2.6
Y39.7
Z-3. F333.
Y50.3 F1000.
Z-2.6
Y54.7
Z-3. F333.
Y65.3 F1000.
Z-2.6
Y69.7
Z-3. F333.
Y80.3 F1000.
Z-2.6
Y84.7
Z-3. F333.
Y90. F1000.
G2 X-51.5 Y90.7 I0.7 J0.
G1 X-45.117
Z-2.6
X-40.717
Z-3. F333.
X-27.95 F1000.
Z-2.6
X-23.55
Z-3. F333.
X-10.783 F1000.
Z-2.6
X-6.383
Z-3. F333.
X6.383 F1000.
Z-2.6
X10.783
Z-3. F333.
X23.55 F1000.
Z-2.6
X27.95
Z-3. F333.
X40.717 F1000.
Z-2.6
X45.117
Z-3. F333.
X51.5 F1000.
G2 X52.2 Y90. I0. J-0.7
G1 Y84.7
Z-2.6
Y80.3
Z-3. F333.
Y69.7 F1000.
Z-2.6
Y65.3
Z-3. F333.
Y54.7 F1000.
Z-2.6
Y50.3
Z-3. F333.
Y39.7 F1000.
Z-2.6
Y35.3
Z-3. F333.
Y24.7 F1000.
Z-2.6
Y20.3
Z-3. F333.
Y9.7 F1000.
Z-2.6
Y5.3
Z-3. F333.
Y-5.3 F1000.
Z-2.6
Y-9.7
Z-3. F333.
Y-20.3 F1000.
Z-2.6
Y-24.7
Z-3. F333.
Y-35.3 F1000.
Z-2.6
Y-39.7
Z-3. F333.
Y-50.3 F1000.
Z-2.6
Y-54.7
Z-3. F333.
Y-65.3 F1000.
Z-2.6
Y-69.7
Z-3. F333.
Y-80.3 F1000.
Z-2.6
Y-84.7
Z-3. F333.
Y-90. F1000.
G2 X51.5 Y-90.7 I-0.7 J0.
G1 X45.117
Z-2.6
X40.717
Z-3. F333.
X27.95 F1000.
Z-2.6
X23.55
Z-3. F333.
X10.783 F1000.
Z-2.6
X6.383
Z-3. F333.
X1.567 F1000.
X-6.383 Z-3.127 F333.
Z-2.6
X-10.783
Z-3.197
X-23.55 Z-3.401
Z-2.6
X-27.95
Z-3.471
X-29.774 Z-3.5
X-40.717 F1000.
Z-2.6
X-45.117
Z-3.5 F333.
X-51.5 F1000.
G2 X-52.2 Y-90. I0. J0.7
G1 Y-84.7
Z-2.6
Y-80.3
Z-3.5 F333.
Y-69.7 F1000.
Z-2.6
Y-65.3
Z-3.5 F333.
Y-54.7 F1000.
Z-2.6
Y-50.3
Z-3.5 F333.
Y-39.7 F1000.
Z-2.6
Y-35.3
Z-3.5 F333.
Y-24.7 F1000.
Z-2.6
Y-20.3
Z-3.5 F333.
Y-9.7 F1000.
Z-2.6
Y-5.3
Z-3.5 F333.
Y5.3 F1000.
Z-2.6
Y9.7
Z-3.5 F333.
Y20.3 F1000.
Z-2.6
Y24.7
Z-3.5 F333.
Y35.3 F1000.
Z-2.6
Y39.7
Z-3.5 F333.
Y50.3 F1000.
Z-2.6
Y54.7
Z-3.5 F333.
Y65.3 F1000.
Z-2.6
Y69.7
Z-3.5 F333.
Y80.3 F1000.
Z-2.6
Y84.7
Z-3.5 F333.
Y90. F1000.
G2 X-51.5 Y90.7 I0.7 J0.
G1 X-45.117
Z-2.6
X-40.717
Z-3.5 F333.
X-27.95 F1000.
Z-2.6
X-23.55
Z-3.5 F333.
X-10.783 F1000.
Z-2.6
X-6.383
Z-3.5 F333.
X6.383 F1000.
Z-2.6
X10.783
Z-3.5 F333.
X23.55 F1000.
Z-2.6
X27.95
Z-3.5 F333.
X40.717 F1000.
Z-2.6
X45.117
Z-3.5 F333.
X51.5 F1000.
G2 X52.2 Y90. I0. J-0.7
G1 Y84.7
Z-2.6
Y80.3
Z-3.5 F333.
Y69.7 F1000.
Z-2.6
Y65.3
Z-3.5 F333.
Y54.7 F1000.
Z-2.6
Y50.3
Z-3.5 F333.
Y39.7 F1000.
Z-2.6
Y35.3
Z-3.5 F333.
Y24.7 F1000.
Z-2.6
Y20.3
Z-3.5 F333.
Y9.7 F1000.
Z-2.6
Y5.3
Z-3.5 F333.
Y-5.3 F1000.
Z-2.6
Y-9.7
Z-3.5 F333.
Y-20.3 F1000.
Z-2.6
Y-24.7
Z-3.5 F333.
Y-35.3 F1000.
Z-2.6
Y-39.7
Z-3.5 F333.
Y-50.3 F1000.
Z-2.6
Y-54.7
Z-3.5 F333.
Y-65.3 F1000.
Z-2.6
Y-69.7
Z-3.5 F333.
Y-80.3 F1000.
Z-2.6
Y-84.7
Z-3.5 F333.
Y-90. F1000.
G2 X51.5 Y-90.7 I-0.7 J0.
G1 X45.117
Z-2.6
X40.717
Z-3.5 F333.
X27.95 F1000.
Z-2.6
X23.55
Z-3.5 F333.
X10.783 F1000.
Z-2.6
X6.383
Z-3.5 F333.
X-6.383 F1000.
Z-2.6
X-10.783
Z-3.5 F333.
X-23.55 F1000.
Z-2.6
X-27.95
Z-3.5 F333.
X-29.774 F1000.
X-29.817 Y-90.707
X-29.856 Y-90.727
X-29.887 Y-90.758
X-29.907 Y-90.797
X-29.914 Y-90.84
Y-90.98
Y-91.023 Z-3.493
Y-91.062 Z-3.473
Y-91.093 Z-3.442
Y-91.113 Z-3.403
Y-91.12 Z-3.36
G0 Z7.

M9
G28 G91 Z0.
G90
G28 G91 X0. Y0.
G90
M30
