(1001)
(PANELCONTROL)
(T6  D=1.6 CR=0. - ZMIN=-0.5 - FRESA CON PUNTA PLANA)
G90 G94 G91.1 G40 G49 G17
G21
G28 G91 Z0.
G90

(2D CONTORNEADO1)
M5
T6 M6
S5000 M3
G54
M8
G0 X2.333 Y24.86
G43 Z10. H6
Z5.
G1 Z4.25 F333.
Z3.66
X2.325 Z3.611 F1000.
X2.302 Z3.566
X2.267 Z3.531
X2.222 Z3.508
X2.173 Z3.5
X2.013
X2.021 Y24.811
X2.043 Y24.766
X2.079 Y24.731
X2.123 Y24.708
X2.173 Y24.7
X23.65 Z2.75 F333.
X35.35 F1000.
Y48.1
X-35.35
Y24.7
X23.65
X30.809 Z2.5 F333.
X35.35 F1000.
Y48.1
X-35.35
Y24.7
X23.65
X30.809
X35.35 Z2.341 F333.
Y27.318 Z2.25
Y48.1 F1000.
X-35.35
Y24.7
X30.809
X35.35
Y27.318
Y34.477 Z2. F333.
Y48.1 F1000.
X-35.35
Y24.7
X35.35
Y34.477
Y41.636 Z1.75 F333.
Y48.1 F1000.
X-35.35
Y24.7
X35.35
Y34.477
Y41.636
Y48.1 Z1.524 F333.
X34.655 Z1.5
X-35.35 F1000.
Y24.7
X35.35
Y41.636
Y48.1
X34.655
X27.496 Z1.25 F333.
X-35.35 F1000.
Y24.7
X35.35
Y48.1
X27.496
X20.337 Z1. F333.
X-35.35 F1000.
Y24.7
X35.35
Y48.1
X27.496
X20.337
X13.177 Z0.75 F333.
X-35.35 F1000.
Y24.7
X35.35
Y48.1
X20.337
X13.177
X6.018 Z0.5 F333.
X-35.35 F1000.
Y24.7
X35.35
Y48.1
X13.177
X6.018
X-1.141 Z0.25 F333.
X-35.35 F1000.
Y24.7
X35.35
Y48.1
X6.018
X-1.141
X-6.738 Z0.055 F333.
Z0.2
X-8.3
X-11.337 F1000.
Z0. F333.
X-24.813 F1000.
Z0.2
X-29.413
Z0. F333.
X-35.35 F1000.
Y38.7
Z0.2
Y34.1
Z0. F333.
Y24.7 F1000.
X-29.413
Z0.2
X-24.813
Z0. F333.
X-11.337 F1000.
Z0.2
X-6.738
Z0. F333.
X6.738 F1000.
Z0.2
X11.337
Z0. F333.
X24.813 F1000.
Z0.2
X29.413
Z0. F333.
X35.35 F1000.
Y34.1
Z0.2
Y38.7
Z0. F333.
Y48.1 F1000.
X29.413
Z0.2
X24.813
Z0. F333.
X11.337 F1000.
Z0.2
X6.738
Z0. F333.
X-6.738 F1000.
Z0.2
X-8.3
X-11.337 F333.
Z-0.106
X-15.459 Z-0.25
X-24.813 F1000.
Z0.2
X-29.413
Z-0.25 F333.
X-35.35 F1000.
Y38.7
Z0.2
Y34.1
Z-0.25 F333.
Y24.7 F1000.
X-29.413
Z0.2
X-24.813
Z-0.25 F333.
X-11.337 F1000.
Z0.2
X-6.738
Z-0.25 F333.
X6.738 F1000.
Z0.2
X11.337
Z-0.25 F333.
X24.813 F1000.
Z0.2
X29.413
Z-0.25 F333.
X35.35 F1000.
Y34.1
Z0.2
Y38.7
Z-0.25 F333.
Y48.1 F1000.
X29.413
Z0.2
X24.813
Z-0.25 F333.
X11.337 F1000.
Z0.2
X6.738
Z-0.25 F333.
X-6.738 F1000.
Z0.2
X-11.337
Z-0.25 F333.
X-15.459 F1000.
X-22.618 Z-0.5 F333.
X-24.813 F1000.
Z0.2
X-29.413
Z-0.5 F333.
X-35.35 F1000.
Y38.7
Z0.2
Y34.1
Z-0.5 F333.
Y24.7 F1000.
X-29.413
Z0.2
X-24.813
Z-0.5 F333.
X-11.337 F1000.
Z0.2
X-6.738
Z-0.5 F333.
X6.738 F1000.
Z0.2
X11.337
Z-0.5 F333.
X24.813 F1000.
Z0.2
X29.413
Z-0.5 F333.
X35.35 F1000.
Y34.1
Z0.2
Y38.7
Z-0.5 F333.
Y48.1 F1000.
X29.413
Z0.2
X24.813
Z-0.5 F333.
X11.337 F1000.
Z0.2
X6.738
Z-0.5 F333.
X-6.738 F1000.
Z0.2
X-11.337
Z-0.5 F333.
X-22.618 F1000.
X-22.667 Y48.092
X-22.712 Y48.069
X-22.747 Y48.034
X-22.77 Y47.989
X-22.778 Y47.94
X-22.618
X-22.568 Z-0.492
X-22.524 Z-0.469
X-22.488 Z-0.434
X-22.466 Z-0.389
X-22.458 Z-0.34
G0 Z5.
X-22.576 Y-23.022
G1 Z4.25 F333.
Z3.66
X-22.568 Y-23.025 Z3.611 F1000.
X-22.547 Y-23.032 Z3.566
X-22.513 Y-23.044 Z3.531
X-22.471 Y-23.059 Z3.508
X-22.425 Y-23.075 Z3.5
X-22.274 Y-23.128
X-22.265 Y-23.079
X-22.271 Y-23.029
X-22.293 Y-22.984
X-22.328 Y-22.948
X-22.372 Y-22.924
G3 X-25.3 Y-25. Z3.353 I-0.728 J-2.076 F333.
X-20.9 Z3.112 I2.2 J0.
X-25.3 Z2.871 I-2.2 J0.
X-23.1 Y-27.2 Z2.75 I2.2 J0.
X-20.9 Y-25. I0. J2.2 F1000.
X-25.3 I-2.2 J0.
X-23.1 Y-27.2 I2.2 J0.
X-20.9 Y-25. Z2.629 I0. J2.2 F333.
X-23.347 Y-22.814 Z2.5 I-2.2 J0.
X-25.3 Y-25. I0.247 J-2.186 F1000.
X-20.9 I2.2 J0.
X-23.347 Y-22.814 I-2.2 J0.
X-25.3 Y-25. Z2.388 I0.247 J-2.186 F333.
X-22.609 Y-27.145 Z2.25 I2.2 J0.
X-20.9 Y-25. I-0.491 J2.145 F1000.
X-25.3 I-2.2 J0.
X-22.609 Y-27.145 I2.2 J0.
X-20.9 Y-25. Z2.147 I-0.491 J2.145 F333.
X-23.829 Y-22.924 Z2. I-2.2 J0.
X-25.3 Y-25. I0.729 J-2.076 F1000.
X-20.9 I2.2 J0.
X-23.829 Y-22.924 I-2.2 J0.
X-25.3 Y-25. Z1.905 I0.729 J-2.076 F333.
X-22.143 Y-26.981 Z1.75 I2.2 J0.
X-20.9 Y-25. I-0.957 J1.981 F1000.
X-25.3 I-2.2 J0.
X-22.143 Y-26.981 I2.2 J0.
X-20.9 Y-25. Z1.664 I-0.957 J1.981 F333.
X-24.273 Y-23.139 Z1.5 I-2.2 J0.
X-25.3 Y-25. I1.173 J-1.861 F1000.
X-20.9 I2.2 J0.
X-24.273 Y-23.139 I-2.2 J0.
X-25.3 Y-25. Z1.423 I1.173 J-1.861 F333.
X-21.725 Y-26.718 Z1.25 I2.2 J0.
X-20.9 Y-25. I-1.375 J1.718 F1000.
X-25.3 I-2.2 J0.
X-21.725 Y-26.718 I2.2 J0.
X-20.9 Y-25. Z1.181 I-1.375 J1.718 F333.
X-24.659 Y-23.448 Z1. I-2.2 J0.
X-25.3 Y-25. I1.559 J-1.552 F1000.
X-20.9 I2.2 J0.
X-24.659 Y-23.448 I-2.2 J0.
X-25.3 Y-25. Z0.94 I1.559 J-1.552 F333.
X-21.377 Y-26.368 Z0.75 I2.2 J0.
X-20.9 Y-25. I-1.723 J1.368 F1000.
X-25.3 I-2.2 J0.
X-21.377 Y-26.368 I2.2 J0.
X-20.9 Y-25. Z0.698 I-1.723 J1.368 F333.
X-24.966 Y-23.835 Z0.5 I-2.2 J0.
X-25.3 Y-25. I1.866 J-1.165 F1000.
X-20.9 I2.2 J0.
X-24.966 Y-23.835 I-2.2 J0.
X-25.3 Y-25. Z0.457 I1.866 J-1.165 F333.
X-21.115 Y-25.949 Z0.25 I2.2 J0.
X-20.9 Y-25. I-1.985 J0.949 F1000.
X-25.3 I-2.2 J0.
X-21.115 Y-25.949 I2.2 J0.
X-20.9 Y-25. Z0.216 I-1.985 J0.949 F333.
X-20.946 Y-24.552 Z0.2 I-2.2 J0.
X-21.86 Y-23.183 I-2.154 J-0.448
G1 Z0.141
G3 X-25.179 Y-24.28 Z0. I-1.24 J-1.817
X-25.3 Y-25. I2.079 J-0.72 F1000.
X-21.86 Y-26.817 I2.2 J0.
G1 Z0.2
G3 X-20.9 Y-25. I-1.24 J1.817
X-21.86 Y-23.183 I-2.2 J0.
G1 Z0. F333.
G3 X-25.179 Y-24.28 I-1.24 J-1.817 F1000.
X-25.3 Y-25. Z-0.026 I2.079 J-0.72 F333.
X-21.86 Y-26.817 Z-0.192 I2.2 J0.
G1 Z0.2
G3 X-20.953 Y-25.482 I-1.24 J1.817
X-20.9 Y-25. I-2.147 J0.482 F1000.
X-21.86 Y-23.183 I-2.2 J0.
G1 Z-0.25 F333.
G3 X-25.3 Y-25. I-1.24 J-1.817 F1000.
X-21.86 Y-26.817 I2.2 J0.
G1 Z0.2
G3 X-20.953 Y-25.482 I-1.24 J1.817
X-20.9 Y-25. I-2.147 J0.482 F333.
X-21.86 Y-23.183 I-2.2 J0.
G1 Z-0.342
G3 X-25.287 Y-24.762 Z-0.5 I-1.24 J-1.817
G1 X-25.297 Y-24.881 F1000.
X-25.3 Y-25.
G3 X-21.86 Y-26.817 I2.2 J0.
G1 Z0.2
G3 X-20.9 Y-25. I-1.24 J1.817
X-21.86 Y-23.183 I-2.2 J0.
G1 Z-0.5 F333.
G3 X-25.287 Y-24.762 I-1.24 J-1.817 F1000.
G1 X-25.285 Y-24.812
X-25.267 Y-24.859
X-25.236 Y-24.898
X-25.194 Y-24.925
X-25.145 Y-24.939
X-25.128 Y-24.78
X-25.123 Y-24.73 Z-0.492
X-25.118 Y-24.686 Z-0.469
X-25.114 Y-24.651 Z-0.434
X-25.112 Y-24.628 Z-0.389
X-25.111 Y-24.62 Z-0.34
G0 Z5.
X-10.078 Y-23.021
G1 Z4.25 F333.
Z3.66
X-10.071 Y-23.024 Z3.611 F1000.
X-10.049 Y-23.031 Z3.566
X-10.016 Y-23.043 Z3.531
X-9.974 Y-23.058 Z3.508
X-9.927 Y-23.074 Z3.5
X-9.776 Y-23.127
X-9.767 Y-23.078
X-9.774 Y-23.028
X-9.796 Y-22.983
X-9.83 Y-22.947
X-9.874 Y-22.923
G3 X-12.801 Y-25. Z3.353 I-0.726 J-2.077 F333.
X-10.6 Y-27.2 Z3.233 I2.2 J0.
X-8.4 Y-25. Z3.112 I0. J2.2
X-12.801 Z2.871 I-2.2 J0.
X-10.6 Y-27.2 Z2.75 I2.2 J0.
X-8.4 Y-25. I0. J2.2 F1000.
X-12.801 I-2.2 J0.
X-10.6 Y-27.2 I2.2 J0.
X-8.4 Y-25. Z2.629 I0. J2.2 F333.
X-10.846 Y-22.814 Z2.5 I-2.2 J0.
X-12.801 Y-25. I0.246 J-2.187 F1000.
X-10.6 Y-27.2 I2.2 J0.
X-8.4 Y-25. I0. J2.2
X-10.846 Y-22.814 I-2.2 J0.
X-12.801 Y-25. Z2.388 I0.246 J-2.187 F333.
X-10.6 Y-27.2 Z2.267 I2.2 J0.
X-10.111 Y-27.145 Z2.25 I0. J2.2
X-8.4 Y-25. I-0.489 J2.145 F1000.
X-12.801 I-2.2 J0.
X-10.6 Y-27.2 I2.2 J0.
X-10.111 Y-27.145 I0. J2.2
X-8.4 Y-25. Z2.147 I-0.489 J2.145 F333.
X-11.326 Y-22.923 Z2. I-2.2 J0.
X-12.801 Y-25. I0.726 J-2.077 F1000.
X-10.6 Y-27.2 I2.2 J0.
X-8.4 Y-25. I0. J2.2
X-11.326 Y-22.923 I-2.2 J0.
X-12.801 Y-25. Z1.905 I0.726 J-2.077 F333.
X-10.6 Y-27.2 Z1.784 I2.2 J0.
X-9.646 Y-26.983 Z1.75 I0. J2.2
X-8.4 Y-25. I-0.954 J1.983 F1000.
X-12.801 I-2.2 J0.
X-10.6 Y-27.2 I2.2 J0.
X-9.646 Y-26.983 I0. J2.2
X-8.4 Y-25. Z1.664 I-0.954 J1.983 F333.
X-11.77 Y-23.137 Z1.5 I-2.2 J0.
X-12.801 Y-25. I1.17 J-1.864 F1000.
X-10.6 Y-27.2 I2.2 J0.
X-8.4 Y-25. I0. J2.2
X-11.77 Y-23.137 I-2.2 J0.
X-12.801 Y-25. Z1.422 I1.17 J-1.864 F333.
X-10.6 Y-27.2 Z1.302 I2.2 J0.
X-9.23 Y-26.721 Z1.25 I0. J2.2
X-8.4 Y-25. I-1.371 J1.721 F1000.
X-12.801 I-2.2 J0.
X-10.6 Y-27.2 I2.2 J0.
X-9.23 Y-26.721 I0. J2.2
X-8.4 Y-25. Z1.181 I-1.371 J1.721 F333.
X-12.155 Y-23.443 Z1. I-2.2 J0.
X-12.801 Y-25. I1.555 J-1.557 F1000.
X-10.6 Y-27.2 I2.2 J0.
X-8.4 Y-25. I0. J2.2
X-12.155 Y-23.443 I-2.2 J0.
X-12.801 Y-25. Z0.94 I1.555 J-1.557 F333.
X-10.6 Y-27.2 Z0.819 I2.2 J0.
X-8.881 Y-26.374 Z0.75 I0. J2.2
X-8.4 Y-25. I-1.719 J1.373 F1000.
X-12.801 I-2.2 J0.
X-10.6 Y-27.2 I2.2 J0.
X-8.881 Y-26.374 I0. J2.2
X-8.4 Y-25. Z0.698 I-1.719 J1.373 F333.
X-12.462 Y-23.828 Z0.5 I-2.2 J0.
X-12.801 Y-25. I1.862 J-1.173 F1000.
X-10.6 Y-27.2 I2.2 J0.
X-8.4 Y-25. I0. J2.2
X-12.462 Y-23.828 I-2.2 J0.
X-12.801 Y-25. Z0.457 I1.862 J-1.173 F333.
X-10.6 Y-27.2 Z0.336 I2.2 J0.
X-8.619 Y-25.957 Z0.25 I0. J2.2
X-8.4 Y-25. I-1.981 J0.957 F1000.
X-12.801 I-2.2 J0.
X-10.6 Y-27.2 I2.2 J0.
X-8.619 Y-25.957 I0. J2.2
X-8.4 Y-25. Z0.215 I-1.981 J0.957 F333.
X-8.444 Y-24.561 Z0.2 I-2.2 J0.
X-9.36 Y-23.183 I-2.156 J-0.439
G1 Z0.141
G3 X-12.676 Y-24.271 Z0. I-1.24 J-1.817
X-12.801 Y-25. I2.076 J-0.729 F1000.
X-10.6 Y-27.2 I2.2 J0.
X-9.36 Y-26.818 I0. J2.2
G1 Z0.2
G3 X-8.4 Y-25. I-1.24 J1.817
X-9.36 Y-23.183 I-2.2 J0.
G1 Z0. F333.
G3 X-12.676 Y-24.271 I-1.24 J-1.817 F1000.
X-12.801 Y-25. Z-0.026 I2.076 J-0.729 F333.
X-10.6 Y-27.2 Z-0.147 I2.2 J0.
X-9.36 Y-26.818 Z-0.193 I0. J2.2
G1 Z0.2
G3 X-8.456 Y-25.493 I-1.24 J1.817
X-8.4 Y-25. I-2.144 J0.493 F1000.
X-9.36 Y-23.183 I-2.2 J0.
G1 Z-0.25 F333.
G3 X-12.801 Y-25. I-1.24 J-1.817 F1000.
X-10.6 Y-27.2 I2.2 J0.
X-9.36 Y-26.818 I0. J2.2
G1 Z0.2
G3 X-8.456 Y-25.493 I-1.24 J1.817
X-8.4 Y-25. I-2.144 J0.493 F333.
X-9.36 Y-23.183 I-2.2 J0.
G1 Z-0.342
G3 X-12.786 Y-24.751 Z-0.5 I-1.24 J-1.817
G1 X-12.797 Y-24.875 F1000.
X-12.801 Y-25.
G3 X-10.6 Y-27.2 I2.2 J0.
X-9.36 Y-26.818 I0. J2.2
G1 Z0.2
G3 X-8.4 Y-25. I-1.24 J1.817
X-9.36 Y-23.183 I-2.2 J0.
G1 Z-0.5 F333.
G3 X-12.786 Y-24.751 I-1.24 J-1.817 F1000.
G1 X-12.784 Y-24.801
X-12.767 Y-24.848
X-12.736 Y-24.887
X-12.694 Y-24.914
X-12.646 Y-24.928
X-12.627 Y-24.769
X-12.622 Y-24.72 Z-0.492
X-12.617 Y-24.675 Z-0.469
X-12.613 Y-24.64 Z-0.434
X-12.61 Y-24.618 Z-0.389
X-12.609 Y-24.61 Z-0.34
G0 Z5.
X12.669 Y-28.069
G1 Z4.25 F333.
Z3.66
X12.662 Y-28.073 Z3.611 F1000.
X12.642 Y-28.083 Z3.566
X12.611 Y-28.1 Z3.531
X12.571 Y-28.12 Z3.508
X12.527 Y-28.143 Z3.5
X12.385 Y-28.216
X12.415 Y-28.257
X12.456 Y-28.286
X12.503 Y-28.301
X12.553
X12.601 Y-28.285
G3 X14.6 Y-25. Z3.359 I-1.7 J3.285 F333.
X7.201 Z2.953 I-3.699 J0.
X10.9 Y-28.699 Z2.75 I3.699 J0.
X14.6 Y-25. I0. J3.699 F1000.
X7.201 I-3.699 J0.
X10.9 Y-28.699 I3.699 J0.
X14.6 Y-25. Z2.547 I0. J3.699 F333.
X14.357 Y-23.681 Z2.5 I-3.699 J0.
X7.201 Y-25. I-3.456 J-1.318 F1000.
X14.6 I3.699 J0.
X14.357 Y-23.681 I-3.699 J0.
X8.437 Y-22.24 Z2.25 I-3.456 J-1.318 F333.
X7.201 Y-25. I2.464 J-2.76 F1000.
X14.6 I3.699 J0.
X8.437 Y-22.24 I-3.699 J0.
X7.201 Y-25. Z2.141 I2.464 J-2.76 F333.
X9.2 Y-28.285 Z2. I3.699 J0.
X14.6 Y-25. I1.7 J3.285 F1000.
X7.201 I-3.699 J0.
X9.2 Y-28.285 I3.699 J0.
X14.576 Y-25.417 Z1.75 I1.7 J3.285 F333.
X14.6 Y-25. I-3.676 J0.418 F1000.
X7.201 I-3.699 J0.
X14.576 Y-25.417 I3.699 J0.
X14.6 Y-25. Z1.735 I-3.676 J0.418 F333.
X9.981 Y-21.416 Z1.5 I-3.699 J0.
X7.201 Y-25. I0.92 J-3.583 F1000.
X14.6 I3.699 J0.
X9.981 Y-21.416 I-3.699 J0.
X7.201 Y-25. Z1.33 I0.92 J-3.583 F333.
X7.88 Y-27.136 Z1.25 I3.699 J0.
X14.6 Y-25. I3.02 J2.136 F1000.
X7.201 I-3.699 J0.
X7.88 Y-27.136 I3.699 J0.
X13.973 Y-27.06 Z1. I3.02 J2.136 F333.
X14.6 Y-25. I-3.072 J2.061 F1000.
X7.201 I-3.699 J0.
X13.973 Y-27.06 I3.699 J0.
X14.6 Y-25. Z0.924 I-3.072 J2.061 F333.
X11.731 Y-21.395 Z0.75 I-3.699 J0.
X7.201 Y-25. I-0.83 J-3.605 F1000.
X14.6 I3.699 J0.
X11.731 Y-21.395 I-3.699 J0.
X7.201 Y-25. Z0.518 I-0.83 J-3.605 F333.
X7.236 Y-25.508 Z0.5 I3.699 J0.
X14.6 Y-25. I3.664 J0.509 F1000.
X7.201 I-3.699 J0.
X7.236 Y-25.508 I3.699 J0.
X12.682 Y-28.242 Z0.25 I3.664 J0.509 F333.
X14.6 Y-25. I-1.781 J3.242 F1000.
X7.201 I-3.699 J0.
X12.682 Y-28.242 I3.699 J0.
X13.798 Y-27.3 Z0.199 I-1.781 J3.242 F333.
G1 Z0.2
G3 X14.6 Y-25. I-2.898 J2.3
X13.798 Y-22.7 I-3.699 J0.
G1 Z0.025
G3 X13.295 Y-22.18 Z0. I-2.898 J-2.3
X7.201 Y-25. I-2.395 J-2.82 F1000.
X13.798 Y-27.3 I3.699 J0.
G1 Z0.2
G3 X14.6 Y-25. I-2.898 J2.3
X13.798 Y-22.7 I-3.699 J0.
G1 Z0. F333.
G3 X13.295 Y-22.18 I-2.898 J-2.3 F1000.
X7.412 Y-23.767 Z-0.25 I-2.395 J-2.82 F333.
X7.201 Y-25. I3.488 J-1.232 F1000.
X13.798 Y-27.3 I3.699 J0.
G1 Z0.2
G3 X14.6 Y-25. I-2.898 J2.3
X13.798 Y-22.7 I-3.699 J0.
G1 Z-0.25 F333.
G3 X7.412 Y-23.767 I-2.898 J-2.3 F1000.
X7.201 Y-25. Z-0.294 I3.488 J-1.232 F333.
X10.992 Y-28.698 Z-0.5 I3.699 J0.
X13.798 Y-27.3 I-0.092 J3.698 F1000.
G1 Z0.2
G3 X14.6 Y-25. I-2.898 J2.3
X13.798 Y-22.7 I-3.699 J0.
G1 Z-0.5 F333.
G3 X7.201 Y-25. I-2.898 J-2.3 F1000.
X10.992 Y-28.698 I3.699 J0.
G1 X11.041 Y-28.689
X11.085 Y-28.665
X11.12 Y-28.629
X11.141 Y-28.584
X11.148 Y-28.534
X10.988 Y-28.538
X10.939 Y-28.539 Z-0.492
X10.894 Y-28.54 Z-0.469
X10.859 Y-28.541 Z-0.434
X10.836 Y-28.542 Z-0.389
X10.828 Z-0.34
G0 Z5.
X21.86 Y-22.083
G1 Z4.25 F333.
Z3.66
Y-22.075 Z3.611 F1000.
Y-22.052 Z3.566
Y-22.017 Z3.531
Y-21.972 Z3.508
Y-21.923 Z3.5
Y-21.763
X21.811 Y-21.771
X21.766 Y-21.793
X21.731 Y-21.829
X21.708 Y-21.873
X21.7 Y-21.923
Y-29.3 Z3.242 F333.
X31.1 Z2.914
Y-24.6 Z2.75
Y-19.9 F1000.
X21.7
Y-29.3
X31.1
Y-24.6
Y-19.9 Z2.586 F333.
X28.641 Z2.5
X21.7 F1000.
Y-29.3
X31.1
Y-19.9
X28.641
X21.7 Z2.258 F333.
Y-20.118 Z2.25
Y-29.3 F1000.
X31.1
Y-19.9
X21.7
Y-20.118
Y-27.277 Z2. F333.
Y-29.3 F1000.
X31.1
Y-19.9
X21.7
Y-27.277
Y-29.3 Z1.929 F333.
X26.836 Z1.75
X31.1 F1000.
Y-19.9
X21.7
Y-27.277
Y-29.3
X26.836
X31.1 Z1.601 F333.
Y-26.405 Z1.5
Y-19.9 F1000.
X21.7
Y-29.3
X26.836
X31.1
Y-26.405
Y-19.9 Z1.273 F333.
X30.446 Z1.25
X21.7 F1000.
Y-29.3
X31.1
Y-19.9
X30.446
X23.287 Z1. F333.
X21.7 F1000.
Y-29.3
X31.1
Y-19.9
X23.287
X21.7 Z0.945 F333.
Y-25.473 Z0.75
Y-29.3 F1000.
X31.1
Y-19.9
X23.287
X21.7
Y-25.473
Y-29.3 Z0.616 F333.
X25.032 Z0.5
X31.1 F1000.
Y-19.9
X21.7
Y-25.473
Y-29.3
X25.032
X31.1 Z0.288 F333.
Y-28.209 Z0.25
Y-19.9 F1000.
X21.7
Y-29.3
X31.1
Y-28.209
Y-21.05 Z0. F333.
Y-19.9 F1000.
X21.7
Y-29.3
X31.1
Y-21.05
Y-19.9 Z-0.04 F333.
X25.091 Z-0.25
X21.7 F1000.
Y-29.3
X31.1
Y-21.05
Y-19.9
X25.091
X21.7 Z-0.368 F333.
Y-23.668 Z-0.5
Y-29.3 F1000.
X31.1
Y-19.9
X25.091
X21.7
Y-23.668
X21.708 Y-23.717
X21.731 Y-23.762
X21.766 Y-23.797
X21.811 Y-23.82
X21.86 Y-23.828
Y-23.668
Y-23.618 Z-0.492
Y-23.574 Z-0.469
Y-23.538 Z-0.434
Y-23.516 Z-0.389
Y-23.508 Z-0.34
G0 Z10.

M9
G28 G91 Z0.
G90
G28 G91 X0. Y0.
G90
M30
