(1001)
(PanelSALIDA)
(T1  D=1.8 CR=0 - ZMIN=-3.3 - fresa con punta plana)
G90 G94
G17
G21
G28 G91 Z0
G90

(2D Contorneado1)
T1
S5000 M3
G54
M8
G0 X-16.932 Y-11.917
Z7
Z2
G1 Z1.75 F333.3
Z0.68
G18 G3 X-17.112 Z0.5 I-0.18 K0 F1000
G1 X-17.292
G17 G3 X-17.472 Y-12.097 I0 J-0.18
G1 Y-25.505 Z0.032 F333.3
X4.916 Z-0.75
X17.468 F1000
Y-0.4
X-17.472
Y-25.505
X4.916
X17.468 Z-1.126 F333.3
Y-13.039 Z-1.5
Y-0.4 F1000
X-17.472
Y-25.505
X4.916
X17.468
Y-13.039
Y-0.4 Z-1.879 F333.3
X10.092 Z-2.1
X6.783
Z-2.199
X5.088 Z-2.25
X-6.787 F1000
Z-2.1
X-11.587
Z-2.25 F333.3
X-17.472 F1000
Y-10.553
Z-2.1
Y-15.353
Z-2.25 F333.3
Y-25.505 F1000
X-11.587
Z-2.1
X-6.787
Z-2.25 F333.3
X6.783 F1000
Z-2.1
X11.583
Z-2.25 F333.3
X17.468 F1000
Y-15.353
Z-2.1
Y-10.553
Z-2.25 F333.3
Y-0.4 F1000
X11.583
Z-2.1
X6.783
Z-2.25 F333.3
X5.088 F1000
X-6.787 Z-2.606 F333.3
Z-2.1
X-11.587
Z-2.75
X-17.472 Z-2.926
Y-2.859 Z-3
Y-10.553 F1000
Z-2.1
Y-15.353
Z-3 F333.3
Y-25.505 F1000
X-11.587
Z-2.1
X-6.787
Z-3 F333.3
X6.783 F1000
Z-2.1
X11.583
Z-3 F333.3
X17.468 F1000
Y-15.353
Z-2.1
Y-10.553
Z-3 F333.3
Y-0.4 F1000
X11.583
Z-2.1
X6.783
Z-3 F333.3
X-6.787 F1000
Z-2.1
X-11.587
Z-3 F333.3
X-17.472 F1000
Y-2.859
Y-10.553 Z-3.231 F333.3
Z-2.1
Y-12.866
Y-15.353 F1000
Z-3.3 F333.3
Y-25.505 F1000
X-11.587
Z-2.1
X-6.787
Z-3.3 F333.3
X6.783 F1000
Z-2.1
X11.583
Z-3.3 F333.3
X17.468 F1000
Y-15.353
Z-2.1
Y-10.553
Z-3.3 F333.3
Y-0.4 F1000
X11.583
Z-2.1
X6.783
Z-3.3 F333.3
X-6.787 F1000
Z-2.1
X-11.587
Z-3.3 F333.3
X-17.472 F1000
Y-10.553
Z-2.1
Y-12.866
G3 X-17.292 Y-13.046 I0.18 J0
G1 X-16.932
G0 Z2
X49.94 Y35.975
G1 Z1.75 F333.3
Z0.68
G18 G3 X49.76 Z0.5 I-0.18 K0 F1000
G1 X49.58
G17 G3 X49.4 Y35.795 I0 J-0.18
G1 Y0 Z-0.75 F333.3
Y-90 F1000
G2 X48.5 Y-90.9 I-0.9 J0
G1 X-48.5
G2 X-49.4 Y-90 I0 J0.9
G1 Y90
G2 X-48.5 Y90.9 I0.9 J0
G1 X48.5
G2 X49.4 Y90 I0 J-0.9
G1 Y0
Y-90 Z-1.329 F333.3
G2 X48.5 Y-90.9 Z-1.338 I-0.9 J0
G1 X23.319 Z-1.5
X-48.5 F1000
G2 X-49.4 Y-90 I0 J0.9
G1 Y90
G2 X-48.5 Y90.9 I0.9 J0
G1 X48.5
G2 X49.4 Y90 I0 J-0.9
G1 Y-90
G2 X48.5 Y-90.9 I-0.9 J0
G1 X23.319
X-48.5 Z-1.962 F333.3
G2 X-49.4 Y-90 Z-1.971 I0 J0.9
G1 Y-69.9 Z-2.1
Y-65.1
Z-2.131
Y-54.9 Z-2.197
Z-2.1
Y-50.1
Z-2.228
Y-46.638 Z-2.25
Y-39.9 F1000
Z-2.1
Y-35.1
Z-2.25 F333.3
Y-24.9 F1000
Z-2.1
Y-20.1
Z-2.25 F333.3
Y-9.9 F1000
Z-2.1
Y-5.1
Z-2.25 F333.3
Y5.1 F1000
Z-2.1
Y9.9
Z-2.25 F333.3
Y20.1 F1000
Z-2.1
Y24.9
Z-2.25 F333.3
Y35.1 F1000
Z-2.1
Y39.9
Z-2.25 F333.3
Y50.1 F1000
Z-2.1
Y54.9
Z-2.25 F333.3
Y65.1 F1000
Z-2.1
Y69.9
Z-2.25 F333.3
Y80.1 F1000
Z-2.1
Y84.9
Z-2.25 F333.3
Y90 F1000
G2 X-48.5 Y90.9 I0.9 J0
G1 X-42.817
Z-2.1
X-38.017
Z-2.25 F333.3
X-26.65 F1000
Z-2.1
X-21.85
Z-2.25 F333.3
X-10.483 F1000
Z-2.1
X-5.683
Z-2.25 F333.3
X5.683 F1000
Z-2.1
X10.483
Z-2.25 F333.3
X21.85 F1000
Z-2.1
X26.65
Z-2.25 F333.3
X38.017 F1000
Z-2.1
X42.817
Z-2.25 F333.3
X48.5 F1000
G2 X49.4 Y90 I0 J-0.9
G1 Y84.9
Z-2.1
Y80.1
Z-2.25 F333.3
Y69.9 F1000
Z-2.1
Y65.1
Z-2.25 F333.3
Y54.9 F1000
Z-2.1
Y50.1
Z-2.25 F333.3
Y39.9 F1000
Z-2.1
Y35.1
Z-2.25 F333.3
Y24.9 F1000
Z-2.1
Y20.1
Z-2.25 F333.3
Y9.9 F1000
Z-2.1
Y5.1
Z-2.25 F333.3
Y-5.1 F1000
Z-2.1
Y-9.9
Z-2.25 F333.3
Y-20.1 F1000
Z-2.1
Y-24.9
Z-2.25 F333.3
Y-35.1 F1000
Z-2.1
Y-39.9
Z-2.25 F333.3
Y-50.1 F1000
Z-2.1
Y-54.9
Z-2.25 F333.3
Y-65.1 F1000
Z-2.1
Y-69.9
Z-2.25 F333.3
Y-80.1 F1000
Z-2.1
Y-84.9
Z-2.25 F333.3
Y-90 F1000
G2 X48.5 Y-90.9 I-0.9 J0
G1 X42.817
Z-2.1
X38.017
Z-2.25 F333.3
X26.65 F1000
Z-2.1
X21.85
Z-2.25 F333.3
X10.483 F1000
Z-2.1
X5.683
Z-2.25 F333.3
X-5.683 F1000
Z-2.1
X-10.483
Z-2.25 F333.3
X-21.85 F1000
Z-2.1
X-26.65
Z-2.25 F333.3
X-38.017 F1000
Z-2.1
X-42.817
Z-2.25 F333.3
X-48.5 F1000
G2 X-49.4 Y-90 I0 J0.9
G1 Y-84.9
Z-2.1
Y-80.1
Z-2.25 F333.3
Y-69.9 F1000
Z-2.1
Y-65.1
Z-2.25 F333.3
Y-54.9 F1000
Z-2.1
Y-50.1
Z-2.25 F333.3
Y-46.638 F1000
Y-39.9 Z-2.293 F333.3
Z-2.1
Y-35.1
Z-2.324
Y-24.9 Z-2.39
Z-2.1
Y-20.1
Z-2.421
Y-9.9 Z-2.486
Z-2.1
Y-5.1
Z-2.517
Y5.1 Z-2.583
Z-2.1
Y9.9
Z-2.614
Y20.1 Z-2.679
Z-2.1
Y24.9
Z-2.71
Y35.1 Z-2.776
Z-2.1
Y39.9
Z-2.807
Y50.1 Z-2.872
Z-2.1
Y54.9
Z-2.903
Y65.1 Z-2.969
Z-2.1
Y69.9
Z-3
Y69.957
Y80.1 F1000
Z-2.1
Y84.9
Z-3 F333.3
Y90 F1000
G2 X-48.5 Y90.9 I0.9 J0
G1 X-42.817
Z-2.1
X-38.017
Z-3 F333.3
X-26.65 F1000
Z-2.1
X-21.85
Z-3 F333.3
X-10.483 F1000
Z-2.1
X-5.683
Z-3 F333.3
X5.683 F1000
Z-2.1
X10.483
Z-3 F333.3
X21.85 F1000
Z-2.1
X26.65
Z-3 F333.3
X38.017 F1000
Z-2.1
X42.817
Z-3 F333.3
X48.5 F1000
G2 X49.4 Y90 I0 J-0.9
G1 Y84.9
Z-2.1
Y80.1
Z-3 F333.3
Y69.9 F1000
Z-2.1
Y65.1
Z-3 F333.3
Y54.9 F1000
Z-2.1
Y50.1
Z-3 F333.3
Y39.9 F1000
Z-2.1
Y35.1
Z-3 F333.3
Y24.9 F1000
Z-2.1
Y20.1
Z-3 F333.3
Y9.9 F1000
Z-2.1
Y5.1
Z-3 F333.3
Y-5.1 F1000
Z-2.1
Y-9.9
Z-3 F333.3
Y-20.1 F1000
Z-2.1
Y-24.9
Z-3 F333.3
Y-35.1 F1000
Z-2.1
Y-39.9
Z-3 F333.3
Y-50.1 F1000
Z-2.1
Y-54.9
Z-3 F333.3
Y-65.1 F1000
Z-2.1
Y-69.9
Z-3 F333.3
Y-80.1 F1000
Z-2.1
Y-84.9
Z-3 F333.3
Y-90 F1000
G2 X48.5 Y-90.9 I-0.9 J0
G1 X42.817
Z-2.1
X38.017
Z-3 F333.3
X26.65 F1000
Z-2.1
X21.85
Z-3 F333.3
X10.483 F1000
Z-2.1
X5.683
Z-3 F333.3
X-5.683 F1000
Z-2.1
X-10.483
Z-3 F333.3
X-21.85 F1000
Z-2.1
X-26.65
Z-3 F333.3
X-38.017 F1000
Z-2.1
X-42.817
Z-3 F333.3
X-48.5 F1000
G2 X-49.4 Y-90 I0 J0.9
G1 Y-84.9
Z-2.1
Y-80.1
Z-3 F333.3
Y-69.9 F1000
Z-2.1
Y-65.1
Z-3 F333.3
Y-54.9 F1000
Z-2.1
Y-50.1
Z-3 F333.3
Y-39.9 F1000
Z-2.1
Y-35.1
Z-3 F333.3
Y-24.9 F1000
Z-2.1
Y-20.1
Z-3 F333.3
Y-9.9 F1000
Z-2.1
Y-5.1
Z-3 F333.3
Y5.1 F1000
Z-2.1
Y9.9
Z-3 F333.3
Y20.1 F1000
Z-2.1
Y24.9
Z-3 F333.3
Y35.1 F1000
Z-2.1
Y39.9
Z-3 F333.3
Y50.1 F1000
Z-2.1
Y54.9
Z-3 F333.3
Y65.1 F1000
Z-2.1
Y69.9
Z-3 F333.3
Y69.957 F1000
Y80.1 Z-3.065 F333.3
Z-2.1
Y84.9
Z-3.096
Y90 Z-3.129
G2 X-48.5 Y90.9 Z-3.138 I0.9 J0
G1 X-42.817 Z-3.175
Z-2.1
X-38.017
Z-3.205
X-26.65 Z-3.279
Z-2.1
X-23.319
X-21.85 F1000
Z-3.3 F333.3
X-10.483 F1000
Z-2.1
X-5.683
Z-3.3 F333.3
X5.683 F1000
Z-2.1
X10.483
Z-3.3 F333.3
X21.85 F1000
Z-2.1
X26.65
Z-3.3 F333.3
X38.017 F1000
Z-2.1
X42.817
Z-3.3 F333.3
X48.5 F1000
G2 X49.4 Y90 I0 J-0.9
G1 Y84.9
Z-2.1
Y80.1
Z-3.3 F333.3
Y69.9 F1000
Z-2.1
Y65.1
Z-3.3 F333.3
Y54.9 F1000
Z-2.1
Y50.1
Z-3.3 F333.3
Y39.9 F1000
Z-2.1
Y35.1
Z-3.3 F333.3
Y24.9 F1000
Z-2.1
Y20.1
Z-3.3 F333.3
Y9.9 F1000
Z-2.1
Y5.1
Z-3.3 F333.3
Y-5.1 F1000
Z-2.1
Y-9.9
Z-3.3 F333.3
Y-20.1 F1000
Z-2.1
Y-24.9
Z-3.3 F333.3
Y-35.1 F1000
Z-2.1
Y-39.9
Z-3.3 F333.3
Y-50.1 F1000
Z-2.1
Y-54.9
Z-3.3 F333.3
Y-65.1 F1000
Z-2.1
Y-69.9
Z-3.3 F333.3
Y-80.1 F1000
Z-2.1
Y-84.9
Z-3.3 F333.3
Y-90 F1000
G2 X48.5 Y-90.9 I-0.9 J0
G1 X42.817
Z-2.1
X38.017
Z-3.3 F333.3
X26.65 F1000
Z-2.1
X21.85
Z-3.3 F333.3
X10.483 F1000
Z-2.1
X5.683
Z-3.3 F333.3
X-5.683 F1000
Z-2.1
X-10.483
Z-3.3 F333.3
X-21.85 F1000
Z-2.1
X-26.65
Z-3.3 F333.3
X-38.017 F1000
Z-2.1
X-42.817
Z-3.3 F333.3
X-48.5 F1000
G2 X-49.4 Y-90 I0 J0.9
G1 Y-84.9
Z-2.1
Y-80.1
Z-3.3 F333.3
Y-69.9 F1000
Z-2.1
Y-65.1
Z-3.3 F333.3
Y-54.9 F1000
Z-2.1
Y-50.1
Z-3.3 F333.3
Y-39.9 F1000
Z-2.1
Y-35.1
Z-3.3 F333.3
Y-24.9 F1000
Z-2.1
Y-20.1
Z-3.3 F333.3
Y-9.9 F1000
Z-2.1
Y-5.1
Z-3.3 F333.3
Y5.1 F1000
Z-2.1
Y9.9
Z-3.3 F333.3
Y20.1 F1000
Z-2.1
Y24.9
Z-3.3 F333.3
Y35.1 F1000
Z-2.1
Y39.9
Z-3.3 F333.3
Y50.1 F1000
Z-2.1
Y54.9
Z-3.3 F333.3
Y65.1 F1000
Z-2.1
Y69.9
Z-3.3 F333.3
Y80.1 F1000
Z-2.1
Y84.9
Z-3.3 F333.3
Y90 F1000
G2 X-48.5 Y90.9 I0.9 J0
G1 X-42.817
Z-2.1
X-38.017
Z-3.3 F333.3
X-26.65 F1000
Z-2.1
X-23.319
G3 X-23.139 Y91.08 I0 J0.18
G1 Y91.44
G0 Z7
M9
G28 G91 Z0
G90
G28 G91 X0 Y0
G90
M5
M30
