(1001)
(PanelAlimentacion)
(T5  D=1.4 CR=0 - ZMIN=-3.5 - fresa con punta plana)
G90 G94
G17
G21
G28 G91 Z0
G90

(2D Contorneado1)
T5
S5000 M3
G54
M8
G0 X-22.89 Y24.035
Z7
Z2
G1 Z1.75 F333.3
Z0.63
X-22.896 Z0.59 F1000
X-22.915 Z0.554
X-22.944 Z0.525
X-22.98 Z0.506
X-23.02 Z0.5
X-23.16
X-23.203 Y24.028
X-23.242 Y24.009
X-23.273 Y23.978
X-23.293 Y23.939
X-23.3 Y23.895
Y11.7 Z0.074 F333.3
X-21.7 Z0.018
Y31.3 Z-0.666
X-23.3 Z-0.722
Y30.5 Z-0.75
Y11.98 F1000
Y11.7 F250
X-21.98 F1000
X-21.7 F250
Y31.02 F1000
Y31.3 F250
X-23.02 F1000
X-23.3 F250
Y30.5 F1000
Y11.7 Z-1.407 F333.3
X-21.7 Z-1.462
Y12.777 Z-1.5
Y31.02 F1000
Y31.3 F250
X-23.02 F1000
X-23.3 F250
Y11.98 F1000
Y11.7 F250
X-21.98 F1000
X-21.7 F250
Y12.777 F1000
Y31.3 Z-2.147 F333.3
X-23.3 Z-2.203
Y29.946 Z-2.25
Y11.98 F1000
Y11.7 F250
X-21.98 F1000
X-21.7 F250
Y31.02 F1000
Y31.3 F250
X-23.02 F1000
X-23.3 F250
Y29.946 F1000
Y19.923 Z-2.6 F333.3
Y16.8
Z-2.709
Y11.7 Z-2.887
X-21.7 Z-2.943
Y13.332 Z-3
Y16.52 F1000
Y16.8 F250
Z-2.6 F1000
Y26.2
Z-3 F333.3
Y31.02 F1000
Y31.3 F250
X-23.02 F1000
X-23.3 F250
Y26.48 F1000
Y26.2 F250
Z-2.6 F1000
Y16.8
Z-3 F333.3
Y11.98 F1000
Y11.7 F250
X-21.98 F1000
X-21.7 F250
Y13.332 F1000
Y16.8 Z-3.121 F333.3
Z-2.6
Y26.2
Z-3.449
Y27.65 Z-3.5
Y31.02 F1000
Y31.3 F250
X-23.02 F1000
X-23.3 F250
Y26.48 F1000
Y26.2 F250
Z-2.6 F1000
Y16.8
Z-3.5 F333.3
Y11.98 F1000
Y11.7 F250
X-21.98 F1000
X-21.7 F250
Y16.52 F1000
Y16.8 F250
Z-2.6 F1000
Y26.2
Z-3.5 F333.3
Y27.65 F1000
X-21.707 Y27.693
X-21.727 Y27.732
X-21.758 Y27.763
X-21.797 Y27.783
X-21.84 Y27.79
X-21.98
X-22.02 Z-3.494
X-22.056 Z-3.475
X-22.085 Z-3.446
X-22.104 Z-3.41
X-22.11 Z-3.37
G0 Z2
X49.61 Y35.935
G1 Z1.75 F333.3
Z0.63
X49.604 Z0.59 F1000
X49.585 Z0.554
X49.556 Z0.525
X49.52 Z0.506
X49.48 Z0.5
X49.34
X49.297 Y35.928
X49.258 Y35.909
X49.227 Y35.878
X49.207 Y35.839
X49.2 Y35.795
Y0 Z-0.75 F333.3
Y-90 F1000
G2 X48.5 Y-90.7 I-0.7 J0
G1 X35.5
G2 X34.8 Y-90 I0 J0.7
G1 Y-88.15
G3 X32.5 Y-88.15 I-1.15 J0
G1 Y-90
G2 X31.8 Y-90.7 I-0.7 J0
G1 X-48.5
G2 X-49.2 Y-90 I0 J0.7
G1 Y-60.25
G2 X-48.5 Y-59.55 I0.7 J0
G1 X-38.98
X-38.7 F250
Y-50.73 F1000
Y-50.45 F250
X-48.5 F1000
G2 X-49.2 Y-49.75 I0 J0.7
G1 Y90
G2 X-48.5 Y90.7 I0.7 J0
G1 X48.5
G2 X49.2 Y90 I0 J-0.7
G1 Y0
Y-48.717 Z-1.5 F333.3
Y-90 F1000
G2 X48.5 Y-90.7 I-0.7 J0
G1 X35.5
G2 X34.8 Y-90 I0 J0.7
G1 Y-88.15
G3 X32.5 Y-88.15 I-1.15 J0
G1 Y-90
G2 X31.8 Y-90.7 I-0.7 J0
G1 X-48.5
G2 X-49.2 Y-90 I0 J0.7
G1 Y-60.25
G2 X-48.5 Y-59.55 I0.7 J0
G1 X-38.98
X-38.7 F250
Y-50.73 F1000
Y-50.45 F250
X-48.5 F1000
G2 X-49.2 Y-49.75 I0 J0.7
G1 Y90
G2 X-48.5 Y90.7 I0.7 J0
G1 X48.5
G2 X49.2 Y90 I0 J-0.7
G1 Y0
Y-48.717
Y-90 Z-2.136 F333.3
G2 X48.5 Y-90.7 Z-2.152 I-0.7 J0
G1 X42.165 Z-2.25
X35.5 F1000
G2 X34.8 Y-90 I0 J0.7
G1 Y-88.15
G3 X32.5 Y-88.15 I-1.15 J0
G1 Y-90
G2 X31.8 Y-90.7 I-0.7 J0
G1 X-48.5
G2 X-49.2 Y-90 I0 J0.7
G1 Y-60.25
G2 X-48.5 Y-59.55 I0.7 J0
G1 X-38.98
X-38.7 F250
Y-50.73 F1000
Y-50.45 F250
X-48.5 F1000
G2 X-49.2 Y-49.75 I0 J0.7
G1 Y90
G2 X-48.5 Y90.7 I0.7 J0
G1 X48.5
G2 X49.2 Y90 I0 J-0.7
G1 Y-48.717
Y-90
G2 X48.5 Y-90.7 I-0.7 J0
G1 X42.165
X35.5 Z-2.353 F333.3
G2 X34.8 Y-90 Z-2.37 I0 J0.7
G1 Y-88.15 Z-2.398
G3 X32.5 Y-88.15 Z-2.454 I-1.15 J0
G1 Y-90 Z-2.482
G2 X31.8 Y-90.7 Z-2.499 I-0.7 J0
G1 X25.242 Z-2.6
X17.063
Z-2.726
X6.387 Z-2.89
Z-2.6
X-0.741
X-3.013 F1000
Z-3 F333.3
X-13.408 F1000
X-13.688 F250
Z-2.6 F1000
X-23.087
Z-3 F333.3
X-33.483 F1000
X-33.763 F250
Z-2.6 F1000
X-43.162
Z-3 F333.3
X-48.5 F1000
G2 X-49.2 Y-90 I0 J0.7
G1 Y-80.105
Y-79.825 F250
Z-2.6 F1000
Y-70.425
Z-3 F333.3
Y-60.25 F1000
G2 X-48.5 Y-59.55 I0.7 J0
G1 X-38.98
X-38.7 F250
Y-50.73 F1000
Y-50.45 F250
X-48.5 F1000
G2 X-49.2 Y-49.75 I0 J0.7
G1 Y-43.084
Y-42.804 F250
Z-2.6 F1000
Y-33.404
Z-3 F333.3
Y-19.793 F1000
Y-19.513 F250
Z-2.6 F1000
Y-10.113
Z-3 F333.3
Y3.499 F1000
Y3.779 F250
Z-2.6 F1000
Y13.179
Z-3 F333.3
Y26.791 F1000
Y27.071 F250
Z-2.6 F1000
Y36.471
Z-3 F333.3
Y50.083 F1000
Y50.362 F250
Z-2.6 F1000
Y59.763
Z-3 F333.3
Y73.374 F1000
Y73.654 F250
Z-2.6 F1000
Y83.054
Z-3 F333.3
Y90 F1000
G2 X-48.5 Y90.7 I0.7 J0
G1 X-41.355
X-41.075 F250
Z-2.6 F1000
X-31.675
Z-3 F333.3
X-17.105 F1000
X-16.825 F250
Z-2.6 F1000
X-7.425
Z-3 F333.3
X7.145 F1000
X7.425 F250
Z-2.6 F1000
X16.825
Z-3 F333.3
X31.395 F1000
X31.675 F250
Z-2.6 F1000
X41.075
Z-3 F333.3
X48.5 F1000
G2 X49.2 Y90 I0 J-0.7
G1 Y84.98
Y84.7 F250
Z-2.6 F1000
Y75.3
Z-3 F333.3
Y64.98 F1000
Y64.7 F250
Z-2.6 F1000
Y55.3
Z-3 F333.3
Y44.98 F1000
Y44.7 F250
Z-2.6 F1000
Y35.3
Z-3 F333.3
Y24.98 F1000
Y24.7 F250
Z-2.6 F1000
Y15.3
Z-3 F333.3
Y4.98 F1000
Y4.7 F250
Z-2.6 F1000
Y-4.7
Z-3 F333.3
Y-15.02 F1000
Y-15.3 F250
Z-2.6 F1000
Y-24.7
Z-3 F333.3
Y-35.02 F1000
Y-35.3 F250
Z-2.6 F1000
Y-44.7
Z-3 F333.3
Y-55.02 F1000
Y-55.3 F250
Z-2.6 F1000
Y-64.7
Z-3 F333.3
Y-75.02 F1000
Y-75.3 F250
Z-2.6 F1000
Y-84.7
Z-3 F333.3
Y-90 F1000
G2 X48.5 Y-90.7 I-0.7 J0
G1 X35.5
G2 X34.8 Y-90 I0 J0.7
G1 Y-88.15
G3 X32.5 Y-88.15 I-1.15 J0
G1 Y-90
G2 X31.8 Y-90.7 I-0.7 J0
G1 X26.743
X26.462 F250
Z-2.6 F1000
X17.063
Z-3 F333.3
X6.668 F1000
X6.387 F250
Z-2.6 F1000
X-0.741
X-3.013 F333.3
Z-3.035
X-13.688 Z-3.199
Z-2.6
X-23.087
Z-3.344
X-33.219 Z-3.5
X-33.483 F1000
X-33.763 F250
Z-2.6 F1000
X-43.162
Z-3.5 F333.3
X-48.5 F1000
G2 X-49.2 Y-90 I0 J0.7
G1 Y-80.105
Y-79.825 F250
Z-2.6 F1000
Y-70.425
Z-3.5 F333.3
Y-60.25 F1000
G2 X-48.5 Y-59.55 I0.7 J0
G1 X-38.98
X-38.7 F250
Y-50.73 F1000
Y-50.45 F250
X-48.5 F1000
G2 X-49.2 Y-49.75 I0 J0.7
G1 Y-43.084
Y-42.804 F250
Z-2.6 F1000
Y-33.404
Z-3.5 F333.3
Y-19.793 F1000
Y-19.513 F250
Z-2.6 F1000
Y-10.113
Z-3.5 F333.3
Y3.499 F1000
Y3.779 F250
Z-2.6 F1000
Y13.179
Z-3.5 F333.3
Y26.791 F1000
Y27.071 F250
Z-2.6 F1000
Y36.471
Z-3.5 F333.3
Y50.083 F1000
Y50.362 F250
Z-2.6 F1000
Y59.763
Z-3.5 F333.3
Y73.374 F1000
Y73.654 F250
Z-2.6 F1000
Y83.054
Z-3.5 F333.3
Y90 F1000
G2 X-48.5 Y90.7 I0.7 J0
G1 X-41.355
X-41.075 F250
Z-2.6 F1000
X-31.675
Z-3.5 F333.3
X-17.105 F1000
X-16.825 F250
Z-2.6 F1000
X-7.425
Z-3.5 F333.3
X7.145 F1000
X7.425 F250
Z-2.6 F1000
X16.825
Z-3.5 F333.3
X31.395 F1000
X31.675 F250
Z-2.6 F1000
X41.075
Z-3.5 F333.3
X48.5 F1000
G2 X49.2 Y90 I0 J-0.7
G1 Y84.98
Y84.7 F250
Z-2.6 F1000
Y75.3
Z-3.5 F333.3
Y64.98 F1000
Y64.7 F250
Z-2.6 F1000
Y55.3
Z-3.5 F333.3
Y44.98 F1000
Y44.7 F250
Z-2.6 F1000
Y35.3
Z-3.5 F333.3
Y24.98 F1000
Y24.7 F250
Z-2.6 F1000
Y15.3
Z-3.5 F333.3
Y4.98 F1000
Y4.7 F250
Z-2.6 F1000
Y-4.7
Z-3.5 F333.3
Y-15.02 F1000
Y-15.3 F250
Z-2.6 F1000
Y-24.7
Z-3.5 F333.3
Y-35.02 F1000
Y-35.3 F250
Z-2.6 F1000
Y-44.7
Z-3.5 F333.3
Y-55.02 F1000
Y-55.3 F250
Z-2.6 F1000
Y-64.7
Z-3.5 F333.3
Y-75.02 F1000
Y-75.3 F250
Z-2.6 F1000
Y-84.7
Z-3.5 F333.3
Y-90 F1000
G2 X48.5 Y-90.7 I-0.7 J0
G1 X35.5
G2 X34.8 Y-90 I0 J0.7
G1 Y-88.15
G3 X32.5 Y-88.15 I-1.15 J0
G1 Y-90
G2 X31.8 Y-90.7 I-0.7 J0
G1 X26.743
X26.462 F250
Z-2.6 F1000
X17.063
Z-3.5 F333.3
X6.668 F1000
X6.387 F250
Z-2.6 F1000
X-3.013
Z-3.5 F333.3
X-13.408 F1000
X-13.688 F250
Z-2.6 F1000
X-23.087
Z-3.5 F333.3
X-33.219 F1000
X-33.262 Y-90.707
X-33.301 Y-90.727
X-33.332 Y-90.758
X-33.352 Y-90.797
X-33.359 Y-90.84
Y-90.98
Y-91.02 Z-3.494
Y-91.056 Z-3.475
Y-91.085 Z-3.446
Y-91.104 Z-3.41
Y-91.11 Z-3.37
G0 Z2
X-22.89 Y-45.365
G1 Z1.75 F333.3
Z0.63
X-22.896 Z0.59 F1000
X-22.915 Z0.554
X-22.944 Z0.525
X-22.98 Z0.506
X-23.02 Z0.5
X-23.16
X-23.203 Y-45.372
X-23.242 Y-45.391
X-23.273 Y-45.422
X-23.293 Y-45.461
X-23.3 Y-45.505
Y-59.3 Z0.018 F333.3
X-21.7 Z-0.038
Y-39.7 Z-0.722
X-22.5 Z-0.75
X-23.02 F1000
X-23.3 F250
Y-59.02 F1000
Y-59.3 F250
X-21.98 F1000
X-21.7 F250
Y-39.98 F1000
Y-39.7 F250
X-22.5 F1000
X-23.3 Z-0.778 F333.3
Y-59.3 Z-1.462
X-22.223 Z-1.5
X-21.98 F1000
X-21.7 F250
Y-39.98 F1000
Y-39.7 F250
X-23.02 F1000
X-23.3 F250
Y-59.02 F1000
Y-59.3 F250
X-22.223 F1000
X-21.7 Z-1.518 F333.3
Y-39.7 Z-2.203
X-23.054 Z-2.25
X-23.3 F250
Y-59.02 F1000
Y-59.3 F250
X-22.223 F1000
X-21.98
X-21.7 F250
Y-39.98 F1000
Y-39.7 F250
X-23.054 F1000
X-23.3 Z-2.259 F333.3
Y-49.477 Z-2.6
Y-54.2
Z-2.765
Y-59.3 Z-2.943
X-21.7 Z-2.999
Y-59.268 Z-3
Y-54.48 F1000
Y-54.2 F250
Z-2.6 F1000
Y-44.8
Z-3 F333.3
Y-39.98 F1000
Y-39.7 F250
X-23.02 F1000
X-23.3 F250
Y-44.52 F1000
Y-44.8 F250
Z-2.6 F1000
Y-54.2
Z-3 F333.3
Y-59.02 F1000
Y-59.3 F250
X-21.98 F1000
X-21.7 F250
Y-59.268 F1000
Y-54.2 Z-3.177 F333.3
Z-2.6
Y-44.95
Y-44.8 F1000
Z-3.5 F333.3
Y-39.98 F1000
Y-39.7 F250
X-23.02 F1000
X-23.3 F250
Y-44.52 F1000
Y-44.8 F250
Z-2.6 F1000
Y-54.2
Z-3.5 F333.3
Y-59.02 F1000
Y-59.3 F250
X-21.98 F1000
X-21.7 F250
Y-54.48 F1000
Y-54.2 F250
Z-2.6 F1000
Y-44.95
X-21.707 Y-44.907
X-21.727 Y-44.868
X-21.758 Y-44.837
X-21.797 Y-44.817
X-21.84 Y-44.81
X-22.11
G0 Z2
X22.89 Y-53.618
G1 Z1.75 F333.3
Z0.63
X22.896 Z0.59 F1000
X22.915 Z0.554
X22.944 Z0.525
X22.98 Z0.506
X23.02 Z0.5
X23.16
X23.203 Y-53.611
X23.242 Y-53.591
X23.273 Y-53.56
X23.293 Y-53.521
X23.3 Y-53.478
Y-39.691 Z0.019 F333.3
X21.7 Z-0.037
Y-59.3 Z-0.722
X22.5 Z-0.75
X23.02 F1000
X23.3 F250
Y-39.971 F1000
Y-39.691 F250
X21.98 F1000
X21.7 F250
Y-59.02 F1000
Y-59.3 F250
X22.5 F1000
X23.3 Z-0.778 F333.3
Y-39.691 Z-1.463
X22.232 Z-1.5
X21.98 F1000
X21.7 F250
Y-59.02 F1000
Y-59.3 F250
X23.02 F1000
X23.3 F250
Y-39.971 F1000
Y-39.691 F250
X22.232 F1000
X21.7 Z-1.519 F333.3
Y-59.3 Z-2.203
X23.037 Z-2.25
X23.3 F250
Y-39.971 F1000
Y-39.691 F250
X22.232 F1000
X21.98
X21.7 F250
Y-59.02 F1000
Y-59.3 F250
X23.037 F1000
X23.3 Z-2.259 F333.3
Y-49.541 Z-2.6
Y-44.796
Z-2.766
Y-39.691 Z-2.944
X21.7 Z-3
Y-39.696
Y-44.516 F1000
Y-44.796 F250
Z-2.6 F1000
Y-54.196
Z-3 F333.3
Y-59.02 F1000
Y-59.3 F250
X23.02 F1000
X23.3 F250
Y-54.476 F1000
Y-54.196 F250
Z-2.6 F1000
Y-44.796
Z-3 F333.3
Y-39.971 F1000
Y-39.691 F250
X21.98 F1000
X21.7 F250
Y-39.696 F1000
Y-44.796 Z-3.178 F333.3
Z-2.6
Y-54.014
Y-54.196 F1000
Z-3.5 F333.3
Y-59.02 F1000
Y-59.3 F250
X23.02 F1000
X23.3 F250
Y-54.476 F1000
Y-54.196 F250
Z-2.6 F1000
Y-44.796
Z-3.5 F333.3
Y-39.971 F1000
Y-39.691 F250
X21.98 F1000
X21.7 F250
Y-44.516 F1000
Y-44.796 F250
Z-2.6 F1000
Y-54.014
X21.707 Y-54.057
X21.727 Y-54.096
X21.758 Y-54.127
X21.797 Y-54.147
X21.84 Y-54.154
X22.11
G0 Z2
Y24.035
G1 Z1.75 F333.3
Z0.63
X22.104 Z0.59 F1000
X22.085 Z0.554
X22.056 Z0.525
X22.02 Z0.506
X21.98 Z0.5
X21.84
X21.797 Y24.028
X21.758 Y24.009
X21.727 Y23.978
X21.707 Y23.939
X21.7 Y23.895
Y11.7 Z0.074 F333.3
X23.3 Z0.018
Y31.3 Z-0.666
X21.7 Z-0.722
Y30.5 Z-0.75
Y11.98 F1000
Y11.7 F250
X23.02 F1000
X23.3 F250
Y31.02 F1000
Y31.3 F250
X21.98 F1000
X21.7 F250
Y30.5 F1000
Y11.7 Z-1.407 F333.3
X23.3 Z-1.462
Y12.777 Z-1.5
Y31.02 F1000
Y31.3 F250
X21.98 F1000
X21.7 F250
Y11.98 F1000
Y11.7 F250
X23.02 F1000
X23.3 F250
Y12.777 F1000
Y31.3 Z-2.147 F333.3
X21.7 Z-2.203
Y29.946 Z-2.25
Y11.98 F1000
Y11.7 F250
X23.02 F1000
X23.3 F250
Y31.02 F1000
Y31.3 F250
X21.98 F1000
X21.7 F250
Y29.946 F1000
Y19.923 Z-2.6 F333.3
Y16.8
Z-2.709
Y11.7 Z-2.887
X23.3 Z-2.943
Y13.332 Z-3
Y16.52 F1000
Y16.8 F250
Z-2.6 F1000
Y26.2
Z-3 F333.3
Y31.02 F1000
Y31.3 F250
X21.98 F1000
X21.7 F250
Y26.48 F1000
Y26.2 F250
Z-2.6 F1000
Y16.8
Z-3 F333.3
Y11.98 F1000
Y11.7 F250
X23.02 F1000
X23.3 F250
Y13.332 F1000
Y16.8 Z-3.121 F333.3
Z-2.6
Y26.2
Z-3.449
Y27.65 Z-3.5
Y31.02 F1000
Y31.3 F250
X21.98 F1000
X21.7 F250
Y26.48 F1000
Y26.2 F250
Z-2.6 F1000
Y16.8
Z-3.5 F333.3
Y11.98 F1000
Y11.7 F250
X23.02 F1000
X23.3 F250
Y16.52 F1000
Y16.8 F250
Z-2.6 F1000
Y26.2
Z-3.5 F333.3
Y27.65 F1000
X23.293 Y27.693
X23.273 Y27.732
X23.242 Y27.763
X23.203 Y27.783
X23.16 Y27.79
X23.02
X22.98 Z-3.494
X22.944 Z-3.475
X22.915 Z-3.446
X22.896 Z-3.41
X22.89 Z-3.37
G0 Z7
M9
G28 G91 Z0
G90
G28 G91 X0 Y0
G90
M5
M30
