(10011)
(MADERA INTERMEDIA)
(T1  D=1.6 CR=0. - ZMIN=-3.5 - FRESA CON PUNTA PLANA)
G90 G94 G91.1 G40 G49 G17
G21
G28 G91 Z0.
G90

(2D CONTORNEADO1)
M5
T1 M6
S5000 M3
G54
M8
G0 X-1.468 Y-14.143
G43 Z7. H1
Z2.
G1 Z1.5 F333.
Z0.66
X-1.473 Y-14.137 Z0.611 F1000.
X-1.486 Y-14.118 Z0.566
X-1.506 Y-14.089 Z0.531
X-1.532 Y-14.053 Z0.508
X-1.561 Y-14.012 Z0.5
X-1.653 Y-13.882
X-1.688 Y-13.846
X-1.732 Y-13.822
X-1.781 Y-13.814
X-1.831 Y-13.821
X-1.876 Y-13.843
G3 X1.867 Y-19.157 Z0.143 I1.871 J-2.657 F333.
X-1.876 Y-13.843 Z-0.213 I-1.871 J2.657
X-0.004 Y-19.75 Z-0.5 I1.871 J-2.657
Y-13.25 I0. J3.25 F1000.
Y-19.75 I0. J-3.25
Y-13.25 Z-0.857 I0. J3.25 F333.
X-3.102 Y-15.518 Z-1. I0. J-3.25
X3.094 Y-17.482 I3.098 J-0.982 F1000.
X-3.102 Y-15.518 I-3.098 J0.982
X3.094 Y-17.482 Z-1.357 I3.098 J-0.982 F333.
X1.867 Y-13.843 Z-1.5 I-3.098 J0.982
X-1.876 Y-19.157 I-1.871 J-2.657 F1000.
X1.867 Y-13.843 I1.871 J2.657
X-1.876 Y-19.157 Z-1.857 I-1.871 J-2.657 F333.
X1.964 Y-19.087 Z-2. I1.871 J2.657
X-1.972 Y-13.913 I-1.968 J2.587 F1000.
X1.964 Y-19.087 I1.968 J-2.587
X-1.972 Y-13.913 Z-2.357 I-1.968 J2.587 F333.
X-3.064 Y-17.595 Z-2.5 I1.968 J-2.587
X3.056 Y-15.405 I3.06 J1.095 F1000.
X-3.064 Y-17.595 I-3.06 J-1.095
X3.056 Y-15.405 Z-2.857 I3.06 J1.095 F333.
X-0.124 Y-13.252 Z-3. I-3.06 J-1.095
X0.115 Y-19.748 I0.119 J-3.248 F1000.
X-0.124 Y-13.252 I-0.119 J3.248
X-1.451 Y-19.41 Z-3.3 I0.119 J-3.248 F333.
X2.296 Y-18.796 I1.447 J2.91
G1 Z-3.442
G3 X3.128 Y-17.367 Z-3.5 I-2.3 J2.296
X-3.136 Y-15.633 I-3.132 J0.867 F1000.
X-2.304 Y-18.796 I3.132 J-0.867
G1 Z-3.3
G3 X2.296 I2.3 J2.296
G1 Z-3.5 F333.
G3 X3.128 Y-17.367 I-2.3 J2.296 F1000.
G1 X3.134 Y-17.317
X3.124 Y-17.268
X3.099 Y-17.225
X3.062 Y-17.191
X3.016 Y-17.17
X2.862 Y-17.128
X2.815 Y-17.114 Z-3.492
X2.772 Y-17.102 Z-3.469
X2.738 Y-17.093 Z-3.434
X2.716 Y-17.087 Z-3.389
X2.708 Y-17.085 Z-3.34
G0 Z2.
X-12.317 Y-32.037
G1 Z1.5 F333.
Z0.66
X-12.323 Y-32.032 Z0.611 F1000.
X-12.339 Y-32.016 Z0.566
X-12.364 Y-31.991 Z0.531
X-12.395 Y-31.959 Z0.508
X-12.43 Y-31.924 Z0.5
X-12.544 Y-31.811
X-12.584 Y-31.782
X-12.632 Y-31.766
X-12.682
X-12.729 Y-31.782
X-12.77 Y-31.811
X-18.631 Y-37.673 Z0.211 F333.
G3 X-0.004 Y-44.7 Z-0.5 I18.627 J21.173
X18.623 Y-37.673 I0. J28.2 F1000.
G1 X8.722 Y-27.771
X-8.73
X-18.631 Y-37.673
G3 X-0.004 Y-44.7 I18.627 J21.173
X13.707 Y-41.143 Z-1. I0. J28.2 F333.
X18.623 Y-37.673 I-13.711 J24.643 F1000.
G1 X8.722 Y-27.771
X-8.73
X-18.631 Y-37.673
G3 X13.707 Y-41.143 I18.627 J21.173
X18.623 Y-37.673 Z-1.211 I-13.711 J24.643 F333.
G1 X12.761 Y-31.811 Z-1.5
X8.722 Y-27.771 F1000.
X-8.73
X-18.631 Y-37.673
G3 X18.623 I18.627 J21.173
G1 X12.761 Y-31.811
X8.722 Y-27.771 Z-1.7 F333.
X0.117 Z-2.
X-8.73 F1000.
X-18.631 Y-37.673
G3 X18.623 I18.627 J21.173
G1 X12.761 Y-31.811
X8.722 Y-27.771
X0.117
X-8.73 Z-2.309 F333.
X-12.599 Y-31.64 Z-2.5
X-18.631 Y-37.673 F1000.
G3 X18.623 I18.627 J21.173
G1 X8.722 Y-27.771
X-8.73
X-12.599 Y-31.64
X-18.631 Y-37.673 Z-2.798 F333.
G3 X-13.926 Y-41.024 Z-3. I18.627 J21.173
X18.623 Y-37.673 I13.921 J24.524 F1000.
G1 X8.722 Y-27.771
X-8.73
X-18.631 Y-37.673
G3 X-13.926 Y-41.024 I18.627 J21.173
X-0.246 Y-44.699 Z-3.5 I13.921 J24.524 F333.
X8.162 Y-43.492 I0.242 J28.199 F1000.
G1 Z-3.3
G3 X12.442 Y-41.805 I-8.167 J26.992
G1 Z-3.5 F333.
G3 X18.623 Y-37.673 I-12.446 J25.305 F1000.
G1 X15.478 Y-34.528
Z-3.3
X12.226 Y-31.275
Z-3.5 F333.
X8.722 Y-27.771 F1000.
X2.296
Z-3.3
X-2.304
Z-3.5 F333.
X-8.73 F1000.
X-12.234 Y-31.276
Z-3.3
X-15.487 Y-34.528
Z-3.5 F333.
X-18.631 Y-37.673 F1000.
G3 X-12.45 Y-41.805 I18.627 J21.173
G1 Z-3.3
G3 X-8.171 Y-43.492 I12.446 J25.305
G1 Z-3.5 F333.
G3 X-0.246 Y-44.699 I8.167 J26.992 F1000.
G1 X-0.196 Y-44.692
X-0.152 Y-44.669
X-0.116 Y-44.634
X-0.093 Y-44.59
X-0.084 Y-44.54
X-0.083 Y-44.38
Y-44.331 Z-3.492
X-0.082 Y-44.286 Z-3.469
Y-44.251 Z-3.434
Y-44.228 Z-3.389
Y-44.22 Z-3.34
G0 Z2.
X28.796 Y-49.78
G1 Z1.5 F333.
Z0.66
Y-49.772 Z0.611 F1000.
Y-49.749 Z0.566
Y-49.714 Z0.531
Y-49.669 Z0.508
Y-49.62 Z0.5
Y-49.46
X28.788 Y-49.411
X28.766 Y-49.366
X28.73 Y-49.331
X28.686 Y-49.308
X28.636 Y-49.3
X0. Z-0.5 F333.
X-48.5 F1000.
G2 X-49.3 Y-48.5 I0. J0.8
G1 Y48.5
G2 X-48.5 Y49.3 I0.8 J0.
G1 X48.5
G2 X49.3 Y48.5 I0. J-0.8
G1 Y-48.5
G2 X48.5 Y-49.3 I-0.8 J0.
G1 X0.
X-48.5 Z-0.895 F333.
G2 X-49.3 Y-48.5 Z-0.905 I0. J0.8
G1 Y-36.846 Z-1.
Y48.5 F1000.
G2 X-48.5 Y49.3 I0.8 J0.
G1 X48.5
G2 X49.3 Y48.5 I0. J-0.8
G1 Y-48.5
G2 X48.5 Y-49.3 I-0.8 J0.
G1 X-48.5
G2 X-49.3 Y-48.5 I0. J0.8
G1 Y-36.846
Y24.564 Z-1.5 F333.
Y48.5 F1000.
G2 X-48.5 Y49.3 I0.8 J0.
G1 X48.5
G2 X49.3 Y48.5 I0. J-0.8
G1 Y-48.5
G2 X48.5 Y-49.3 I-0.8 J0.
G1 X-48.5
G2 X-49.3 Y-48.5 I0. J0.8
G1 Y24.564
Y48.5 Z-1.695 F333.
G2 X-48.5 Y49.3 Z-1.705 I0.8 J0.
G1 X-12.282 Z-2.
X48.5 F1000.
G2 X49.3 Y48.5 I0. J-0.8
G1 Y-48.5
G2 X48.5 Y-49.3 I-0.8 J0.
G1 X-48.5
G2 X-49.3 Y-48.5 I0. J0.8
G1 Y24.564
Y48.5
G2 X-48.5 Y49.3 I0.8 J0.
G1 X-12.282
X48.5 Z-2.495 F333.
G2 X49.066 Y49.066 Z-2.5 I0. J-0.8
X49.3 Y48.5 I-0.566 J-0.566 F1000.
G1 Y-48.5
G2 X48.5 Y-49.3 I-0.8 J0.
G1 X-48.5
G2 X-49.3 Y-48.5 I0. J0.8
G1 Y48.5
G2 X-48.5 Y49.3 I0.8 J0.
G1 X48.5
G2 X49.066 Y49.066 I0. J-0.8
X49.3 Y48.5 Z-2.505 I-0.566 J-0.566 F333.
G1 Y-12.282 Z-3.
Y-48.5 F1000.
G2 X48.5 Y-49.3 I-0.8 J0.
G1 X-48.5
G2 X-49.3 Y-48.5 I0. J0.8
G1 Y48.5
G2 X-48.5 Y49.3 I0.8 J0.
G1 X48.5
G2 X49.3 Y48.5 I0. J-0.8
G1 Y-12.282
Y-48.5 Z-3.295 F333.
G2 X48.5 Y-49.3 Z-3.305 I-0.8 J0.
G1 X42.717 Z-3.352
Z-3.3
X38.117
Z-3.39
X26.55 Z-3.484
Z-3.3
X24.564
X21.95 F1000.
Z-3.5 F333.
X10.383 F1000.
Z-3.3
X5.783
Z-3.5 F333.
X-5.783 F1000.
Z-3.3
X-10.383
Z-3.5 F333.
X-21.95 F1000.
Z-3.3
X-26.55
Z-3.5 F333.
X-38.117 F1000.
Z-3.3
X-42.717
Z-3.5 F333.
X-48.5 F1000.
G2 X-49.3 Y-48.5 I0. J0.8
G1 Y-42.717
Z-3.3
Y-38.117
Z-3.5 F333.
Y-26.55 F1000.
Z-3.3
Y-21.95
Z-3.5 F333.
Y-10.383 F1000.
Z-3.3
Y-5.783
Z-3.5 F333.
Y5.783 F1000.
Z-3.3
Y10.383
Z-3.5 F333.
Y21.95 F1000.
Z-3.3
Y26.55
Z-3.5 F333.
Y38.117 F1000.
Z-3.3
Y42.717
Z-3.5 F333.
Y48.5 F1000.
G2 X-48.5 Y49.3 I0.8 J0.
G1 X-42.717
Z-3.3
X-38.117
Z-3.5 F333.
X-26.55 F1000.
Z-3.3
X-21.95
Z-3.5 F333.
X-10.383 F1000.
Z-3.3
X-5.783
Z-3.5 F333.
X5.783 F1000.
Z-3.3
X10.383
Z-3.5 F333.
X21.95 F1000.
Z-3.3
X26.55
Z-3.5 F333.
X38.117 F1000.
Z-3.3
X42.717
Z-3.5 F333.
X48.5 F1000.
G2 X49.3 Y48.5 I0. J-0.8
G1 Y42.717
Z-3.3
Y38.117
Z-3.5 F333.
Y26.55 F1000.
Z-3.3
Y21.95
Z-3.5 F333.
Y10.383 F1000.
Z-3.3
Y5.783
Z-3.5 F333.
Y-5.783 F1000.
Z-3.3
Y-10.383
Z-3.5 F333.
Y-21.95 F1000.
Z-3.3
Y-26.55
Z-3.5 F333.
Y-38.117 F1000.
Z-3.3
Y-42.717
Z-3.5 F333.
Y-48.5 F1000.
G2 X48.5 Y-49.3 I-0.8 J0.
G1 X42.717
Z-3.3
X38.117
Z-3.5 F333.
X26.55 F1000.
Z-3.3
X24.564
X24.515 Y-49.308
X24.47 Y-49.331
X24.435 Y-49.366
X24.412 Y-49.411
X24.404 Y-49.46
Y-49.78
G0 Z2.
X25.228 Y-43.591
G1 Z1.5 F333.
Z0.66
X25.233 Y-43.597 Z0.611 F1000.
X25.249 Y-43.613 Z0.566
X25.273 Y-43.639 Z0.531
X25.304 Y-43.671 Z0.508
X25.339 Y-43.707 Z0.5
X25.45 Y-43.822
X25.49 Y-43.852
X25.537 Y-43.868
X25.587 Y-43.869
X25.635 Y-43.855
X25.676 Y-43.826
G3 X25.052 Y-43.178 Z0.451 I-0.312 J0.324 F333.
X25.676 Y-43.826 Z0.401 I0.312 J-0.324
X25.052 Y-43.178 Z0.352 I-0.312 J0.324
X25.676 Y-43.826 Z0.303 I0.312 J-0.324
X25.052 Y-43.178 Z0.253 I-0.312 J0.324
X25.676 Y-43.826 Z0.204 I0.312 J-0.324
X25.052 Y-43.178 Z0.154 I-0.312 J0.324
X25.676 Y-43.826 Z0.105 I0.312 J-0.324
X25.052 Y-43.178 Z0.056 I-0.312 J0.324
X25.676 Y-43.826 Z0.006 I0.312 J-0.324
X25.052 Y-43.178 Z-0.043 I-0.312 J0.324
X25.676 Y-43.826 Z-0.092 I0.312 J-0.324
X25.052 Y-43.178 Z-0.142 I-0.312 J0.324
X25.676 Y-43.826 Z-0.191 I0.312 J-0.324
X25.052 Y-43.178 Z-0.241 I-0.312 J0.324
X25.676 Y-43.826 Z-0.29 I0.312 J-0.324
X25.052 Y-43.178 Z-0.339 I-0.312 J0.324
X25.676 Y-43.826 Z-0.389 I0.312 J-0.324
X25.052 Y-43.178 Z-0.438 I-0.312 J0.324
X25.676 Y-43.826 Z-0.487 I0.312 J-0.324
X25.814 Y-43.502 Z-0.5 I-0.312 J0.324
X24.914 I-0.45 J0. F1000.
X25.814 I0.45 J0.
X24.914 Z-0.549 I-0.45 J0. F333.
X25.814 Z-0.599 I0.45 J0.
X24.914 Z-0.648 I-0.45 J0.
X25.814 Z-0.697 I0.45 J0.
X24.914 Z-0.747 I-0.45 J0.
X25.814 Z-0.796 I0.45 J0.
X24.914 Z-0.846 I-0.45 J0.
X25.814 Z-0.895 I0.45 J0.
X24.914 Z-0.944 I-0.45 J0.
X25.814 Z-0.994 I0.45 J0.
X25.778 Y-43.326 Z-1. I-0.45 J0.
X24.95 Y-43.678 I-0.414 J-0.176 F1000.
X25.778 Y-43.326 I0.414 J0.176
X24.95 Y-43.678 Z-1.049 I-0.414 J-0.176 F333.
X25.778 Y-43.326 Z-1.099 I0.414 J0.176
X24.95 Y-43.678 Z-1.148 I-0.414 J-0.176
X25.778 Y-43.326 Z-1.197 I0.414 J0.176
X24.95 Y-43.678 Z-1.247 I-0.414 J-0.176
X25.778 Y-43.326 Z-1.296 I0.414 J0.176
X24.95 Y-43.678 Z-1.346 I-0.414 J-0.176
X25.778 Y-43.326 Z-1.395 I0.414 J0.176
X24.95 Y-43.678 Z-1.444 I-0.414 J-0.176
X25.778 Y-43.326 Z-1.494 I0.414 J0.176
X25.676 Y-43.178 Z-1.5 I-0.414 J-0.176
X25.052 Y-43.826 I-0.312 J-0.324 F1000.
X25.676 Y-43.178 I0.312 J0.324
X25.052 Y-43.826 Z-1.549 I-0.312 J-0.324 F333.
X25.676 Y-43.178 Z-1.599 I0.312 J0.324
X25.052 Y-43.826 Z-1.648 I-0.312 J-0.324
X25.676 Y-43.178 Z-1.697 I0.312 J0.324
X25.052 Y-43.826 Z-1.747 I-0.312 J-0.324
X25.676 Y-43.178 Z-1.796 I0.312 J0.324
X25.052 Y-43.826 Z-1.846 I-0.312 J-0.324
X25.676 Y-43.178 Z-1.895 I0.312 J0.324
X25.052 Y-43.826 Z-1.944 I-0.312 J-0.324
X25.676 Y-43.178 Z-1.994 I0.312 J0.324
X25.524 Y-43.081 Z-2. I-0.312 J-0.324
X25.203 Y-43.922 I-0.16 J-0.42 F1000.
X25.524 Y-43.081 I0.16 J0.42
X25.203 Y-43.922 Z-2.049 I-0.16 J-0.42 F333.
X25.524 Y-43.081 Z-2.099 I0.16 J0.42
X25.203 Y-43.922 Z-2.148 I-0.16 J-0.42
X25.524 Y-43.081 Z-2.197 I0.16 J0.42
X25.203 Y-43.922 Z-2.247 I-0.16 J-0.42
X25.524 Y-43.081 Z-2.296 I0.16 J0.42
X25.203 Y-43.922 Z-2.346 I-0.16 J-0.42
X25.524 Y-43.081 Z-2.395 I0.16 J0.42
X25.203 Y-43.922 Z-2.444 I-0.16 J-0.42
X25.524 Y-43.081 Z-2.494 I0.16 J0.42
X25.347 Y-43.052 Z-2.5 I-0.16 J-0.42
X25.381 Y-43.952 I0.017 J-0.45 F1000.
X25.347 Y-43.052 I-0.017 J0.45
X25.381 Y-43.952 Z-2.549 I0.017 J-0.45 F333.
X25.347 Y-43.052 Z-2.599 I-0.017 J0.45
X25.381 Y-43.952 Z-2.648 I0.017 J-0.45
X25.347 Y-43.052 Z-2.697 I-0.017 J0.45
X25.381 Y-43.952 Z-2.747 I0.017 J-0.45
X25.347 Y-43.052 Z-2.796 I-0.017 J0.45
X25.381 Y-43.952 Z-2.846 I0.017 J-0.45
X25.347 Y-43.052 Z-2.895 I-0.017 J0.45
X25.381 Y-43.952 Z-2.944 I0.017 J-0.45
X25.347 Y-43.052 Z-2.994 I-0.017 J0.45
X25.172 Y-43.095 Z-3. I0.017 J-0.45
X25.555 Y-43.909 I0.192 J-0.407 F1000.
X25.172 Y-43.095 I-0.192 J0.407
X25.555 Y-43.909 Z-3.049 I0.192 J-0.407 F333.
X25.172 Y-43.095 Z-3.099 I-0.192 J0.407
X25.555 Y-43.909 Z-3.148 I0.192 J-0.407
X25.172 Y-43.095 Z-3.197 I-0.192 J0.407
X25.555 Y-43.909 Z-3.247 I0.192 J-0.407
X25.172 Y-43.095 Z-3.296 I-0.192 J0.407
X25.555 Y-43.909 Z-3.346 I0.192 J-0.407
X25.172 Y-43.095 Z-3.395 I-0.192 J0.407
X25.555 Y-43.909 Z-3.444 I0.192 J-0.407
X25.172 Y-43.095 Z-3.494 I-0.192 J0.407
X25.028 Y-43.202 Z-3.5 I0.192 J-0.407
X25.699 Y-43.802 I0.336 J-0.3 F1000.
X25.028 Y-43.202 I-0.336 J0.3
G1 X25.001 Y-43.244
X24.988 Y-43.293
X24.991 Y-43.343
X25.009 Y-43.389
X25.041 Y-43.428
X25.16 Y-43.535
X25.197 Y-43.568 Z-3.492
X25.23 Y-43.597 Z-3.469
X25.257 Y-43.621 Z-3.434
X25.274 Y-43.636 Z-3.389
X25.28 Y-43.641 Z-3.34
G0 Z2.
X39.132 Y-21.411
G1 Z1.5 F333.
Z0.66
X39.126 Y-21.405 Z0.611 F1000.
X39.111 Y-21.389 Z0.566
X39.086 Y-21.363 Z0.531
X39.055 Y-21.331 Z0.508
X39.021 Y-21.295 Z0.5
X38.91 Y-21.18
X38.87 Y-21.15
X38.823 Y-21.134
X38.773 Y-21.133
X38.725 Y-21.147
X38.684 Y-21.176
G3 X39.308 Y-21.824 Z0.451 I0.312 J-0.324 F333.
X38.684 Y-21.176 Z0.401 I-0.312 J0.324
X39.308 Y-21.824 Z0.352 I0.312 J-0.324
X38.684 Y-21.176 Z0.303 I-0.312 J0.324
X39.308 Y-21.824 Z0.253 I0.312 J-0.324
X38.684 Y-21.176 Z0.204 I-0.312 J0.324
X39.308 Y-21.824 Z0.154 I0.312 J-0.324
X38.684 Y-21.176 Z0.105 I-0.312 J0.324
X39.308 Y-21.824 Z0.056 I0.312 J-0.324
X38.684 Y-21.176 Z0.006 I-0.312 J0.324
X39.308 Y-21.824 Z-0.043 I0.312 J-0.324
X38.684 Y-21.176 Z-0.092 I-0.312 J0.324
X39.308 Y-21.824 Z-0.142 I0.312 J-0.324
X38.684 Y-21.176 Z-0.191 I-0.312 J0.324
X39.308 Y-21.824 Z-0.241 I0.312 J-0.324
X38.684 Y-21.176 Z-0.29 I-0.312 J0.324
X39.308 Y-21.824 Z-0.339 I0.312 J-0.324
X38.684 Y-21.176 Z-0.389 I-0.312 J0.324
X39.308 Y-21.824 Z-0.438 I0.312 J-0.324
X38.684 Y-21.176 Z-0.487 I-0.312 J0.324
X38.546 Y-21.5 Z-0.5 I0.312 J-0.324
X39.446 I0.45 J0. F1000.
X38.546 I-0.45 J0.
X39.446 Z-0.549 I0.45 J0. F333.
X38.546 Z-0.599 I-0.45 J0.
X39.446 Z-0.648 I0.45 J0.
X38.546 Z-0.697 I-0.45 J0.
X39.446 Z-0.747 I0.45 J0.
X38.546 Z-0.796 I-0.45 J0.
X39.446 Z-0.846 I0.45 J0.
X38.546 Z-0.895 I-0.45 J0.
X39.446 Z-0.944 I0.45 J0.
X38.546 Z-0.994 I-0.45 J0.
X38.582 Y-21.676 Z-1. I0.45 J0.
X39.41 Y-21.324 I0.414 J0.176 F1000.
X38.582 Y-21.676 I-0.414 J-0.176
X39.41 Y-21.324 Z-1.049 I0.414 J0.176 F333.
X38.582 Y-21.676 Z-1.099 I-0.414 J-0.176
X39.41 Y-21.324 Z-1.148 I0.414 J0.176
X38.582 Y-21.676 Z-1.197 I-0.414 J-0.176
X39.41 Y-21.324 Z-1.247 I0.414 J0.176
X38.582 Y-21.676 Z-1.296 I-0.414 J-0.176
X39.41 Y-21.324 Z-1.346 I0.414 J0.176
X38.582 Y-21.676 Z-1.395 I-0.414 J-0.176
X39.41 Y-21.324 Z-1.444 I0.414 J0.176
X38.582 Y-21.676 Z-1.494 I-0.414 J-0.176
X38.684 Y-21.824 Z-1.5 I0.414 J0.176
X39.308 Y-21.176 I0.312 J0.324 F1000.
X38.684 Y-21.824 I-0.312 J-0.324
X39.308 Y-21.176 Z-1.549 I0.312 J0.324 F333.
X38.684 Y-21.824 Z-1.599 I-0.312 J-0.324
X39.308 Y-21.176 Z-1.648 I0.312 J0.324
X38.684 Y-21.824 Z-1.697 I-0.312 J-0.324
X39.308 Y-21.176 Z-1.747 I0.312 J0.324
X38.684 Y-21.824 Z-1.796 I-0.312 J-0.324
X39.308 Y-21.176 Z-1.846 I0.312 J0.324
X38.684 Y-21.824 Z-1.895 I-0.312 J-0.324
X39.308 Y-21.176 Z-1.944 I0.312 J0.324
X38.684 Y-21.824 Z-1.994 I-0.312 J-0.324
X38.835 Y-21.92 Z-2. I0.312 J0.324
X39.156 Y-21.08 I0.16 J0.42 F1000.
X38.835 Y-21.92 I-0.16 J-0.42
X39.156 Y-21.08 Z-2.049 I0.16 J0.42 F333.
X38.835 Y-21.92 Z-2.099 I-0.16 J-0.42
X39.156 Y-21.08 Z-2.148 I0.16 J0.42
X38.835 Y-21.92 Z-2.197 I-0.16 J-0.42
X39.156 Y-21.08 Z-2.247 I0.16 J0.42
X38.835 Y-21.92 Z-2.296 I-0.16 J-0.42
X39.156 Y-21.08 Z-2.346 I0.16 J0.42
X38.835 Y-21.92 Z-2.395 I-0.16 J-0.42
X39.156 Y-21.08 Z-2.444 I0.16 J0.42
X38.835 Y-21.92 Z-2.494 I-0.16 J-0.42
X39.013 Y-21.95 Z-2.5 I0.16 J0.42
X38.979 Y-21.05 I-0.017 J0.45 F1000.
X39.013 Y-21.95 I0.017 J-0.45
X38.979 Y-21.05 Z-2.549 I-0.017 J0.45 F333.
X39.013 Y-21.95 Z-2.599 I0.017 J-0.45
X38.979 Y-21.05 Z-2.648 I-0.017 J0.45
X39.013 Y-21.95 Z-2.697 I0.017 J-0.45
X38.979 Y-21.05 Z-2.747 I-0.017 J0.45
X39.013 Y-21.95 Z-2.796 I0.017 J-0.45
X38.979 Y-21.05 Z-2.846 I-0.017 J0.45
X39.013 Y-21.95 Z-2.895 I0.017 J-0.45
X38.979 Y-21.05 Z-2.944 I-0.017 J0.45
X39.013 Y-21.95 Z-2.994 I0.017 J-0.45
X39.187 Y-21.907 Z-3. I-0.017 J0.45
X38.804 Y-21.093 I-0.192 J0.407 F1000.
X39.187 Y-21.907 I0.192 J-0.407
X38.804 Y-21.093 Z-3.049 I-0.192 J0.407 F333.
X39.187 Y-21.907 Z-3.099 I0.192 J-0.407
X38.804 Y-21.093 Z-3.148 I-0.192 J0.407
X39.187 Y-21.907 Z-3.197 I0.192 J-0.407
X38.804 Y-21.093 Z-3.247 I-0.192 J0.407
X39.187 Y-21.907 Z-3.296 I0.192 J-0.407
X38.804 Y-21.093 Z-3.346 I-0.192 J0.407
X39.187 Y-21.907 Z-3.395 I0.192 J-0.407
X38.804 Y-21.093 Z-3.444 I-0.192 J0.407
X39.187 Y-21.907 Z-3.494 I0.192 J-0.407
X39.331 Y-21.8 Z-3.5 I-0.192 J0.407
X38.66 Y-21.2 I-0.336 J0.3 F1000.
X39.331 Y-21.8 I0.336 J-0.3
G1 X39.359 Y-21.758
X39.371 Y-21.709
X39.368 Y-21.659
X39.35 Y-21.613
X39.319 Y-21.574
X39.199 Y-21.467
X39.162 Y-21.434 Z-3.492
X39.129 Y-21.405 Z-3.469
X39.103 Y-21.381 Z-3.434
X39.086 Y-21.366 Z-3.389
X39.08 Y-21.361 Z-3.34
G0 Z2.
X39.132 Y-11.411
G1 Z1.5 F333.
Z0.66
X39.126 Y-11.405 Z0.611 F1000.
X39.111 Y-11.389 Z0.566
X39.086 Y-11.363 Z0.531
X39.055 Y-11.331 Z0.508
X39.021 Y-11.295 Z0.5
X38.91 Y-11.18
X38.87 Y-11.15
X38.823 Y-11.134
X38.773 Y-11.133
X38.725 Y-11.147
X38.684 Y-11.176
G3 X39.308 Y-11.824 Z0.451 I0.312 J-0.324 F333.
X38.684 Y-11.176 Z0.401 I-0.312 J0.324
X39.308 Y-11.824 Z0.352 I0.312 J-0.324
X38.684 Y-11.176 Z0.303 I-0.312 J0.324
X39.308 Y-11.824 Z0.253 I0.312 J-0.324
X38.684 Y-11.176 Z0.204 I-0.312 J0.324
X39.308 Y-11.824 Z0.154 I0.312 J-0.324
X38.684 Y-11.176 Z0.105 I-0.312 J0.324
X39.308 Y-11.824 Z0.056 I0.312 J-0.324
X38.684 Y-11.176 Z0.006 I-0.312 J0.324
X39.308 Y-11.824 Z-0.043 I0.312 J-0.324
X38.684 Y-11.176 Z-0.092 I-0.312 J0.324
X39.308 Y-11.824 Z-0.142 I0.312 J-0.324
X38.684 Y-11.176 Z-0.191 I-0.312 J0.324
X39.308 Y-11.824 Z-0.241 I0.312 J-0.324
X38.684 Y-11.176 Z-0.29 I-0.312 J0.324
X39.308 Y-11.824 Z-0.339 I0.312 J-0.324
X38.684 Y-11.176 Z-0.389 I-0.312 J0.324
X39.308 Y-11.824 Z-0.438 I0.312 J-0.324
X38.684 Y-11.176 Z-0.487 I-0.312 J0.324
X38.546 Y-11.5 Z-0.5 I0.312 J-0.324
X39.446 I0.45 J0. F1000.
X38.546 I-0.45 J0.
X39.446 Z-0.549 I0.45 J0. F333.
X38.546 Z-0.599 I-0.45 J0.
X39.446 Z-0.648 I0.45 J0.
X38.546 Z-0.697 I-0.45 J0.
X39.446 Z-0.747 I0.45 J0.
X38.546 Z-0.796 I-0.45 J0.
X39.446 Z-0.846 I0.45 J0.
X38.546 Z-0.895 I-0.45 J0.
X39.446 Z-0.944 I0.45 J0.
X38.546 Z-0.994 I-0.45 J0.
X38.582 Y-11.676 Z-1. I0.45 J0.
X39.41 Y-11.324 I0.414 J0.176 F1000.
X38.582 Y-11.676 I-0.414 J-0.176
X39.41 Y-11.324 Z-1.049 I0.414 J0.176 F333.
X38.582 Y-11.676 Z-1.099 I-0.414 J-0.176
X39.41 Y-11.324 Z-1.148 I0.414 J0.176
X38.582 Y-11.676 Z-1.197 I-0.414 J-0.176
X39.41 Y-11.324 Z-1.247 I0.414 J0.176
X38.582 Y-11.676 Z-1.296 I-0.414 J-0.176
X39.41 Y-11.324 Z-1.346 I0.414 J0.176
X38.582 Y-11.676 Z-1.395 I-0.414 J-0.176
X39.41 Y-11.324 Z-1.444 I0.414 J0.176
X38.582 Y-11.676 Z-1.494 I-0.414 J-0.176
X38.684 Y-11.824 Z-1.5 I0.414 J0.176
X39.308 Y-11.176 I0.312 J0.324 F1000.
X38.684 Y-11.824 I-0.312 J-0.324
X39.308 Y-11.176 Z-1.549 I0.312 J0.324 F333.
X38.684 Y-11.824 Z-1.599 I-0.312 J-0.324
X39.308 Y-11.176 Z-1.648 I0.312 J0.324
X38.684 Y-11.824 Z-1.697 I-0.312 J-0.324
X39.308 Y-11.176 Z-1.747 I0.312 J0.324
X38.684 Y-11.824 Z-1.796 I-0.312 J-0.324
X39.308 Y-11.176 Z-1.846 I0.312 J0.324
X38.684 Y-11.824 Z-1.895 I-0.312 J-0.324
X39.308 Y-11.176 Z-1.944 I0.312 J0.324
X38.684 Y-11.824 Z-1.994 I-0.312 J-0.324
X38.835 Y-11.92 Z-2. I0.312 J0.324
X39.156 Y-11.08 I0.16 J0.42 F1000.
X38.835 Y-11.92 I-0.16 J-0.42
X39.156 Y-11.08 Z-2.049 I0.16 J0.42 F333.
X38.835 Y-11.92 Z-2.099 I-0.16 J-0.42
X39.156 Y-11.08 Z-2.148 I0.16 J0.42
X38.835 Y-11.92 Z-2.197 I-0.16 J-0.42
X39.156 Y-11.08 Z-2.247 I0.16 J0.42
X38.835 Y-11.92 Z-2.296 I-0.16 J-0.42
X39.156 Y-11.08 Z-2.346 I0.16 J0.42
X38.835 Y-11.92 Z-2.395 I-0.16 J-0.42
X39.156 Y-11.08 Z-2.444 I0.16 J0.42
X38.835 Y-11.92 Z-2.494 I-0.16 J-0.42
X39.013 Y-11.95 Z-2.5 I0.16 J0.42
X38.979 Y-11.05 I-0.017 J0.45 F1000.
X39.013 Y-11.95 I0.017 J-0.45
X38.979 Y-11.05 Z-2.549 I-0.017 J0.45 F333.
X39.013 Y-11.95 Z-2.599 I0.017 J-0.45
X38.979 Y-11.05 Z-2.648 I-0.017 J0.45
X39.013 Y-11.95 Z-2.697 I0.017 J-0.45
X38.979 Y-11.05 Z-2.747 I-0.017 J0.45
X39.013 Y-11.95 Z-2.796 I0.017 J-0.45
X38.979 Y-11.05 Z-2.846 I-0.017 J0.45
X39.013 Y-11.95 Z-2.895 I0.017 J-0.45
X38.979 Y-11.05 Z-2.944 I-0.017 J0.45
X39.013 Y-11.95 Z-2.994 I0.017 J-0.45
X39.187 Y-11.907 Z-3. I-0.017 J0.45
X38.804 Y-11.093 I-0.192 J0.407 F1000.
X39.187 Y-11.907 I0.192 J-0.407
X38.804 Y-11.093 Z-3.049 I-0.192 J0.407 F333.
X39.187 Y-11.907 Z-3.099 I0.192 J-0.407
X38.804 Y-11.093 Z-3.148 I-0.192 J0.407
X39.187 Y-11.907 Z-3.197 I0.192 J-0.407
X38.804 Y-11.093 Z-3.247 I-0.192 J0.407
X39.187 Y-11.907 Z-3.296 I0.192 J-0.407
X38.804 Y-11.093 Z-3.346 I-0.192 J0.407
X39.187 Y-11.907 Z-3.395 I0.192 J-0.407
X38.804 Y-11.093 Z-3.444 I-0.192 J0.407
X39.187 Y-11.907 Z-3.494 I0.192 J-0.407
X39.331 Y-11.8 Z-3.5 I-0.192 J0.407
X38.66 Y-11.2 I-0.336 J0.3 F1000.
X39.331 Y-11.8 I0.336 J-0.3
G1 X39.359 Y-11.758
X39.371 Y-11.709
X39.368 Y-11.659
X39.35 Y-11.613
X39.319 Y-11.574
X39.199 Y-11.467
X39.162 Y-11.434 Z-3.492
X39.129 Y-11.405 Z-3.469
X39.103 Y-11.381 Z-3.434
X39.086 Y-11.366 Z-3.389
X39.08 Y-11.361 Z-3.34
G0 Z2.
X25.231 Y10.409
G1 Z1.5 F333.
Z0.66
X25.237 Y10.404 Z0.611 F1000.
X25.252 Y10.387 Z0.566
X25.277 Y10.362 Z0.531
X25.308 Y10.329 Z0.508
X25.342 Y10.294 Z0.5
X25.452 Y10.178
X25.492 Y10.147
X25.539 Y10.131
X25.589 Y10.13
X25.637 Y10.144
X25.678 Y10.172
G3 X25.818 Y10.498 Z0.487 I-0.31 J0.326 F333.
X25.368 Y10.948 Z0.463 I-0.45 J0.
Y10.048 Z0.413 I0. J-0.45
X25.818 Y10.498 Z0.389 I0. J0.45
X25.368 Y10.948 Z0.364 I-0.45 J0.
Y10.048 Z0.315 I0. J-0.45
X25.818 Y10.498 Z0.29 I0. J0.45
X25.368 Y10.948 Z0.265 I-0.45 J0.
Y10.048 Z0.216 I0. J-0.45
X25.818 Y10.498 Z0.191 I0. J0.45
X25.368 Y10.948 Z0.166 I-0.45 J0.
Y10.048 Z0.117 I0. J-0.45
X25.818 Y10.498 Z0.092 I0. J0.45
X25.368 Y10.948 Z0.068 I-0.45 J0.
Y10.048 Z0.018 I0. J-0.45
X25.818 Y10.498 Z-0.006 I0. J0.45
X25.368 Y10.948 Z-0.031 I-0.45 J0.
Y10.048 Z-0.08 I0. J-0.45
X25.818 Y10.498 Z-0.105 I0. J0.45
X25.368 Y10.948 Z-0.13 I-0.45 J0.
Y10.048 Z-0.179 I0. J-0.45
X25.818 Y10.498 Z-0.204 I0. J0.45
X25.368 Y10.948 Z-0.228 I-0.45 J0.
Y10.048 Z-0.278 I0. J-0.45
X25.818 Y10.498 Z-0.303 I0. J0.45
X25.368 Y10.948 Z-0.327 I-0.45 J0.
Y10.048 Z-0.377 I0. J-0.45
X25.818 Y10.498 Z-0.401 I0. J0.45
X25.368 Y10.948 Z-0.426 I-0.45 J0.
Y10.048 Z-0.475 I0. J-0.45
X25.818 Y10.498 Z-0.5 I0. J0.45
X25.368 Y10.948 I-0.45 J0. F1000.
Y10.048 I0. J-0.45
X25.818 Y10.498 I0. J0.45
X25.368 Y10.948 Z-0.525 I-0.45 J0. F333.
Y10.048 Z-0.574 I0. J-0.45
X25.818 Y10.498 Z-0.599 I0. J0.45
X25.368 Y10.948 Z-0.623 I-0.45 J0.
Y10.048 Z-0.673 I0. J-0.45
X25.818 Y10.498 Z-0.697 I0. J0.45
X25.368 Y10.948 Z-0.722 I-0.45 J0.
Y10.048 Z-0.772 I0. J-0.45
X25.818 Y10.498 Z-0.796 I0. J0.45
X25.368 Y10.948 Z-0.821 I-0.45 J0.
Y10.048 Z-0.87 I0. J-0.45
X25.818 Y10.498 Z-0.895 I0. J0.45
X25.368 Y10.948 Z-0.92 I-0.45 J0.
Y10.048 Z-0.969 I0. J-0.45
X25.818 Y10.498 Z-0.994 I0. J0.45
G1 X25.814 Y10.559 Z-0.996
X25.801 Y10.618 Z-0.998
X25.781 Y10.675 Z-1.
G3 X25.368 Y10.948 I-0.414 J-0.177 F1000.
Y10.048 I0. J-0.45
X25.818 Y10.498 I0. J0.45
G1 X25.814 Y10.559
X25.801 Y10.618
X25.781 Y10.675
G3 X25.368 Y10.948 Z-1.018 I-0.414 J-0.177 F333.
Y10.048 Z-1.068 I0. J-0.45
X25.818 Y10.498 Z-1.092 I0. J0.45
X25.368 Y10.948 Z-1.117 I-0.45 J0.
Y10.048 Z-1.166 I0. J-0.45
X25.818 Y10.498 Z-1.191 I0. J0.45
X25.368 Y10.948 Z-1.216 I-0.45 J0.
Y10.048 Z-1.265 I0. J-0.45
X25.818 Y10.498 Z-1.29 I0. J0.45
X25.368 Y10.948 Z-1.315 I-0.45 J0.
Y10.048 Z-1.364 I0. J-0.45
X25.818 Y10.498 Z-1.389 I0. J0.45
X25.368 Y10.948 Z-1.413 I-0.45 J0.
Y10.048 Z-1.463 I0. J-0.45
X25.818 Y10.498 Z-1.487 I0. J0.45
X25.678 Y10.824 Z-1.5 I-0.45 J0.
X25.368 Y10.948 I-0.31 J-0.326 F1000.
Y10.048 I0. J-0.45
X25.818 Y10.498 I0. J0.45
X25.678 Y10.824 I-0.45 J0.
X25.368 Y10.948 Z-1.512 I-0.31 J-0.326 F333.
Y10.048 Z-1.561 I0. J-0.45
X25.818 Y10.498 Z-1.586 I0. J0.45
X25.368 Y10.948 Z-1.611 I-0.45 J0.
Y10.048 Z-1.66 I0. J-0.45
X25.818 Y10.498 Z-1.685 I0. J0.45
X25.368 Y10.948 Z-1.709 I-0.45 J0.
Y10.048 Z-1.759 I0. J-0.45
X25.818 Y10.498 Z-1.783 I0. J0.45
X25.368 Y10.948 Z-1.808 I-0.45 J0.
Y10.048 Z-1.858 I0. J-0.45
X25.818 Y10.498 Z-1.882 I0. J0.45
X25.368 Y10.948 Z-1.907 I-0.45 J0.
Y10.048 Z-1.956 I0. J-0.45
X25.818 Y10.498 Z-1.981 I0. J0.45
X25.525 Y10.92 Z-2. I-0.45 J0.
G1 X25.448 Y10.941 F1000.
X25.368 Y10.948
G3 Y10.048 I0. J-0.45
X25.818 Y10.498 I0. J0.45
X25.525 Y10.92 I-0.45 J0.
G1 X25.448 Y10.941 Z-2.003 F333.
X25.368 Y10.948 Z-2.006
G3 Y10.048 Z-2.055 I0. J-0.45
X25.818 Y10.498 Z-2.08 I0. J0.45
X25.368 Y10.948 Z-2.104 I-0.45 J0.
Y10.048 Z-2.154 I0. J-0.45
X25.818 Y10.498 Z-2.178 I0. J0.45
X25.368 Y10.948 Z-2.203 I-0.45 J0.
Y10.048 Z-2.252 I0. J-0.45
X25.818 Y10.498 Z-2.277 I0. J0.45
X25.368 Y10.948 Z-2.302 I-0.45 J0.
Y10.048 Z-2.351 I0. J-0.45
X25.818 Y10.498 Z-2.376 I0. J0.45
X25.368 Y10.948 Z-2.401 I-0.45 J0.
Y10.048 Z-2.45 I0. J-0.45
X25.818 Y10.498 Z-2.475 I0. J0.45
X25.368 Y10.948 Z-2.499 I-0.45 J0.
G1 X25.346 Z-2.5
G3 X25.368 Y10.048 I0.022 J-0.449 F1000.
X25.818 Y10.498 I0. J0.45
X25.368 Y10.948 I-0.45 J0.
G1 X25.346
G3 X25.368 Y10.048 Z-2.549 I0.022 J-0.449 F333.
X25.818 Y10.498 Z-2.573 I0. J0.45
X25.368 Y10.948 Z-2.598 I-0.45 J0.
Y10.048 Z-2.647 I0. J-0.45
X25.818 Y10.498 Z-2.672 I0. J0.45
X25.368 Y10.948 Z-2.697 I-0.45 J0.
Y10.048 Z-2.746 I0. J-0.45
X25.818 Y10.498 Z-2.771 I0. J0.45
X25.368 Y10.948 Z-2.795 I-0.45 J0.
Y10.048 Z-2.845 I0. J-0.45
X25.818 Y10.498 Z-2.869 I0. J0.45
X25.368 Y10.948 Z-2.894 I-0.45 J0.
Y10.048 Z-2.944 I0. J-0.45
X25.818 Y10.498 Z-2.968 I0. J0.45
X25.368 Y10.948 Z-2.993 I-0.45 J0.
G1 X25.3 Y10.943 Z-2.995
X25.234 Y10.928 Z-2.998
X25.171 Y10.903 Z-3.
G3 X25.368 Y10.048 I0.197 J-0.405 F1000.
X25.818 Y10.498 I0. J0.45
X25.368 Y10.948 I-0.45 J0.
G1 X25.3 Y10.943
X25.234 Y10.928
X25.171 Y10.903
G3 X25.368 Y10.048 Z-3.042 I0.197 J-0.405 F333.
X25.818 Y10.498 Z-3.067 I0. J0.45
X25.368 Y10.948 Z-3.092 I-0.45 J0.
Y10.048 Z-3.141 I0. J-0.45
X25.818 Y10.498 Z-3.166 I0. J0.45
X25.368 Y10.948 Z-3.19 I-0.45 J0.
Y10.048 Z-3.24 I0. J-0.45
X25.818 Y10.498 Z-3.264 I0. J0.45
X25.368 Y10.948 Z-3.289 I-0.45 J0.
Y10.048 Z-3.338 I0. J-0.45
X25.818 Y10.498 Z-3.363 I0. J0.45
X25.368 Y10.948 Z-3.388 I-0.45 J0.
Y10.048 Z-3.437 I0. J-0.45
X25.818 Y10.498 Z-3.462 I0. J0.45
X25.368 Y10.948 Z-3.487 I-0.45 J0.
X25.028 Y10.793 Z-3.5 I0. J-0.45
X25.368 Y10.048 I0.34 J-0.295 F1000.
X25.818 Y10.498 I0. J0.45
X25.368 Y10.948 I-0.45 J0.
X25.028 Y10.793 I0. J-0.45
G1 X25.001 Y10.75
X24.989 Y10.702
X24.993 Y10.652
X25.012 Y10.605
X25.044 Y10.567
X25.165 Y10.462
X25.202 Y10.43 Z-3.492
X25.236 Y10.401 Z-3.469
X25.263 Y10.378 Z-3.434
X25.28 Y10.363 Z-3.389
X25.286 Y10.358 Z-3.34
G0 Z2.
X41.911 Y42.136
G1 Z1.5 F333.
Z0.66
X41.905 Y42.131 Z0.611 F1000.
X41.889 Y42.115 Z0.566
X41.863 Y42.09 Z0.531
X41.831 Y42.059 Z0.508
X41.795 Y42.025 Z0.5
X41.68 Y41.914
X41.65 Y41.874
X41.634 Y41.827
X41.633 Y41.777
X41.647 Y41.729
X41.676 Y41.688
G3 X42.324 Y42.312 Z0.451 I0.324 J0.312 F333.
X41.676 Y41.688 Z0.401 I-0.324 J-0.312
X42.324 Y42.312 Z0.352 I0.324 J0.312
X41.676 Y41.688 Z0.303 I-0.324 J-0.312
X42.324 Y42.312 Z0.253 I0.324 J0.312
X41.676 Y41.688 Z0.204 I-0.324 J-0.312
X42.324 Y42.312 Z0.154 I0.324 J0.312
X41.676 Y41.688 Z0.105 I-0.324 J-0.312
X42.324 Y42.312 Z0.056 I0.324 J0.312
X41.676 Y41.688 Z0.006 I-0.324 J-0.312
X42.324 Y42.312 Z-0.043 I0.324 J0.312
X41.676 Y41.688 Z-0.092 I-0.324 J-0.312
X42.324 Y42.312 Z-0.142 I0.324 J0.312
X41.676 Y41.688 Z-0.191 I-0.324 J-0.312
X42.324 Y42.312 Z-0.241 I0.324 J0.312
X41.676 Y41.688 Z-0.29 I-0.324 J-0.312
X42.324 Y42.312 Z-0.339 I0.324 J0.312
X41.676 Y41.688 Z-0.389 I-0.324 J-0.312
X42.324 Y42.312 Z-0.438 I0.324 J0.312
X41.676 Y41.688 Z-0.487 I-0.324 J-0.312
X42. Y41.55 Z-0.5 I0.324 J0.312
Y42.45 I0. J0.45 F1000.
Y41.55 I0. J-0.45
Y42.45 Z-0.549 I0. J0.45 F333.
Y41.55 Z-0.599 I0. J-0.45
Y42.45 Z-0.648 I0. J0.45
Y41.55 Z-0.697 I0. J-0.45
Y42.45 Z-0.747 I0. J0.45
Y41.55 Z-0.796 I0. J-0.45
Y42.45 Z-0.846 I0. J0.45
Y41.55 Z-0.895 I0. J-0.45
Y42.45 Z-0.944 I0. J0.45
Y41.55 Z-0.994 I0. J-0.45
X42.176 Y41.586 Z-1. I0. J0.45
X41.824 Y42.414 I-0.176 J0.414 F1000.
X42.176 Y41.586 I0.176 J-0.414
X41.824 Y42.414 Z-1.049 I-0.176 J0.414 F333.
X42.176 Y41.586 Z-1.099 I0.176 J-0.414
X41.824 Y42.414 Z-1.148 I-0.176 J0.414
X42.176 Y41.586 Z-1.197 I0.176 J-0.414
X41.824 Y42.414 Z-1.247 I-0.176 J0.414
X42.176 Y41.586 Z-1.296 I0.176 J-0.414
X41.824 Y42.414 Z-1.346 I-0.176 J0.414
X42.176 Y41.586 Z-1.395 I0.176 J-0.414
X41.824 Y42.414 Z-1.444 I-0.176 J0.414
X42.176 Y41.586 Z-1.494 I0.176 J-0.414
X42.324 Y41.688 Z-1.5 I-0.176 J0.414
X41.676 Y42.312 I-0.324 J0.312 F1000.
X42.324 Y41.688 I0.324 J-0.312
X41.676 Y42.312 Z-1.549 I-0.324 J0.312 F333.
X42.324 Y41.688 Z-1.599 I0.324 J-0.312
X41.676 Y42.312 Z-1.648 I-0.324 J0.312
X42.324 Y41.688 Z-1.697 I0.324 J-0.312
X41.676 Y42.312 Z-1.747 I-0.324 J0.312
X42.324 Y41.688 Z-1.796 I0.324 J-0.312
X41.676 Y42.312 Z-1.846 I-0.324 J0.312
X42.324 Y41.688 Z-1.895 I0.324 J-0.312
X41.676 Y42.312 Z-1.944 I-0.324 J0.312
X42.324 Y41.688 Z-1.994 I0.324 J-0.312
X42.42 Y41.84 Z-2. I-0.324 J0.312
X41.58 Y42.16 I-0.42 J0.16 F1000.
X42.42 Y41.84 I0.42 J-0.16
X41.58 Y42.16 Z-2.049 I-0.42 J0.16 F333.
X42.42 Y41.84 Z-2.099 I0.42 J-0.16
X41.58 Y42.16 Z-2.148 I-0.42 J0.16
X42.42 Y41.84 Z-2.197 I0.42 J-0.16
X41.58 Y42.16 Z-2.247 I-0.42 J0.16
X42.42 Y41.84 Z-2.296 I0.42 J-0.16
X41.58 Y42.16 Z-2.346 I-0.42 J0.16
X42.42 Y41.84 Z-2.395 I0.42 J-0.16
X41.58 Y42.16 Z-2.444 I-0.42 J0.16
X42.42 Y41.84 Z-2.494 I0.42 J-0.16
X42.45 Y42.017 Z-2.5 I-0.42 J0.16
X41.55 Y41.983 I-0.45 J-0.017 F1000.
X42.45 Y42.017 I0.45 J0.017
X41.55 Y41.983 Z-2.549 I-0.45 J-0.017 F333.
X42.45 Y42.017 Z-2.599 I0.45 J0.017
X41.55 Y41.983 Z-2.648 I-0.45 J-0.017
X42.45 Y42.017 Z-2.697 I0.45 J0.017
X41.55 Y41.983 Z-2.747 I-0.45 J-0.017
X42.45 Y42.017 Z-2.796 I0.45 J0.017
X41.55 Y41.983 Z-2.846 I-0.45 J-0.017
X42.45 Y42.017 Z-2.895 I0.45 J0.017
X41.55 Y41.983 Z-2.944 I-0.45 J-0.017
X42.45 Y42.017 Z-2.994 I0.45 J0.017
X42.407 Y42.192 Z-3. I-0.45 J-0.017
X41.593 Y41.808 I-0.407 J-0.192 F1000.
X42.407 Y42.192 I0.407 J0.192
X41.593 Y41.808 Z-3.049 I-0.407 J-0.192 F333.
X42.407 Y42.192 Z-3.099 I0.407 J0.192
X41.593 Y41.808 Z-3.148 I-0.407 J-0.192
X42.407 Y42.192 Z-3.197 I0.407 J0.192
X41.593 Y41.808 Z-3.247 I-0.407 J-0.192
X42.407 Y42.192 Z-3.296 I0.407 J0.192
X41.593 Y41.808 Z-3.346 I-0.407 J-0.192
X42.407 Y42.192 Z-3.395 I0.407 J0.192
X41.593 Y41.808 Z-3.444 I-0.407 J-0.192
X42.407 Y42.192 Z-3.494 I0.407 J0.192
X42.3 Y42.336 Z-3.5 I-0.407 J-0.192
X41.7 Y41.664 I-0.3 J-0.336 F1000.
X42.3 Y42.336 I0.3 J0.336
G1 X42.258 Y42.363
X42.209 Y42.376
X42.159 Y42.373
X42.113 Y42.355
X42.074 Y42.323
X41.967 Y42.204
X41.934 Y42.167 Z-3.492
X41.905 Y42.133 Z-3.469
X41.881 Y42.107 Z-3.434
X41.866 Y42.09 Z-3.389
X41.861 Y42.084 Z-3.34
G0 Z2.
X-25.508 Y10.412
G1 Z1.5 F333.
Z0.66
X-25.503 Y10.407 Z0.611 F1000.
X-25.487 Y10.39 Z0.566
X-25.462 Y10.365 Z0.531
X-25.431 Y10.333 Z0.508
X-25.397 Y10.297 Z0.5
X-25.286 Y10.182
X-25.246 Y10.152
X-25.199 Y10.136
X-25.149 Y10.135
X-25.101 Y10.149
X-25.06 Y10.178
G3 X-25.372 Y10.952 Z0.463 I-0.312 J0.324 F333.
Y10.052 Z0.413 I0. J-0.45
Y10.952 Z0.364 I0. J0.45
Y10.052 Z0.315 I0. J-0.45
Y10.952 Z0.265 I0. J0.45
Y10.052 Z0.216 I0. J-0.45
Y10.952 Z0.166 I0. J0.45
Y10.052 Z0.117 I0. J-0.45
Y10.952 Z0.068 I0. J0.45
Y10.052 Z0.018 I0. J-0.45
Y10.952 Z-0.031 I0. J0.45
Y10.052 Z-0.08 I0. J-0.45
Y10.952 Z-0.13 I0. J0.45
Y10.052 Z-0.179 I0. J-0.45
Y10.952 Z-0.228 I0. J0.45
Y10.052 Z-0.278 I0. J-0.45
Y10.952 Z-0.327 I0. J0.45
Y10.052 Z-0.377 I0. J-0.45
Y10.952 Z-0.426 I0. J0.45
Y10.052 Z-0.475 I0. J-0.45
X-24.922 Y10.502 Z-0.5 I0. J0.45
X-25.372 Y10.952 I-0.45 J0. F1000.
Y10.052 I0. J-0.45
X-24.922 Y10.502 I0. J0.45
X-25.372 Y10.952 Z-0.525 I-0.45 J0. F333.
Y10.052 Z-0.574 I0. J-0.45
Y10.952 Z-0.623 I0. J0.45
Y10.052 Z-0.673 I0. J-0.45
Y10.952 Z-0.722 I0. J0.45
Y10.052 Z-0.772 I0. J-0.45
Y10.952 Z-0.821 I0. J0.45
Y10.052 Z-0.87 I0. J-0.45
Y10.952 Z-0.92 I0. J0.45
Y10.052 Z-0.969 I0. J-0.45
X-24.958 Y10.678 Z-1. I0. J0.45
X-25.372 Y10.952 I-0.414 J-0.176 F1000.
Y10.052 I0. J-0.45
X-24.958 Y10.678 I0. J0.45
X-25.372 Y10.952 Z-1.018 I-0.414 J-0.176 F333.
Y10.052 Z-1.068 I0. J-0.45
Y10.952 Z-1.117 I0. J0.45
Y10.052 Z-1.166 I0. J-0.45
Y10.952 Z-1.216 I0. J0.45
Y10.052 Z-1.265 I0. J-0.45
Y10.952 Z-1.315 I0. J0.45
Y10.052 Z-1.364 I0. J-0.45
Y10.952 Z-1.413 I0. J0.45
Y10.052 Z-1.463 I0. J-0.45
X-25.06 Y10.826 Z-1.5 I0. J0.45
X-25.372 Y10.952 I-0.312 J-0.324 F1000.
Y10.052 I0. J-0.45
X-25.06 Y10.826 I0. J0.45
X-25.372 Y10.952 Z-1.512 I-0.312 J-0.324 F333.
Y10.052 Z-1.561 I0. J-0.45
Y10.952 Z-1.611 I0. J0.45
Y10.052 Z-1.66 I0. J-0.45
Y10.952 Z-1.71 I0. J0.45
Y10.052 Z-1.759 I0. J-0.45
Y10.952 Z-1.808 I0. J0.45
Y10.052 Z-1.858 I0. J-0.45
Y10.952 Z-1.907 I0. J0.45
Y10.052 Z-1.956 I0. J-0.45
X-25.211 Y10.922 Z-2. I0. J0.45
G1 X-25.29 Y10.944 F1000.
X-25.372 Y10.952
G3 Y10.052 I0. J-0.45
X-25.211 Y10.922 I0. J0.45
G1 X-25.29 Y10.944 Z-2.003 F333.
X-25.372 Y10.952 Z-2.006
G3 Y10.052 Z-2.055 I0. J-0.45
Y10.952 Z-2.104 I0. J0.45
Y10.052 Z-2.154 I0. J-0.45
Y10.952 Z-2.203 I0. J0.45
Y10.052 Z-2.253 I0. J-0.45
Y10.952 Z-2.302 I0. J0.45
Y10.052 Z-2.351 I0. J-0.45
Y10.952 Z-2.401 I0. J0.45
Y10.052 Z-2.45 I0. J-0.45
Y10.952 Z-2.499 I0. J0.45
G1 X-25.388 Z-2.5
G3 X-25.372 Y10.052 I0.016 J-0.45 F1000.
Y10.952 I0. J0.45
G1 X-25.388
G3 X-25.372 Y10.052 Z-2.549 I0.016 J-0.45 F333.
Y10.952 Z-2.598 I0. J0.45
Y10.052 Z-2.648 I0. J-0.45
Y10.952 Z-2.697 I0. J0.45
Y10.052 Z-2.746 I0. J-0.45
Y10.952 Z-2.796 I0. J0.45
Y10.052 Z-2.845 I0. J-0.45
Y10.952 Z-2.894 I0. J0.45
Y10.052 Z-2.944 I0. J-0.45
Y10.952 Z-2.993 I0. J0.45
G1 X-25.438 Y10.947 Z-2.995
X-25.502 Y10.933 Z-2.998
X-25.563 Y10.91 Z-3.
G3 X-25.372 Y10.052 I0.191 J-0.408 F1000.
Y10.952 I0. J0.45
G1 X-25.438 Y10.947
X-25.502 Y10.933
X-25.563 Y10.91
G3 X-25.372 Y10.052 Z-3.042 I0.191 J-0.408 F333.
Y10.952 Z-3.092 I0. J0.45
Y10.052 Z-3.141 I0. J-0.45
Y10.952 Z-3.191 I0. J0.45
Y10.052 Z-3.24 I0. J-0.45
Y10.952 Z-3.289 I0. J0.45
Y10.052 Z-3.339 I0. J-0.45
Y10.952 Z-3.388 I0. J0.45
Y10.052 Z-3.437 I0. J-0.45
Y10.952 Z-3.487 I0. J0.45
X-25.707 Y10.803 Z-3.5 I0. J-0.45
X-25.372 Y10.052 I0.335 J-0.301 F1000.
Y10.952 I0. J0.45
X-25.707 Y10.803 I0. J-0.45
G1 X-25.734 Y10.761
X-25.747 Y10.712
X-25.744 Y10.662
X-25.726 Y10.616
X-25.695 Y10.577
X-25.576 Y10.47
X-25.539 Y10.437 Z-3.492
X-25.506 Y10.407 Z-3.469
X-25.48 Y10.383 Z-3.434
X-25.463 Y10.368 Z-3.389
X-25.457 Y10.363 Z-3.34
G0 Z2.
X-38.915 Y-11.636
G1 Z1.5 F333.
Z0.66
X-38.909 Y-11.631 Z0.611 F1000.
X-38.893 Y-11.615 Z0.566
X-38.867 Y-11.59 Z0.531
X-38.835 Y-11.559 Z0.508
X-38.8 Y-11.525 Z0.5
X-38.684 Y-11.414
X-38.654 Y-11.374
X-38.638 Y-11.327
X-38.637 Y-11.277
X-38.651 Y-11.229
X-38.68 Y-11.188
G3 X-39.328 Y-11.812 Z0.451 I-0.324 J-0.312 F333.
X-38.68 Y-11.188 Z0.401 I0.324 J0.312
X-39.328 Y-11.812 Z0.352 I-0.324 J-0.312
X-38.68 Y-11.188 Z0.303 I0.324 J0.312
X-39.328 Y-11.812 Z0.253 I-0.324 J-0.312
X-38.68 Y-11.188 Z0.204 I0.324 J0.312
X-39.328 Y-11.812 Z0.154 I-0.324 J-0.312
X-38.68 Y-11.188 Z0.105 I0.324 J0.312
X-39.328 Y-11.812 Z0.056 I-0.324 J-0.312
X-38.68 Y-11.188 Z0.006 I0.324 J0.312
X-39.328 Y-11.812 Z-0.043 I-0.324 J-0.312
X-38.68 Y-11.188 Z-0.092 I0.324 J0.312
X-39.328 Y-11.812 Z-0.142 I-0.324 J-0.312
X-38.68 Y-11.188 Z-0.191 I0.324 J0.312
X-39.328 Y-11.812 Z-0.241 I-0.324 J-0.312
X-38.68 Y-11.188 Z-0.29 I0.324 J0.312
X-39.328 Y-11.812 Z-0.339 I-0.324 J-0.312
X-38.68 Y-11.188 Z-0.389 I0.324 J0.312
X-39.328 Y-11.812 Z-0.438 I-0.324 J-0.312
X-38.68 Y-11.188 Z-0.487 I0.324 J0.312
X-39.004 Y-11.05 Z-0.5 I-0.324 J-0.312
Y-11.95 I0. J-0.45 F1000.
Y-11.05 I0. J0.45
Y-11.95 Z-0.549 I0. J-0.45 F333.
Y-11.05 Z-0.599 I0. J0.45
Y-11.95 Z-0.648 I0. J-0.45
Y-11.05 Z-0.697 I0. J0.45
Y-11.95 Z-0.747 I0. J-0.45
Y-11.05 Z-0.796 I0. J0.45
Y-11.95 Z-0.846 I0. J-0.45
Y-11.05 Z-0.895 I0. J0.45
Y-11.95 Z-0.944 I0. J-0.45
Y-11.05 Z-0.994 I0. J0.45
X-39.18 Y-11.086 Z-1. I0. J-0.45
X-38.828 Y-11.914 I0.176 J-0.414 F1000.
X-39.18 Y-11.086 I-0.176 J0.414
X-38.828 Y-11.914 Z-1.049 I0.176 J-0.414 F333.
X-39.18 Y-11.086 Z-1.099 I-0.176 J0.414
X-38.828 Y-11.914 Z-1.148 I0.176 J-0.414
X-39.18 Y-11.086 Z-1.197 I-0.176 J0.414
X-38.828 Y-11.914 Z-1.247 I0.176 J-0.414
X-39.18 Y-11.086 Z-1.296 I-0.176 J0.414
X-38.828 Y-11.914 Z-1.346 I0.176 J-0.414
X-39.18 Y-11.086 Z-1.395 I-0.176 J0.414
X-38.828 Y-11.914 Z-1.444 I0.176 J-0.414
X-39.18 Y-11.086 Z-1.494 I-0.176 J0.414
X-39.328 Y-11.188 Z-1.5 I0.176 J-0.414
X-38.68 Y-11.812 I0.324 J-0.312 F1000.
X-39.328 Y-11.188 I-0.324 J0.312
X-38.68 Y-11.812 Z-1.549 I0.324 J-0.312 F333.
X-39.328 Y-11.188 Z-1.599 I-0.324 J0.312
X-38.68 Y-11.812 Z-1.648 I0.324 J-0.312
X-39.328 Y-11.188 Z-1.697 I-0.324 J0.312
X-38.68 Y-11.812 Z-1.747 I0.324 J-0.312
X-39.328 Y-11.188 Z-1.796 I-0.324 J0.312
X-38.68 Y-11.812 Z-1.846 I0.324 J-0.312
X-39.328 Y-11.188 Z-1.895 I-0.324 J0.312
X-38.68 Y-11.812 Z-1.944 I0.324 J-0.312
X-39.328 Y-11.188 Z-1.994 I-0.324 J0.312
X-39.425 Y-11.34 Z-2. I0.324 J-0.312
X-38.584 Y-11.66 I0.42 J-0.16 F1000.
X-39.425 Y-11.34 I-0.42 J0.16
X-38.584 Y-11.66 Z-2.049 I0.42 J-0.16 F333.
X-39.425 Y-11.34 Z-2.099 I-0.42 J0.16
X-38.584 Y-11.66 Z-2.148 I0.42 J-0.16
X-39.425 Y-11.34 Z-2.197 I-0.42 J0.16
X-38.584 Y-11.66 Z-2.247 I0.42 J-0.16
X-39.425 Y-11.34 Z-2.296 I-0.42 J0.16
X-38.584 Y-11.66 Z-2.346 I0.42 J-0.16
X-39.425 Y-11.34 Z-2.395 I-0.42 J0.16
X-38.584 Y-11.66 Z-2.444 I0.42 J-0.16
X-39.425 Y-11.34 Z-2.494 I-0.42 J0.16
X-39.454 Y-11.517 Z-2.5 I0.42 J-0.16
X-38.555 Y-11.483 I0.45 J0.017 F1000.
X-39.454 Y-11.517 I-0.45 J-0.017
X-38.555 Y-11.483 Z-2.549 I0.45 J0.017 F333.
X-39.454 Y-11.517 Z-2.599 I-0.45 J-0.017
X-38.555 Y-11.483 Z-2.648 I0.45 J0.017
X-39.454 Y-11.517 Z-2.697 I-0.45 J-0.017
X-38.555 Y-11.483 Z-2.747 I0.45 J0.017
X-39.454 Y-11.517 Z-2.796 I-0.45 J-0.017
X-38.555 Y-11.483 Z-2.846 I0.45 J0.017
X-39.454 Y-11.517 Z-2.895 I-0.45 J-0.017
X-38.555 Y-11.483 Z-2.944 I0.45 J0.017
X-39.454 Y-11.517 Z-2.994 I-0.45 J-0.017
X-39.411 Y-11.692 Z-3. I0.45 J0.017
X-38.597 Y-11.308 I0.407 J0.192 F1000.
X-39.411 Y-11.692 I-0.407 J-0.192
X-38.597 Y-11.308 Z-3.049 I0.407 J0.192 F333.
X-39.411 Y-11.692 Z-3.099 I-0.407 J-0.192
X-38.597 Y-11.308 Z-3.148 I0.407 J0.192
X-39.411 Y-11.692 Z-3.197 I-0.407 J-0.192
X-38.597 Y-11.308 Z-3.247 I0.407 J0.192
X-39.411 Y-11.692 Z-3.296 I-0.407 J-0.192
X-38.597 Y-11.308 Z-3.346 I0.407 J0.192
X-39.411 Y-11.692 Z-3.395 I-0.407 J-0.192
X-38.597 Y-11.308 Z-3.444 I0.407 J0.192
X-39.411 Y-11.692 Z-3.494 I-0.407 J-0.192
X-39.304 Y-11.836 Z-3.5 I0.407 J0.192
X-38.705 Y-11.164 I0.3 J0.336 F1000.
X-39.304 Y-11.836 I-0.3 J-0.336
G1 X-39.262 Y-11.863
X-39.213 Y-11.876
X-39.163 Y-11.873
X-39.117 Y-11.855
X-39.078 Y-11.823
X-38.971 Y-11.704
X-38.938 Y-11.667 Z-3.492
X-38.909 Y-11.633 Z-3.469
X-38.885 Y-11.607 Z-3.434
X-38.87 Y-11.59 Z-3.389
X-38.865 Y-11.584 Z-3.34
G0 Z2.
X-38.915 Y-21.636
G1 Z1.5 F333.
Z0.66
X-38.909 Y-21.631 Z0.611 F1000.
X-38.893 Y-21.615 Z0.566
X-38.867 Y-21.59 Z0.531
X-38.835 Y-21.559 Z0.508
X-38.8 Y-21.525 Z0.5
X-38.684 Y-21.414
X-38.654 Y-21.374
X-38.638 Y-21.327
X-38.637 Y-21.277
X-38.651 Y-21.229
X-38.68 Y-21.188
G3 X-39.328 Y-21.812 Z0.451 I-0.324 J-0.312 F333.
X-38.68 Y-21.188 Z0.401 I0.324 J0.312
X-39.328 Y-21.812 Z0.352 I-0.324 J-0.312
X-38.68 Y-21.188 Z0.303 I0.324 J0.312
X-39.328 Y-21.812 Z0.253 I-0.324 J-0.312
X-38.68 Y-21.188 Z0.204 I0.324 J0.312
X-39.328 Y-21.812 Z0.154 I-0.324 J-0.312
X-38.68 Y-21.188 Z0.105 I0.324 J0.312
X-39.328 Y-21.812 Z0.056 I-0.324 J-0.312
X-38.68 Y-21.188 Z0.006 I0.324 J0.312
X-39.328 Y-21.812 Z-0.043 I-0.324 J-0.312
X-38.68 Y-21.188 Z-0.092 I0.324 J0.312
X-39.328 Y-21.812 Z-0.142 I-0.324 J-0.312
X-38.68 Y-21.188 Z-0.191 I0.324 J0.312
X-39.328 Y-21.812 Z-0.241 I-0.324 J-0.312
X-38.68 Y-21.188 Z-0.29 I0.324 J0.312
X-39.328 Y-21.812 Z-0.339 I-0.324 J-0.312
X-38.68 Y-21.188 Z-0.389 I0.324 J0.312
X-39.328 Y-21.812 Z-0.438 I-0.324 J-0.312
X-38.68 Y-21.188 Z-0.487 I0.324 J0.312
X-39.004 Y-21.05 Z-0.5 I-0.324 J-0.312
Y-21.95 I0. J-0.45 F1000.
Y-21.05 I0. J0.45
Y-21.95 Z-0.549 I0. J-0.45 F333.
Y-21.05 Z-0.599 I0. J0.45
Y-21.95 Z-0.648 I0. J-0.45
Y-21.05 Z-0.697 I0. J0.45
Y-21.95 Z-0.747 I0. J-0.45
Y-21.05 Z-0.796 I0. J0.45
Y-21.95 Z-0.846 I0. J-0.45
Y-21.05 Z-0.895 I0. J0.45
Y-21.95 Z-0.944 I0. J-0.45
Y-21.05 Z-0.994 I0. J0.45
X-39.18 Y-21.086 Z-1. I0. J-0.45
X-38.828 Y-21.914 I0.176 J-0.414 F1000.
X-39.18 Y-21.086 I-0.176 J0.414
X-38.828 Y-21.914 Z-1.049 I0.176 J-0.414 F333.
X-39.18 Y-21.086 Z-1.099 I-0.176 J0.414
X-38.828 Y-21.914 Z-1.148 I0.176 J-0.414
X-39.18 Y-21.086 Z-1.197 I-0.176 J0.414
X-38.828 Y-21.914 Z-1.247 I0.176 J-0.414
X-39.18 Y-21.086 Z-1.296 I-0.176 J0.414
X-38.828 Y-21.914 Z-1.346 I0.176 J-0.414
X-39.18 Y-21.086 Z-1.395 I-0.176 J0.414
X-38.828 Y-21.914 Z-1.444 I0.176 J-0.414
X-39.18 Y-21.086 Z-1.494 I-0.176 J0.414
X-39.328 Y-21.188 Z-1.5 I0.176 J-0.414
X-38.68 Y-21.812 I0.324 J-0.312 F1000.
X-39.328 Y-21.188 I-0.324 J0.312
X-38.68 Y-21.812 Z-1.549 I0.324 J-0.312 F333.
X-39.328 Y-21.188 Z-1.599 I-0.324 J0.312
X-38.68 Y-21.812 Z-1.648 I0.324 J-0.312
X-39.328 Y-21.188 Z-1.697 I-0.324 J0.312
X-38.68 Y-21.812 Z-1.747 I0.324 J-0.312
X-39.328 Y-21.188 Z-1.796 I-0.324 J0.312
X-38.68 Y-21.812 Z-1.846 I0.324 J-0.312
X-39.328 Y-21.188 Z-1.895 I-0.324 J0.312
X-38.68 Y-21.812 Z-1.944 I0.324 J-0.312
X-39.328 Y-21.188 Z-1.994 I-0.324 J0.312
X-39.425 Y-21.34 Z-2. I0.324 J-0.312
X-38.584 Y-21.66 I0.42 J-0.16 F1000.
X-39.425 Y-21.34 I-0.42 J0.16
X-38.584 Y-21.66 Z-2.049 I0.42 J-0.16 F333.
X-39.425 Y-21.34 Z-2.099 I-0.42 J0.16
X-38.584 Y-21.66 Z-2.148 I0.42 J-0.16
X-39.425 Y-21.34 Z-2.197 I-0.42 J0.16
X-38.584 Y-21.66 Z-2.247 I0.42 J-0.16
X-39.425 Y-21.34 Z-2.296 I-0.42 J0.16
X-38.584 Y-21.66 Z-2.346 I0.42 J-0.16
X-39.425 Y-21.34 Z-2.395 I-0.42 J0.16
X-38.584 Y-21.66 Z-2.444 I0.42 J-0.16
X-39.425 Y-21.34 Z-2.494 I-0.42 J0.16
X-39.454 Y-21.517 Z-2.5 I0.42 J-0.16
X-38.555 Y-21.483 I0.45 J0.017 F1000.
X-39.454 Y-21.517 I-0.45 J-0.017
X-38.555 Y-21.483 Z-2.549 I0.45 J0.017 F333.
X-39.454 Y-21.517 Z-2.599 I-0.45 J-0.017
X-38.555 Y-21.483 Z-2.648 I0.45 J0.017
X-39.454 Y-21.517 Z-2.697 I-0.45 J-0.017
X-38.555 Y-21.483 Z-2.747 I0.45 J0.017
X-39.454 Y-21.517 Z-2.796 I-0.45 J-0.017
X-38.555 Y-21.483 Z-2.846 I0.45 J0.017
X-39.454 Y-21.517 Z-2.895 I-0.45 J-0.017
X-38.555 Y-21.483 Z-2.944 I0.45 J0.017
X-39.454 Y-21.517 Z-2.994 I-0.45 J-0.017
X-39.411 Y-21.692 Z-3. I0.45 J0.017
X-38.597 Y-21.308 I0.407 J0.192 F1000.
X-39.411 Y-21.692 I-0.407 J-0.192
X-38.597 Y-21.308 Z-3.049 I0.407 J0.192 F333.
X-39.411 Y-21.692 Z-3.099 I-0.407 J-0.192
X-38.597 Y-21.308 Z-3.148 I0.407 J0.192
X-39.411 Y-21.692 Z-3.197 I-0.407 J-0.192
X-38.597 Y-21.308 Z-3.247 I0.407 J0.192
X-39.411 Y-21.692 Z-3.296 I-0.407 J-0.192
X-38.597 Y-21.308 Z-3.346 I0.407 J0.192
X-39.411 Y-21.692 Z-3.395 I-0.407 J-0.192
X-38.597 Y-21.308 Z-3.444 I0.407 J0.192
X-39.411 Y-21.692 Z-3.494 I-0.407 J-0.192
X-39.304 Y-21.836 Z-3.5 I0.407 J0.192
X-38.705 Y-21.164 I0.3 J0.336 F1000.
X-39.304 Y-21.836 I-0.3 J-0.336
G1 X-39.262 Y-21.863
X-39.213 Y-21.876
X-39.163 Y-21.873
X-39.117 Y-21.855
X-39.078 Y-21.823
X-38.971 Y-21.704
X-38.938 Y-21.667 Z-3.492
X-38.909 Y-21.633 Z-3.469
X-38.885 Y-21.607 Z-3.434
X-38.87 Y-21.59 Z-3.389
X-38.865 Y-21.584 Z-3.34
G0 Z2.
X-25.24 Y-43.409
G1 Z1.5 F333.
Z0.66
X-25.246 Y-43.403 Z0.611 F1000.
X-25.261 Y-43.387 Z0.566
X-25.286 Y-43.361 Z0.531
X-25.317 Y-43.329 Z0.508
X-25.351 Y-43.293 Z0.5
X-25.462 Y-43.178
X-25.502 Y-43.148
X-25.549 Y-43.132
X-25.599 Y-43.131
X-25.647 Y-43.145
X-25.688 Y-43.174
G3 X-25.064 Y-43.822 Z0.451 I0.312 J-0.324 F333.
X-25.688 Y-43.174 Z0.401 I-0.312 J0.324
X-25.064 Y-43.822 Z0.352 I0.312 J-0.324
X-25.688 Y-43.174 Z0.303 I-0.312 J0.324
X-25.064 Y-43.822 Z0.253 I0.312 J-0.324
X-25.688 Y-43.174 Z0.204 I-0.312 J0.324
X-25.064 Y-43.822 Z0.154 I0.312 J-0.324
X-25.688 Y-43.174 Z0.105 I-0.312 J0.324
X-25.064 Y-43.822 Z0.056 I0.312 J-0.324
X-25.688 Y-43.174 Z0.006 I-0.312 J0.324
X-25.064 Y-43.822 Z-0.043 I0.312 J-0.324
X-25.688 Y-43.174 Z-0.092 I-0.312 J0.324
X-25.064 Y-43.822 Z-0.142 I0.312 J-0.324
X-25.688 Y-43.174 Z-0.191 I-0.312 J0.324
X-25.064 Y-43.822 Z-0.241 I0.312 J-0.324
X-25.688 Y-43.174 Z-0.29 I-0.312 J0.324
X-25.064 Y-43.822 Z-0.339 I0.312 J-0.324
X-25.688 Y-43.174 Z-0.389 I-0.312 J0.324
X-25.064 Y-43.822 Z-0.438 I0.312 J-0.324
X-25.688 Y-43.174 Z-0.487 I-0.312 J0.324
X-25.826 Y-43.498 Z-0.5 I0.312 J-0.324
X-24.926 I0.45 J0. F1000.
X-25.826 I-0.45 J0.
X-24.926 Z-0.549 I0.45 J0. F333.
X-25.826 Z-0.599 I-0.45 J0.
X-24.926 Z-0.648 I0.45 J0.
X-25.826 Z-0.697 I-0.45 J0.
X-24.926 Z-0.747 I0.45 J0.
X-25.826 Z-0.796 I-0.45 J0.
X-24.926 Z-0.846 I0.45 J0.
X-25.826 Z-0.895 I-0.45 J0.
X-24.926 Z-0.944 I0.45 J0.
X-25.826 Z-0.994 I-0.45 J0.
X-25.79 Y-43.674 Z-1. I0.45 J0.
X-24.962 Y-43.322 I0.414 J0.176 F1000.
X-25.79 Y-43.674 I-0.414 J-0.176
X-24.962 Y-43.322 Z-1.049 I0.414 J0.176 F333.
X-25.79 Y-43.674 Z-1.099 I-0.414 J-0.176
X-24.962 Y-43.322 Z-1.148 I0.414 J0.176
X-25.79 Y-43.674 Z-1.197 I-0.414 J-0.176
X-24.962 Y-43.322 Z-1.247 I0.414 J0.176
X-25.79 Y-43.674 Z-1.296 I-0.414 J-0.176
X-24.962 Y-43.322 Z-1.346 I0.414 J0.176
X-25.79 Y-43.674 Z-1.395 I-0.414 J-0.176
X-24.962 Y-43.322 Z-1.444 I0.414 J0.176
X-25.79 Y-43.674 Z-1.494 I-0.414 J-0.176
X-25.688 Y-43.822 Z-1.5 I0.414 J0.176
X-25.064 Y-43.174 I0.312 J0.324 F1000.
X-25.688 Y-43.822 I-0.312 J-0.324
X-25.064 Y-43.174 Z-1.549 I0.312 J0.324 F333.
X-25.688 Y-43.822 Z-1.599 I-0.312 J-0.324
X-25.064 Y-43.174 Z-1.648 I0.312 J0.324
X-25.688 Y-43.822 Z-1.697 I-0.312 J-0.324
X-25.064 Y-43.174 Z-1.747 I0.312 J0.324
X-25.688 Y-43.822 Z-1.796 I-0.312 J-0.324
X-25.064 Y-43.174 Z-1.846 I0.312 J0.324
X-25.688 Y-43.822 Z-1.895 I-0.312 J-0.324
X-25.064 Y-43.174 Z-1.944 I0.312 J0.324
X-25.688 Y-43.822 Z-1.994 I-0.312 J-0.324
X-25.537 Y-43.919 Z-2. I0.312 J0.324
X-25.216 Y-43.078 I0.16 J0.42 F1000.
X-25.537 Y-43.919 I-0.16 J-0.42
X-25.216 Y-43.078 Z-2.049 I0.16 J0.42 F333.
X-25.537 Y-43.919 Z-2.099 I-0.16 J-0.42
X-25.216 Y-43.078 Z-2.148 I0.16 J0.42
X-25.537 Y-43.919 Z-2.197 I-0.16 J-0.42
X-25.216 Y-43.078 Z-2.247 I0.16 J0.42
X-25.537 Y-43.919 Z-2.296 I-0.16 J-0.42
X-25.216 Y-43.078 Z-2.346 I0.16 J0.42
X-25.537 Y-43.919 Z-2.395 I-0.16 J-0.42
X-25.216 Y-43.078 Z-2.444 I0.16 J0.42
X-25.537 Y-43.919 Z-2.494 I-0.16 J-0.42
X-25.359 Y-43.948 Z-2.5 I0.16 J0.42
X-25.393 Y-43.048 I-0.017 J0.45 F1000.
X-25.359 Y-43.948 I0.017 J-0.45
X-25.393 Y-43.048 Z-2.549 I-0.017 J0.45 F333.
X-25.359 Y-43.948 Z-2.599 I0.017 J-0.45
X-25.393 Y-43.048 Z-2.648 I-0.017 J0.45
X-25.359 Y-43.948 Z-2.697 I0.017 J-0.45
X-25.393 Y-43.048 Z-2.747 I-0.017 J0.45
X-25.359 Y-43.948 Z-2.796 I0.017 J-0.45
X-25.393 Y-43.048 Z-2.846 I-0.017 J0.45
X-25.359 Y-43.948 Z-2.895 I0.017 J-0.45
X-25.393 Y-43.048 Z-2.944 I-0.017 J0.45
X-25.359 Y-43.948 Z-2.994 I0.017 J-0.45
X-25.185 Y-43.905 Z-3. I-0.017 J0.45
X-25.568 Y-43.091 I-0.192 J0.407 F1000.
X-25.185 Y-43.905 I0.192 J-0.407
X-25.568 Y-43.091 Z-3.049 I-0.192 J0.407 F333.
X-25.185 Y-43.905 Z-3.099 I0.192 J-0.407
X-25.568 Y-43.091 Z-3.148 I-0.192 J0.407
X-25.185 Y-43.905 Z-3.197 I0.192 J-0.407
X-25.568 Y-43.091 Z-3.247 I-0.192 J0.407
X-25.185 Y-43.905 Z-3.296 I0.192 J-0.407
X-25.568 Y-43.091 Z-3.346 I-0.192 J0.407
X-25.185 Y-43.905 Z-3.395 I0.192 J-0.407
X-25.568 Y-43.091 Z-3.444 I-0.192 J0.407
X-25.185 Y-43.905 Z-3.494 I0.192 J-0.407
X-25.041 Y-43.798 Z-3.5 I-0.192 J0.407
X-25.712 Y-43.198 I-0.336 J0.3 F1000.
X-25.041 Y-43.798 I0.336 J-0.3
G1 X-25.013 Y-43.756
X-25.001 Y-43.707
X-25.004 Y-43.657
X-25.022 Y-43.611
X-25.053 Y-43.572
X-25.173 Y-43.465
X-25.21 Y-43.432 Z-3.492
X-25.243 Y-43.403 Z-3.469
X-25.269 Y-43.379 Z-3.434
X-25.286 Y-43.364 Z-3.389
X-25.292 Y-43.359 Z-3.34
G0 Z2.
X-42.136 Y41.911
G1 Z1.5 F333.
Z0.66
X-42.131 Y41.905 Z0.611 F1000.
X-42.115 Y41.889 Z0.566
X-42.09 Y41.863 Z0.531
X-42.059 Y41.831 Z0.508
X-42.025 Y41.795 Z0.5
X-41.914 Y41.68
X-41.874 Y41.65
X-41.827 Y41.634
X-41.777 Y41.633
X-41.729 Y41.647
X-41.688 Y41.676
G3 X-42.312 Y42.324 Z0.451 I-0.312 J0.324 F333.
X-41.688 Y41.676 Z0.401 I0.312 J-0.324
X-42.312 Y42.324 Z0.352 I-0.312 J0.324
X-41.688 Y41.676 Z0.303 I0.312 J-0.324
X-42.312 Y42.324 Z0.253 I-0.312 J0.324
X-41.688 Y41.676 Z0.204 I0.312 J-0.324
X-42.312 Y42.324 Z0.154 I-0.312 J0.324
X-41.688 Y41.676 Z0.105 I0.312 J-0.324
X-42.312 Y42.324 Z0.056 I-0.312 J0.324
X-41.688 Y41.676 Z0.006 I0.312 J-0.324
X-42.312 Y42.324 Z-0.043 I-0.312 J0.324
X-41.688 Y41.676 Z-0.092 I0.312 J-0.324
X-42.312 Y42.324 Z-0.142 I-0.312 J0.324
X-41.688 Y41.676 Z-0.191 I0.312 J-0.324
X-42.312 Y42.324 Z-0.241 I-0.312 J0.324
X-41.688 Y41.676 Z-0.29 I0.312 J-0.324
X-42.312 Y42.324 Z-0.339 I-0.312 J0.324
X-41.688 Y41.676 Z-0.389 I0.312 J-0.324
X-42.312 Y42.324 Z-0.438 I-0.312 J0.324
X-41.688 Y41.676 Z-0.487 I0.312 J-0.324
X-41.55 Y42. Z-0.5 I-0.312 J0.324
X-42.45 I-0.45 J0. F1000.
X-41.55 I0.45 J0.
X-42.45 Z-0.549 I-0.45 J0. F333.
X-41.55 Z-0.599 I0.45 J0.
X-42.45 Z-0.648 I-0.45 J0.
X-41.55 Z-0.697 I0.45 J0.
X-42.45 Z-0.747 I-0.45 J0.
X-41.55 Z-0.796 I0.45 J0.
X-42.45 Z-0.846 I-0.45 J0.
X-41.55 Z-0.895 I0.45 J0.
X-42.45 Z-0.944 I-0.45 J0.
X-41.55 Z-0.994 I0.45 J0.
X-41.586 Y42.176 Z-1. I-0.45 J0.
X-42.414 Y41.824 I-0.414 J-0.176 F1000.
X-41.586 Y42.176 I0.414 J0.176
X-42.414 Y41.824 Z-1.049 I-0.414 J-0.176 F333.
X-41.586 Y42.176 Z-1.099 I0.414 J0.176
X-42.414 Y41.824 Z-1.148 I-0.414 J-0.176
X-41.586 Y42.176 Z-1.197 I0.414 J0.176
X-42.414 Y41.824 Z-1.247 I-0.414 J-0.176
X-41.586 Y42.176 Z-1.296 I0.414 J0.176
X-42.414 Y41.824 Z-1.346 I-0.414 J-0.176
X-41.586 Y42.176 Z-1.395 I0.414 J0.176
X-42.414 Y41.824 Z-1.444 I-0.414 J-0.176
X-41.586 Y42.176 Z-1.494 I0.414 J0.176
X-41.688 Y42.324 Z-1.5 I-0.414 J-0.176
X-42.312 Y41.676 I-0.312 J-0.324 F1000.
X-41.688 Y42.324 I0.312 J0.324
X-42.312 Y41.676 Z-1.549 I-0.312 J-0.324 F333.
X-41.688 Y42.324 Z-1.599 I0.312 J0.324
X-42.312 Y41.676 Z-1.648 I-0.312 J-0.324
X-41.688 Y42.324 Z-1.697 I0.312 J0.324
X-42.312 Y41.676 Z-1.747 I-0.312 J-0.324
X-41.688 Y42.324 Z-1.796 I0.312 J0.324
X-42.312 Y41.676 Z-1.846 I-0.312 J-0.324
X-41.688 Y42.324 Z-1.895 I0.312 J0.324
X-42.312 Y41.676 Z-1.944 I-0.312 J-0.324
X-41.688 Y42.324 Z-1.994 I0.312 J0.324
X-41.84 Y42.42 Z-2. I-0.312 J-0.324
X-42.16 Y41.58 I-0.16 J-0.42 F1000.
X-41.84 Y42.42 I0.16 J0.42
X-42.16 Y41.58 Z-2.049 I-0.16 J-0.42 F333.
X-41.84 Y42.42 Z-2.099 I0.16 J0.42
X-42.16 Y41.58 Z-2.148 I-0.16 J-0.42
X-41.84 Y42.42 Z-2.197 I0.16 J0.42
X-42.16 Y41.58 Z-2.247 I-0.16 J-0.42
X-41.84 Y42.42 Z-2.296 I0.16 J0.42
X-42.16 Y41.58 Z-2.346 I-0.16 J-0.42
X-41.84 Y42.42 Z-2.395 I0.16 J0.42
X-42.16 Y41.58 Z-2.444 I-0.16 J-0.42
X-41.84 Y42.42 Z-2.494 I0.16 J0.42
X-42.017 Y42.45 Z-2.5 I-0.16 J-0.42
X-41.983 Y41.55 I0.017 J-0.45 F1000.
X-42.017 Y42.45 I-0.017 J0.45
X-41.983 Y41.55 Z-2.549 I0.017 J-0.45 F333.
X-42.017 Y42.45 Z-2.599 I-0.017 J0.45
X-41.983 Y41.55 Z-2.648 I0.017 J-0.45
X-42.017 Y42.45 Z-2.697 I-0.017 J0.45
X-41.983 Y41.55 Z-2.747 I0.017 J-0.45
X-42.017 Y42.45 Z-2.796 I-0.017 J0.45
X-41.983 Y41.55 Z-2.846 I0.017 J-0.45
X-42.017 Y42.45 Z-2.895 I-0.017 J0.45
X-41.983 Y41.55 Z-2.944 I0.017 J-0.45
X-42.017 Y42.45 Z-2.994 I-0.017 J0.45
X-42.192 Y42.407 Z-3. I0.017 J-0.45
X-41.808 Y41.593 I0.192 J-0.407 F1000.
X-42.192 Y42.407 I-0.192 J0.407
X-41.808 Y41.593 Z-3.049 I0.192 J-0.407 F333.
X-42.192 Y42.407 Z-3.099 I-0.192 J0.407
X-41.808 Y41.593 Z-3.148 I0.192 J-0.407
X-42.192 Y42.407 Z-3.197 I-0.192 J0.407
X-41.808 Y41.593 Z-3.247 I0.192 J-0.407
X-42.192 Y42.407 Z-3.296 I-0.192 J0.407
X-41.808 Y41.593 Z-3.346 I0.192 J-0.407
X-42.192 Y42.407 Z-3.395 I-0.192 J0.407
X-41.808 Y41.593 Z-3.444 I0.192 J-0.407
X-42.192 Y42.407 Z-3.494 I-0.192 J0.407
X-42.336 Y42.3 Z-3.5 I0.192 J-0.407
X-41.664 Y41.7 I0.336 J-0.3 F1000.
X-42.336 Y42.3 I-0.336 J0.3
G1 X-42.363 Y42.258
X-42.376 Y42.209
X-42.373 Y42.159
X-42.355 Y42.113
X-42.323 Y42.074
X-42.204 Y41.967
X-42.167 Y41.934 Z-3.492
X-42.133 Y41.905 Z-3.469
X-42.107 Y41.881 Z-3.434
X-42.09 Y41.866 Z-3.389
X-42.084 Y41.861 Z-3.34
G0 Z7.

M9
G28 G91 Z0.
G90
G28 G91 X0. Y0.
G90
M30
