(1001)
(PANELCONTROL)
(T6  D=1.6 CR=0. - ZMIN=-0.5 - FRESA CON PUNTA PLANA)
G90 G94 G91.1 G40 G49 G17
G21
G28 G91 Z0.
G90

(2D CONTORNEADO2)
M5
T6 M6
S5000 M3
G54
M8
G0 X3.695 Y-46.955
G43 Z10. H6
Z5.
G1 Z4.25 F333.
Z3.66
X3.694 Y-46.951 Z3.625
X3.691 Y-46.94 Z3.592
X3.685 Y-46.923 Z3.562
X3.674 Y-46.901 Z3.537
X3.658 Y-46.877 Z3.518
X3.636 Y-46.853 Z3.505
X3.608 Y-46.832 Z3.5
G3 X3.392 Y-47.168 Z3.478 I-0.108 J-0.168
X3.608 Y-46.832 Z3.456 I0.108 J0.168
X3.392 Y-47.168 Z3.434 I-0.108 J-0.168
X3.608 Y-46.832 Z3.412 I0.108 J0.168
X3.392 Y-47.168 Z3.39 I-0.108 J-0.168
X3.608 Y-46.832 Z3.368 I0.108 J0.168
X3.392 Y-47.168 Z3.346 I-0.108 J-0.168
X3.608 Y-46.832 Z3.324 I0.108 J0.168
X3.392 Y-47.168 Z3.303 I-0.108 J-0.168
X3.608 Y-46.832 Z3.281 I0.108 J0.168
X3.392 Y-47.168 Z3.259 I-0.108 J-0.168
X3.608 Y-46.832 Z3.237 I0.108 J0.168
X3.392 Y-47.168 Z3.215 I-0.108 J-0.168
X3.608 Y-46.832 Z3.193 I0.108 J0.168
X3.392 Y-47.168 Z3.171 I-0.108 J-0.168
X3.608 Y-46.832 Z3.149 I0.108 J0.168
X3.392 Y-47.168 Z3.127 I-0.108 J-0.168
X3.608 Y-46.832 Z3.105 I0.108 J0.168
X3.392 Y-47.168 Z3.083 I-0.108 J-0.168
X3.608 Y-46.832 Z3.061 I0.108 J0.168
X3.392 Y-47.168 Z3.039 I-0.108 J-0.168
X3.608 Y-46.832 Z3.017 I0.108 J0.168
X3.392 Y-47.168 Z2.995 I-0.108 J-0.168
X3.608 Y-46.832 Z2.973 I0.108 J0.168
X3.392 Y-47.168 Z2.951 I-0.108 J-0.168
X3.608 Y-46.832 Z2.93 I0.108 J0.168
X3.392 Y-47.168 Z2.908 I-0.108 J-0.168
X3.608 Y-46.832 Z2.886 I0.108 J0.168
X3.392 Y-47.168 Z2.864 I-0.108 J-0.168
X3.608 Y-46.832 Z2.842 I0.108 J0.168
X3.392 Y-47.168 Z2.82 I-0.108 J-0.168
X3.608 Y-46.832 Z2.798 I0.108 J0.168
X3.392 Y-47.168 Z2.776 I-0.108 J-0.168
X3.608 Y-46.832 Z2.754 I0.108 J0.168
X3.5 Y-46.8 Z2.75 I-0.108 J-0.168
Y-47.2 I0. J-0.2 F1000.
Y-46.8 I0. J0.2
Y-47.2 Z2.728 I0. J-0.2 F333.
Y-46.8 Z2.706 I0. J0.2
Y-47.2 Z2.684 I0. J-0.2
Y-46.8 Z2.662 I0. J0.2
Y-47.2 Z2.64 I0. J-0.2
Y-46.8 Z2.618 I0. J0.2
Y-47.2 Z2.596 I0. J-0.2
Y-46.8 Z2.574 I0. J0.2
Y-47.2 Z2.553 I0. J-0.2
Y-46.8 Z2.531 I0. J0.2
Y-47.2 Z2.509 I0. J-0.2
X3.689 Y-47.065 Z2.5 I0. J0.2
X3.311 Y-46.935 I-0.189 J0.065 F1000.
X3.689 Y-47.065 I0.189 J-0.065
X3.311 Y-46.935 Z2.478 I-0.189 J0.065 F333.
X3.689 Y-47.065 Z2.456 I0.189 J-0.065
X3.311 Y-46.935 Z2.434 I-0.189 J0.065
X3.689 Y-47.065 Z2.412 I0.189 J-0.065
X3.311 Y-46.935 Z2.39 I-0.189 J0.065
X3.689 Y-47.065 Z2.368 I0.189 J-0.065
X3.311 Y-46.935 Z2.346 I-0.189 J0.065
X3.689 Y-47.065 Z2.324 I0.189 J-0.065
X3.311 Y-46.935 Z2.303 I-0.189 J0.065
X3.689 Y-47.065 Z2.281 I0.189 J-0.065
X3.311 Y-46.935 Z2.259 I-0.189 J0.065
X3.376 Y-47.157 Z2.25 I0.189 J-0.065
X3.624 Y-46.843 I0.124 J0.157 F1000.
X3.376 Y-47.157 I-0.124 J-0.157
X3.624 Y-46.843 Z2.228 I0.124 J0.157 F333.
X3.376 Y-47.157 Z2.206 I-0.124 J-0.157
X3.624 Y-46.843 Z2.184 I0.124 J0.157
X3.376 Y-47.157 Z2.162 I-0.124 J-0.157
X3.624 Y-46.843 Z2.14 I0.124 J0.157
X3.376 Y-47.157 Z2.118 I-0.124 J-0.157
X3.624 Y-46.843 Z2.096 I0.124 J0.157
X3.376 Y-47.157 Z2.074 I-0.124 J-0.157
X3.624 Y-46.843 Z2.053 I0.124 J0.157
X3.376 Y-47.157 Z2.031 I-0.124 J-0.157
X3.624 Y-46.843 Z2.009 I0.124 J0.157
X3.392 Y-46.832 Z2. I-0.124 J-0.157
X3.608 Y-47.168 I0.108 J-0.168 F1000.
X3.392 Y-46.832 I-0.108 J0.168
X3.608 Y-47.168 Z1.978 I0.108 J-0.168 F333.
X3.392 Y-46.832 Z1.956 I-0.108 J0.168
X3.608 Y-47.168 Z1.934 I0.108 J-0.168
X3.392 Y-46.832 Z1.912 I-0.108 J0.168
X3.608 Y-47.168 Z1.89 I0.108 J-0.168
X3.392 Y-46.832 Z1.868 I-0.108 J0.168
X3.608 Y-47.168 Z1.846 I0.108 J-0.168
X3.392 Y-46.832 Z1.824 I-0.108 J0.168
X3.608 Y-47.168 Z1.803 I0.108 J-0.168
X3.392 Y-46.832 Z1.781 I-0.108 J0.168
X3.608 Y-47.168 Z1.759 I0.108 J-0.168
X3.694 Y-46.953 Z1.75 I-0.108 J0.168
X3.306 Y-47.047 I-0.194 J-0.047 F1000.
X3.694 Y-46.953 I0.194 J0.047
X3.306 Y-47.047 Z1.728 I-0.194 J-0.047 F333.
X3.694 Y-46.953 Z1.706 I0.194 J0.047
X3.306 Y-47.047 Z1.684 I-0.194 J-0.047
X3.694 Y-46.953 Z1.662 I0.194 J0.047
X3.306 Y-47.047 Z1.64 I-0.194 J-0.047
X3.694 Y-46.953 Z1.618 I0.194 J0.047
X3.306 Y-47.047 Z1.596 I-0.194 J-0.047
X3.694 Y-46.953 Z1.574 I0.194 J0.047
X3.306 Y-47.047 Z1.553 I-0.194 J-0.047
X3.694 Y-46.953 Z1.531 I0.194 J0.047
X3.306 Y-47.047 Z1.509 I-0.194 J-0.047
X3.481 Y-47.199 Z1.5 I0.194 J0.047
X3.519 Y-46.801 I0.019 J0.199 F1000.
X3.481 Y-47.199 I-0.019 J-0.199
X3.519 Y-46.801 Z1.478 I0.019 J0.199 F333.
X3.481 Y-47.199 Z1.456 I-0.019 J-0.199
X3.519 Y-46.801 Z1.434 I0.019 J0.199
X3.481 Y-47.199 Z1.412 I-0.019 J-0.199
X3.519 Y-46.801 Z1.39 I0.019 J0.199
X3.481 Y-47.199 Z1.368 I-0.019 J-0.199
X3.519 Y-46.801 Z1.346 I0.019 J0.199
X3.481 Y-47.199 Z1.324 I-0.019 J-0.199
X3.519 Y-46.801 Z1.303 I0.019 J0.199
X3.481 Y-47.199 Z1.281 I-0.019 J-0.199
X3.519 Y-46.801 Z1.259 I0.019 J0.199
X3.318 Y-46.917 Z1.25 I-0.019 J-0.199
X3.682 Y-47.083 I0.182 J-0.083 F1000.
X3.318 Y-46.917 I-0.182 J0.083
X3.682 Y-47.083 Z1.228 I0.182 J-0.083 F333.
X3.318 Y-46.917 Z1.206 I-0.182 J0.083
X3.682 Y-47.083 Z1.184 I0.182 J-0.083
X3.318 Y-46.917 Z1.162 I-0.182 J0.083
X3.682 Y-47.083 Z1.14 I0.182 J-0.083
X3.318 Y-46.917 Z1.118 I-0.182 J0.083
X3.682 Y-47.083 Z1.096 I0.182 J-0.083
X3.318 Y-46.917 Z1.074 I-0.182 J0.083
X3.682 Y-47.083 Z1.053 I0.182 J-0.083
X3.318 Y-46.917 Z1.031 I-0.182 J0.083
X3.682 Y-47.083 Z1.009 I0.182 J-0.083
X3.638 Y-46.855 Z1. I-0.182 J0.083
X3.362 Y-47.145 I-0.138 J-0.145 F1000.
X3.638 Y-46.855 I0.138 J0.145
X3.362 Y-47.145 Z0.978 I-0.138 J-0.145 F333.
X3.638 Y-46.855 Z0.956 I0.138 J0.145
X3.362 Y-47.145 Z0.934 I-0.138 J-0.145
X3.638 Y-46.855 Z0.912 I0.138 J0.145
X3.362 Y-47.145 Z0.89 I-0.138 J-0.145
X3.638 Y-46.855 Z0.868 I0.138 J0.145
X3.362 Y-47.145 Z0.846 I-0.138 J-0.145
X3.638 Y-46.855 Z0.824 I0.138 J0.145
X3.362 Y-47.145 Z0.803 I-0.138 J-0.145
X3.638 Y-46.855 Z0.781 I0.138 J0.145
X3.362 Y-47.145 Z0.759 I-0.138 J-0.145
X3.592 Y-47.178 Z0.75 I0.138 J0.145
X3.408 Y-46.822 I-0.092 J0.178 F1000.
X3.592 Y-47.178 I0.092 J-0.178
X3.408 Y-46.822 Z0.728 I-0.092 J0.178 F333.
X3.592 Y-47.178 Z0.706 I0.092 J-0.178
X3.408 Y-46.822 Z0.684 I-0.092 J0.178
X3.592 Y-47.178 Z0.662 I0.092 J-0.178
X3.408 Y-46.822 Z0.64 I-0.092 J0.178
X3.592 Y-47.178 Z0.618 I0.092 J-0.178
X3.408 Y-46.822 Z0.596 I-0.092 J0.178
X3.592 Y-47.178 Z0.574 I0.092 J-0.178
X3.408 Y-46.822 Z0.553 I-0.092 J0.178
X3.592 Y-47.178 Z0.531 I0.092 J-0.178
X3.408 Y-46.822 Z0.509 I-0.092 J0.178
X3.302 Y-47.029 Z0.5 I0.092 J-0.178
X3.698 Y-46.971 I0.198 J0.029 F1000.
X3.302 Y-47.029 I-0.198 J-0.029
X3.698 Y-46.971 Z0.478 I0.198 J0.029 F333.
X3.302 Y-47.029 Z0.456 I-0.198 J-0.029
X3.698 Y-46.971 Z0.434 I0.198 J0.029
X3.302 Y-47.029 Z0.412 I-0.198 J-0.029
X3.698 Y-46.971 Z0.39 I0.198 J0.029
X3.302 Y-47.029 Z0.368 I-0.198 J-0.029
X3.698 Y-46.971 Z0.346 I0.198 J0.029
X3.302 Y-47.029 Z0.324 I-0.198 J-0.029
X3.698 Y-46.971 Z0.303 I0.198 J0.029
X3.302 Y-47.029 Z0.281 I-0.198 J-0.029
X3.698 Y-46.971 Z0.259 I0.198 J0.029
X3.537 Y-46.804 Z0.25 I-0.198 J-0.029
X3.463 Y-47.196 I-0.037 J-0.196 F1000.
X3.537 Y-46.804 I0.037 J0.196
X3.463 Y-47.196 Z0.228 I-0.037 J-0.196 F333.
X3.537 Y-46.804 Z0.206 I0.037 J0.196
X3.463 Y-47.196 Z0.184 I-0.037 J-0.196
X3.537 Y-46.804 Z0.162 I0.037 J0.196
X3.463 Y-47.196 Z0.14 I-0.037 J-0.196
X3.537 Y-46.804 Z0.118 I0.037 J0.196
X3.463 Y-47.196 Z0.096 I-0.037 J-0.196
X3.537 Y-46.804 Z0.074 I0.037 J0.196
X3.463 Y-47.196 Z0.053 I-0.037 J-0.196
X3.537 Y-46.804 Z0.031 I0.037 J0.196
X3.463 Y-47.196 Z0.009 I-0.037 J-0.196
X3.673 Y-47.1 Z0. I0.037 J0.196
X3.327 Y-46.9 I-0.173 J0.1 F1000.
X3.673 Y-47.1 I0.173 J-0.1
X3.327 Y-46.9 Z-0.022 I-0.173 J0.1 F333.
X3.673 Y-47.1 Z-0.044 I0.173 J-0.1
X3.327 Y-46.9 Z-0.066 I-0.173 J0.1
X3.673 Y-47.1 Z-0.088 I0.173 J-0.1
X3.327 Y-46.9 Z-0.11 I-0.173 J0.1
X3.673 Y-47.1 Z-0.132 I0.173 J-0.1
X3.327 Y-46.9 Z-0.154 I-0.173 J0.1
X3.673 Y-47.1 Z-0.176 I0.173 J-0.1
X3.327 Y-46.9 Z-0.197 I-0.173 J0.1
X3.673 Y-47.1 Z-0.219 I0.173 J-0.1
X3.327 Y-46.9 Z-0.241 I-0.173 J0.1
X3.349 Y-47.131 Z-0.25 I0.173 J-0.1
X3.651 Y-46.869 I0.151 J0.131 F1000.
X3.349 Y-47.131 I-0.151 J-0.131
X3.651 Y-46.869 Z-0.272 I0.151 J0.131 F333.
X3.349 Y-47.131 Z-0.294 I-0.151 J-0.131
X3.651 Y-46.869 Z-0.316 I0.151 J0.131
X3.349 Y-47.131 Z-0.338 I-0.151 J-0.131
X3.651 Y-46.869 Z-0.36 I0.151 J0.131
X3.349 Y-47.131 Z-0.382 I-0.151 J-0.131
X3.651 Y-46.869 Z-0.404 I0.151 J0.131
X3.349 Y-47.131 Z-0.426 I-0.151 J-0.131
X3.651 Y-46.869 Z-0.447 I0.151 J0.131
X3.349 Y-47.131 Z-0.469 I-0.151 J-0.131
X3.651 Y-46.869 Z-0.491 I0.151 J0.131
X3.425 Y-46.815 Z-0.5 I-0.151 J-0.131
X3.575 Y-47.185 I0.075 J-0.185 F1000.
X3.425 Y-46.815 I-0.075 J0.185
G1 X3.398 Y-46.829 Z-0.497
X3.374 Y-46.848 Z-0.488
X3.356 Y-46.868 Z-0.473
X3.343 Y-46.889 Z-0.453
X3.335 Y-46.907 Z-0.429
X3.331 Y-46.921 Z-0.401
X3.328 Y-46.93 Z-0.371
Y-46.933 Z-0.34
G0 Z5.
X16.971 Y-48.779
G1 Z4.25 F333.
Z3.66
X16.966 Y-48.774 Z3.611 F1000.
X16.951 Y-48.757 Z3.566
X16.927 Y-48.731 Z3.531
X16.897 Y-48.697 Z3.508
X16.864 Y-48.661 Z3.5
X16.757 Y-48.542
X16.718 Y-48.51
X16.671 Y-48.493
X16.621 Y-48.49
X16.573 Y-48.503
X16.531 Y-48.53
G3 X17.469 Y-49.57 Z3.423 I0.469 J-0.52 F333.
X16.531 Y-48.53 Z3.346 I-0.469 J0.52
X17.469 Y-49.57 Z3.27 I0.469 J-0.52
X16.531 Y-48.53 Z3.193 I-0.469 J0.52
X17.469 Y-49.57 Z3.116 I0.469 J-0.52
X16.531 Y-48.53 Z3.039 I-0.469 J0.52
X17.469 Y-49.57 Z2.962 I0.469 J-0.52
X16.531 Y-48.53 Z2.886 I-0.469 J0.52
X17.469 Y-49.57 Z2.809 I0.469 J-0.52
X17. Y-48.35 Z2.75 I-0.469 J0.52
Y-49.75 I0. J-0.7 F1000.
Y-48.35 I0. J0.7
Y-49.75 Z2.673 I0. J-0.7 F333.
Y-48.35 Z2.596 I0. J0.7
Y-49.75 Z2.52 I0. J-0.7
X17.503 Y-49.536 Z2.5 I0. J0.7
X16.497 Y-48.564 I-0.503 J0.486 F1000.
X17.503 Y-49.536 I0.503 J-0.486
X16.497 Y-48.564 Z2.423 I-0.503 J0.486 F333.
X17.503 Y-49.536 Z2.346 I0.503 J-0.486
X16.497 Y-48.564 Z2.27 I-0.503 J0.486
X16.3 Y-49.074 Z2.25 I0.503 J-0.486
X17.7 Y-49.026 I0.7 J0.024 F1000.
X16.3 Y-49.074 I-0.7 J-0.024
X17.7 Y-49.026 Z2.173 I0.7 J0.024 F333.
X16.3 Y-49.074 Z2.096 I-0.7 J-0.024
X17.7 Y-49.026 Z2.02 I0.7 J0.024
X17.469 Y-48.53 Z2. I-0.7 J-0.024
X16.531 Y-49.57 I-0.469 J-0.52 F1000.
X17.469 Y-48.53 I0.469 J0.52
X16.531 Y-49.57 Z1.923 I-0.469 J-0.52 F333.
X17.469 Y-48.53 Z1.846 I0.469 J0.52
X16.531 Y-49.57 Z1.77 I-0.469 J-0.52
X17.048 Y-49.748 Z1.75 I0.469 J0.52
X16.952 Y-48.352 I-0.048 J0.698 F1000.
X17.048 Y-49.748 I0.048 J-0.698
X16.952 Y-48.352 Z1.673 I-0.048 J0.698 F333.
X17.048 Y-49.748 Z1.596 I0.048 J-0.698
X16.952 Y-48.352 Z1.52 I-0.048 J0.698
X16.465 Y-48.599 Z1.5 I0.048 J-0.698
X17.535 Y-49.501 I0.535 J-0.451 F1000.
X16.465 Y-48.599 I-0.535 J0.451
X17.535 Y-49.501 Z1.423 I0.535 J-0.451 F333.
X16.465 Y-48.599 Z1.346 I-0.535 J0.451
X17.535 Y-49.501 Z1.27 I0.535 J-0.451
X17.696 Y-48.978 Z1.25 I-0.535 J0.451
X16.304 Y-49.122 I-0.696 J-0.072 F1000.
X17.696 Y-48.978 I0.696 J0.072
X16.304 Y-49.122 Z1.173 I-0.696 J-0.072 F333.
X17.696 Y-48.978 Z1.096 I0.696 J0.072
X16.304 Y-49.122 Z1.02 I-0.696 J-0.072
X16.568 Y-49.6 Z1. I0.696 J0.072
X17.432 Y-48.5 I0.432 J0.55 F1000.
X16.568 Y-49.6 I-0.432 J-0.55
X17.432 Y-48.5 Z0.923 I0.432 J0.55 F333.
X16.568 Y-49.6 Z0.846 I-0.432 J-0.55
X17.432 Y-48.5 Z0.77 I0.432 J0.55
X16.905 Y-48.357 Z0.75 I-0.432 J-0.55
X17.095 Y-49.743 I0.095 J-0.693 F1000.
X16.905 Y-48.357 I-0.095 J0.693
X17.095 Y-49.743 Z0.673 I0.095 J-0.693 F333.
X16.905 Y-48.357 Z0.596 I-0.095 J0.693
X17.095 Y-49.743 Z0.52 I0.095 J-0.693
X17.565 Y-49.463 Z0.5 I-0.095 J0.693
X16.435 Y-48.637 I-0.565 J0.413 F1000.
X17.565 Y-49.463 I0.565 J-0.413
X16.435 Y-48.637 Z0.423 I-0.565 J0.413 F333.
X17.565 Y-49.463 Z0.346 I0.565 J-0.413
X16.435 Y-48.637 Z0.27 I-0.565 J0.413
X16.31 Y-49.169 Z0.25 I0.565 J-0.413
X17.69 Y-48.931 I0.69 J0.119 F1000.
X16.31 Y-49.169 I-0.69 J-0.119
X17.69 Y-48.931 Z0.173 I0.69 J0.119 F333.
X16.31 Y-49.169 Z0.096 I-0.69 J-0.119
X17.69 Y-48.931 Z0.02 I0.69 J0.119
X17.394 Y-48.471 Z0. I-0.69 J-0.119
X16.606 Y-49.629 I-0.394 J-0.579 F1000.
X17.394 Y-48.471 I0.394 J0.579
X16.606 Y-49.629 Z-0.077 I-0.394 J-0.579 F333.
X17.394 Y-48.471 Z-0.154 I0.394 J0.579
X16.606 Y-49.629 Z-0.23 I-0.394 J-0.579
X17.142 Y-49.735 Z-0.25 I0.394 J0.579
X16.858 Y-48.365 I-0.142 J0.685 F1000.
X17.142 Y-49.735 I0.142 J-0.685
X16.858 Y-48.365 Z-0.327 I-0.142 J0.685 F333.
X17.142 Y-49.735 Z-0.404 I0.142 J-0.685
X16.858 Y-48.365 Z-0.48 I-0.142 J0.685
X16.408 Y-48.676 Z-0.5 I0.142 J-0.685
X17.592 Y-49.424 I0.592 J-0.374 F1000.
X16.408 Y-48.676 I-0.592 J0.374
G1 X16.388 Y-48.722
X16.384 Y-48.772
X16.395 Y-48.821
X16.42 Y-48.864
X16.458 Y-48.897
X16.593 Y-48.982
X16.635 Y-49.009 Z-0.492
X16.673 Y-49.032 Z-0.469
X16.703 Y-49.051 Z-0.434
X16.722 Y-49.064 Z-0.389
X16.729 Y-49.068 Z-0.34
G0 Z5.
X30.429 Y-49.321
G1 Z4.25 F333.
Z3.66
X30.434 Y-49.326 Z3.611 F1000.
X30.449 Y-49.343 Z3.566
X30.473 Y-49.369 Z3.531
X30.503 Y-49.403 Z3.508
X30.536 Y-49.439 Z3.5
X30.643 Y-49.558
X30.682 Y-49.59
X30.729 Y-49.607
X30.779 Y-49.61
X30.827 Y-49.597
X30.869 Y-49.57
G3 X29.931 Y-48.53 Z3.423 I-0.469 J0.52 F333.
X30.869 Y-49.57 Z3.346 I0.469 J-0.52
X29.931 Y-48.53 Z3.27 I-0.469 J0.52
X30.869 Y-49.57 Z3.193 I0.469 J-0.52
X29.931 Y-48.53 Z3.116 I-0.469 J0.52
X30.869 Y-49.57 Z3.039 I0.469 J-0.52
X29.931 Y-48.53 Z2.962 I-0.469 J0.52
X30.869 Y-49.57 Z2.886 I0.469 J-0.52
X29.931 Y-48.53 Z2.809 I-0.469 J0.52
X30.4 Y-49.75 Z2.75 I0.469 J-0.52
Y-48.35 I0. J0.7 F1000.
Y-49.75 I0. J-0.7
Y-48.35 Z2.673 I0. J0.7 F333.
Y-49.75 Z2.596 I0. J-0.7
Y-48.35 Z2.52 I0. J0.7
X29.897 Y-48.564 Z2.5 I0. J-0.7
X30.903 Y-49.536 I0.503 J-0.486 F1000.
X29.897 Y-48.564 I-0.503 J0.486
X30.903 Y-49.536 Z2.423 I0.503 J-0.486 F333.
X29.897 Y-48.564 Z2.346 I-0.503 J0.486
X30.903 Y-49.536 Z2.27 I0.503 J-0.486
X31.1 Y-49.026 Z2.25 I-0.503 J0.486
X29.7 Y-49.074 I-0.7 J-0.024 F1000.
X31.1 Y-49.026 I0.7 J0.024
X29.7 Y-49.074 Z2.173 I-0.7 J-0.024 F333.
X31.1 Y-49.026 Z2.096 I0.7 J0.024
X29.7 Y-49.074 Z2.02 I-0.7 J-0.024
X29.931 Y-49.57 Z2. I0.7 J0.024
X30.869 Y-48.53 I0.469 J0.52 F1000.
X29.931 Y-49.57 I-0.469 J-0.52
X30.869 Y-48.53 Z1.923 I0.469 J0.52 F333.
X29.931 Y-49.57 Z1.846 I-0.469 J-0.52
X30.869 Y-48.53 Z1.77 I0.469 J0.52
X30.352 Y-48.352 Z1.75 I-0.469 J-0.52
X30.448 Y-49.748 I0.048 J-0.698 F1000.
X30.352 Y-48.352 I-0.048 J0.698
X30.448 Y-49.748 Z1.673 I0.048 J-0.698 F333.
X30.352 Y-48.352 Z1.596 I-0.048 J0.698
X30.448 Y-49.748 Z1.52 I0.048 J-0.698
X30.935 Y-49.501 Z1.5 I-0.048 J0.698
X29.865 Y-48.599 I-0.535 J0.451 F1000.
X30.935 Y-49.501 I0.535 J-0.451
X29.865 Y-48.599 Z1.423 I-0.535 J0.451 F333.
X30.935 Y-49.501 Z1.346 I0.535 J-0.451
X29.865 Y-48.599 Z1.27 I-0.535 J0.451
X29.704 Y-49.122 Z1.25 I0.535 J-0.451
X31.096 Y-48.978 I0.696 J0.072 F1000.
X29.704 Y-49.122 I-0.696 J-0.072
X31.096 Y-48.978 Z1.173 I0.696 J0.072 F333.
X29.704 Y-49.122 Z1.096 I-0.696 J-0.072
X31.096 Y-48.978 Z1.02 I0.696 J0.072
X30.832 Y-48.5 Z1. I-0.696 J-0.072
X29.968 Y-49.6 I-0.432 J-0.55 F1000.
X30.832 Y-48.5 I0.432 J0.55
X29.968 Y-49.6 Z0.923 I-0.432 J-0.55 F333.
X30.832 Y-48.5 Z0.846 I0.432 J0.55
X29.968 Y-49.6 Z0.77 I-0.432 J-0.55
X30.495 Y-49.743 Z0.75 I0.432 J0.55
X30.305 Y-48.357 I-0.095 J0.693 F1000.
X30.495 Y-49.743 I0.095 J-0.693
X30.305 Y-48.357 Z0.673 I-0.095 J0.693 F333.
X30.495 Y-49.743 Z0.596 I0.095 J-0.693
X30.305 Y-48.357 Z0.52 I-0.095 J0.693
X29.835 Y-48.637 Z0.5 I0.095 J-0.693
X30.965 Y-49.463 I0.565 J-0.413 F1000.
X29.835 Y-48.637 I-0.565 J0.413
X30.965 Y-49.463 Z0.423 I0.565 J-0.413 F333.
X29.835 Y-48.637 Z0.346 I-0.565 J0.413
X30.965 Y-49.463 Z0.27 I0.565 J-0.413
X31.09 Y-48.931 Z0.25 I-0.565 J0.413
X29.71 Y-49.169 I-0.69 J-0.119 F1000.
X31.09 Y-48.931 I0.69 J0.119
X29.71 Y-49.169 Z0.173 I-0.69 J-0.119 F333.
X31.09 Y-48.931 Z0.096 I0.69 J0.119
X29.71 Y-49.169 Z0.02 I-0.69 J-0.119
X30.006 Y-49.629 Z0. I0.69 J0.119
X30.794 Y-48.471 I0.394 J0.579 F1000.
X30.006 Y-49.629 I-0.394 J-0.579
X30.794 Y-48.471 Z-0.077 I0.394 J0.579 F333.
X30.006 Y-49.629 Z-0.154 I-0.394 J-0.579
X30.794 Y-48.471 Z-0.23 I0.394 J0.579
X30.258 Y-48.365 Z-0.25 I-0.394 J-0.579
X30.542 Y-49.735 I0.142 J-0.685 F1000.
X30.258 Y-48.365 I-0.142 J0.685
X30.542 Y-49.735 Z-0.327 I0.142 J-0.685 F333.
X30.258 Y-48.365 Z-0.404 I-0.142 J0.685
X30.542 Y-49.735 Z-0.48 I0.142 J-0.685
X30.992 Y-49.424 Z-0.5 I-0.142 J0.685
X29.808 Y-48.676 I-0.592 J0.374 F1000.
X30.992 Y-49.424 I0.592 J-0.374
G1 X31.012 Y-49.378
X31.016 Y-49.328
X31.005 Y-49.279
X30.98 Y-49.236
X30.942 Y-49.203
X30.807 Y-49.118
X30.765 Y-49.091 Z-0.492
X30.727 Y-49.068 Z-0.469
X30.697 Y-49.049 Z-0.434
X30.678 Y-49.036 Z-0.389
X30.671 Y-49.032 Z-0.34
G0 Z5.
X30.129 Y-67.529
G1 Z4.25 F333.
Z3.66
X30.124 Y-67.534 Z3.611 F1000.
X30.107 Y-67.549 Z3.566
X30.081 Y-67.573 Z3.531
X30.047 Y-67.603 Z3.508
X30.011 Y-67.636 Z3.5
X29.892 Y-67.743
X29.86 Y-67.782
X29.843 Y-67.829
X29.84 Y-67.879
X29.853 Y-67.927
X29.88 Y-67.969
G3 X30.92 Y-67.031 Z3.423 I0.52 J0.469 F333.
X29.88 Y-67.969 Z3.346 I-0.52 J-0.469
X30.92 Y-67.031 Z3.27 I0.52 J0.469
X29.88 Y-67.969 Z3.193 I-0.52 J-0.469
X30.92 Y-67.031 Z3.116 I0.52 J0.469
X29.88 Y-67.969 Z3.039 I-0.52 J-0.469
X30.92 Y-67.031 Z2.962 I0.52 J0.469
X29.88 Y-67.969 Z2.886 I-0.52 J-0.469
X30.92 Y-67.031 Z2.809 I0.52 J0.469
X29.7 Y-67.5 Z2.75 I-0.52 J-0.469
X31.1 I0.7 J0. F1000.
X29.7 I-0.7 J0.
X31.1 Z2.673 I0.7 J0. F333.
X29.7 Z2.596 I-0.7 J0.
X31.1 Z2.52 I0.7 J0.
X30.886 Y-66.997 Z2.5 I-0.7 J0.
X29.914 Y-68.003 I-0.486 J-0.503 F1000.
X30.886 Y-66.997 I0.486 J0.503
X29.914 Y-68.003 Z2.423 I-0.486 J-0.503 F333.
X30.886 Y-66.997 Z2.346 I0.486 J0.503
X29.914 Y-68.003 Z2.27 I-0.486 J-0.503
X30.424 Y-68.2 Z2.25 I0.486 J0.503
X30.376 Y-66.8 I-0.024 J0.7 F1000.
X30.424 Y-68.2 I0.024 J-0.7
X30.376 Y-66.8 Z2.173 I-0.024 J0.7 F333.
X30.424 Y-68.2 Z2.096 I0.024 J-0.7
X30.376 Y-66.8 Z2.02 I-0.024 J0.7
X29.88 Y-67.031 Z2. I0.024 J-0.7
X30.92 Y-67.969 I0.52 J-0.469 F1000.
X29.88 Y-67.031 I-0.52 J0.469
X30.92 Y-67.969 Z1.923 I0.52 J-0.469 F333.
X29.88 Y-67.031 Z1.846 I-0.52 J0.469
X30.92 Y-67.969 Z1.77 I0.52 J-0.469
X31.098 Y-67.452 Z1.75 I-0.52 J0.469
X29.702 Y-67.548 I-0.698 J-0.048 F1000.
X31.098 Y-67.452 I0.698 J0.048
X29.702 Y-67.548 Z1.673 I-0.698 J-0.048 F333.
X31.098 Y-67.452 Z1.596 I0.698 J0.048
X29.702 Y-67.548 Z1.52 I-0.698 J-0.048
X29.949 Y-68.035 Z1.5 I0.698 J0.048
X30.851 Y-66.965 I0.451 J0.535 F1000.
X29.949 Y-68.035 I-0.451 J-0.535
X30.851 Y-66.965 Z1.423 I0.451 J0.535 F333.
X29.949 Y-68.035 Z1.346 I-0.451 J-0.535
X30.851 Y-66.965 Z1.27 I0.451 J0.535
X30.328 Y-66.804 Z1.25 I-0.451 J-0.535
X30.472 Y-68.196 I0.072 J-0.696 F1000.
X30.328 Y-66.804 I-0.072 J0.696
X30.472 Y-68.196 Z1.173 I0.072 J-0.696 F333.
X30.328 Y-66.804 Z1.096 I-0.072 J0.696
X30.472 Y-68.196 Z1.02 I0.072 J-0.696
X30.95 Y-67.932 Z1. I-0.072 J0.696
X29.85 Y-67.068 I-0.55 J0.432 F1000.
X30.95 Y-67.932 I0.55 J-0.432
X29.85 Y-67.068 Z0.923 I-0.55 J0.432 F333.
X30.95 Y-67.932 Z0.846 I0.55 J-0.432
X29.85 Y-67.068 Z0.77 I-0.55 J0.432
X29.707 Y-67.595 Z0.75 I0.55 J-0.432
X31.093 Y-67.405 I0.693 J0.095 F1000.
X29.707 Y-67.595 I-0.693 J-0.095
X31.093 Y-67.405 Z0.673 I0.693 J0.095 F333.
X29.707 Y-67.595 Z0.596 I-0.693 J-0.095
X31.093 Y-67.405 Z0.52 I0.693 J0.095
X30.813 Y-66.935 Z0.5 I-0.693 J-0.095
X29.987 Y-68.065 I-0.413 J-0.565 F1000.
X30.813 Y-66.935 I0.413 J0.565
X29.987 Y-68.065 Z0.423 I-0.413 J-0.565 F333.
X30.813 Y-66.935 Z0.346 I0.413 J0.565
X29.987 Y-68.065 Z0.27 I-0.413 J-0.565
X30.519 Y-68.19 Z0.25 I0.413 J0.565
X30.281 Y-66.81 I-0.119 J0.69 F1000.
X30.519 Y-68.19 I0.119 J-0.69
X30.281 Y-66.81 Z0.173 I-0.119 J0.69 F333.
X30.519 Y-68.19 Z0.096 I0.119 J-0.69
X30.281 Y-66.81 Z0.02 I-0.119 J0.69
X29.821 Y-67.106 Z0. I0.119 J-0.69
X30.979 Y-67.894 I0.579 J-0.394 F1000.
X29.821 Y-67.106 I-0.579 J0.394
X30.979 Y-67.894 Z-0.077 I0.579 J-0.394 F333.
X29.821 Y-67.106 Z-0.154 I-0.579 J0.394
X30.979 Y-67.894 Z-0.23 I0.579 J-0.394
X31.085 Y-67.358 Z-0.25 I-0.579 J0.394
X29.715 Y-67.642 I-0.685 J-0.142 F1000.
X31.085 Y-67.358 I0.685 J0.142
X29.715 Y-67.642 Z-0.327 I-0.685 J-0.142 F333.
X31.085 Y-67.358 Z-0.404 I0.685 J0.142
X29.715 Y-67.642 Z-0.48 I-0.685 J-0.142
X30.026 Y-68.092 Z-0.5 I0.685 J0.142
X30.774 Y-66.908 I0.374 J0.592 F1000.
X30.026 Y-68.092 I-0.374 J-0.592
G1 X30.072 Y-68.112
X30.122 Y-68.116
X30.171 Y-68.105
X30.214 Y-68.08
X30.247 Y-68.042
X30.332 Y-67.907
X30.359 Y-67.865 Z-0.492
X30.382 Y-67.827 Z-0.469
X30.401 Y-67.797 Z-0.434
X30.414 Y-67.778 Z-0.389
X30.418 Y-67.771 Z-0.34
G0 Z5.
X17.271 Y-67.471
G1 Z4.25 F333.
Z3.66
X17.276 Y-67.466 Z3.611 F1000.
X17.293 Y-67.451 Z3.566
X17.319 Y-67.427 Z3.531
X17.353 Y-67.397 Z3.508
X17.389 Y-67.364 Z3.5
X17.508 Y-67.257
X17.54 Y-67.218
X17.557 Y-67.171
X17.56 Y-67.121
X17.547 Y-67.073
X17.52 Y-67.031
G3 X16.48 Y-67.969 Z3.423 I-0.52 J-0.469 F333.
X17.52 Y-67.031 Z3.346 I0.52 J0.469
X16.48 Y-67.969 Z3.27 I-0.52 J-0.469
X17.52 Y-67.031 Z3.193 I0.52 J0.469
X16.48 Y-67.969 Z3.116 I-0.52 J-0.469
X17.52 Y-67.031 Z3.039 I0.52 J0.469
X16.48 Y-67.969 Z2.962 I-0.52 J-0.469
X17.52 Y-67.031 Z2.886 I0.52 J0.469
X16.48 Y-67.969 Z2.809 I-0.52 J-0.469
X17.7 Y-67.5 Z2.75 I0.52 J0.469
X16.3 I-0.7 J0. F1000.
X17.7 I0.7 J0.
X16.3 Z2.673 I-0.7 J0. F333.
X17.7 Z2.596 I0.7 J0.
X16.3 Z2.52 I-0.7 J0.
X16.514 Y-68.003 Z2.5 I0.7 J0.
X17.486 Y-66.997 I0.486 J0.503 F1000.
X16.514 Y-68.003 I-0.486 J-0.503
X17.486 Y-66.997 Z2.423 I0.486 J0.503 F333.
X16.514 Y-68.003 Z2.346 I-0.486 J-0.503
X17.486 Y-66.997 Z2.27 I0.486 J0.503
X16.976 Y-66.8 Z2.25 I-0.486 J-0.503
X17.024 Y-68.2 I0.024 J-0.7 F1000.
X16.976 Y-66.8 I-0.024 J0.7
X17.024 Y-68.2 Z2.173 I0.024 J-0.7 F333.
X16.976 Y-66.8 Z2.096 I-0.024 J0.7
X17.024 Y-68.2 Z2.02 I0.024 J-0.7
X17.52 Y-67.969 Z2. I-0.024 J0.7
X16.48 Y-67.031 I-0.52 J0.469 F1000.
X17.52 Y-67.969 I0.52 J-0.469
X16.48 Y-67.031 Z1.923 I-0.52 J0.469 F333.
X17.52 Y-67.969 Z1.846 I0.52 J-0.469
X16.48 Y-67.031 Z1.77 I-0.52 J0.469
X16.302 Y-67.548 Z1.75 I0.52 J-0.469
X17.698 Y-67.452 I0.698 J0.048 F1000.
X16.302 Y-67.548 I-0.698 J-0.048
X17.698 Y-67.452 Z1.673 I0.698 J0.048 F333.
X16.302 Y-67.548 Z1.596 I-0.698 J-0.048
X17.698 Y-67.452 Z1.52 I0.698 J0.048
X17.451 Y-66.965 Z1.5 I-0.698 J-0.048
X16.549 Y-68.035 I-0.451 J-0.535 F1000.
X17.451 Y-66.965 I0.451 J0.535
X16.549 Y-68.035 Z1.423 I-0.451 J-0.535 F333.
X17.451 Y-66.965 Z1.346 I0.451 J0.535
X16.549 Y-68.035 Z1.27 I-0.451 J-0.535
X17.072 Y-68.196 Z1.25 I0.451 J0.535
X16.928 Y-66.804 I-0.072 J0.696 F1000.
X17.072 Y-68.196 I0.072 J-0.696
X16.928 Y-66.804 Z1.173 I-0.072 J0.696 F333.
X17.072 Y-68.196 Z1.096 I0.072 J-0.696
X16.928 Y-66.804 Z1.02 I-0.072 J0.696
X16.45 Y-67.068 Z1. I0.072 J-0.696
X17.55 Y-67.932 I0.55 J-0.432 F1000.
X16.45 Y-67.068 I-0.55 J0.432
X17.55 Y-67.932 Z0.923 I0.55 J-0.432 F333.
X16.45 Y-67.068 Z0.846 I-0.55 J0.432
X17.55 Y-67.932 Z0.77 I0.55 J-0.432
X17.693 Y-67.405 Z0.75 I-0.55 J0.432
X16.307 Y-67.595 I-0.693 J-0.095 F1000.
X17.693 Y-67.405 I0.693 J0.095
X16.307 Y-67.595 Z0.673 I-0.693 J-0.095 F333.
X17.693 Y-67.405 Z0.596 I0.693 J0.095
X16.307 Y-67.595 Z0.52 I-0.693 J-0.095
X16.587 Y-68.065 Z0.5 I0.693 J0.095
X17.413 Y-66.935 I0.413 J0.565 F1000.
X16.587 Y-68.065 I-0.413 J-0.565
X17.413 Y-66.935 Z0.423 I0.413 J0.565 F333.
X16.587 Y-68.065 Z0.346 I-0.413 J-0.565
X17.413 Y-66.935 Z0.27 I0.413 J0.565
X16.881 Y-66.81 Z0.25 I-0.413 J-0.565
X17.119 Y-68.19 I0.119 J-0.69 F1000.
X16.881 Y-66.81 I-0.119 J0.69
X17.119 Y-68.19 Z0.173 I0.119 J-0.69 F333.
X16.881 Y-66.81 Z0.096 I-0.119 J0.69
X17.119 Y-68.19 Z0.02 I0.119 J-0.69
X17.579 Y-67.894 Z0. I-0.119 J0.69
X16.421 Y-67.106 I-0.579 J0.394 F1000.
X17.579 Y-67.894 I0.579 J-0.394
X16.421 Y-67.106 Z-0.077 I-0.579 J0.394 F333.
X17.579 Y-67.894 Z-0.154 I0.579 J-0.394
X16.421 Y-67.106 Z-0.23 I-0.579 J0.394
X16.315 Y-67.642 Z-0.25 I0.579 J-0.394
X17.685 Y-67.358 I0.685 J0.142 F1000.
X16.315 Y-67.642 I-0.685 J-0.142
X17.685 Y-67.358 Z-0.327 I0.685 J0.142 F333.
X16.315 Y-67.642 Z-0.404 I-0.685 J-0.142
X17.685 Y-67.358 Z-0.48 I0.685 J0.142
X17.374 Y-66.908 Z-0.5 I-0.685 J-0.142
X16.626 Y-68.092 I-0.374 J-0.592 F1000.
X17.374 Y-66.908 I0.374 J0.592
G1 X17.328 Y-66.888
X17.278 Y-66.884
X17.229 Y-66.895
X17.186 Y-66.92
X17.153 Y-66.958
X17.068 Y-67.093
X17.041 Y-67.135 Z-0.492
X17.018 Y-67.173 Z-0.469
X16.999 Y-67.203 Z-0.434
X16.986 Y-67.222 Z-0.389
X16.982 Y-67.229 Z-0.34
G0 Z5.
X3.305 Y-63.045
G1 Z4.25 F333.
Z3.66
X3.306 Y-63.049 Z3.625
X3.309 Y-63.06 Z3.592
X3.315 Y-63.077 Z3.562
X3.326 Y-63.099 Z3.537
X3.342 Y-63.123 Z3.518
X3.364 Y-63.147 Z3.505
X3.392 Y-63.168 Z3.5
G3 X3.608 Y-62.832 Z3.478 I0.108 J0.168
X3.392 Y-63.168 Z3.456 I-0.108 J-0.168
X3.608 Y-62.832 Z3.434 I0.108 J0.168
X3.392 Y-63.168 Z3.412 I-0.108 J-0.168
X3.608 Y-62.832 Z3.39 I0.108 J0.168
X3.392 Y-63.168 Z3.368 I-0.108 J-0.168
X3.608 Y-62.832 Z3.346 I0.108 J0.168
X3.392 Y-63.168 Z3.324 I-0.108 J-0.168
X3.608 Y-62.832 Z3.303 I0.108 J0.168
X3.392 Y-63.168 Z3.281 I-0.108 J-0.168
X3.608 Y-62.832 Z3.259 I0.108 J0.168
X3.392 Y-63.168 Z3.237 I-0.108 J-0.168
X3.608 Y-62.832 Z3.215 I0.108 J0.168
X3.392 Y-63.168 Z3.193 I-0.108 J-0.168
X3.608 Y-62.832 Z3.171 I0.108 J0.168
X3.392 Y-63.168 Z3.149 I-0.108 J-0.168
X3.608 Y-62.832 Z3.127 I0.108 J0.168
X3.392 Y-63.168 Z3.105 I-0.108 J-0.168
X3.608 Y-62.832 Z3.083 I0.108 J0.168
X3.392 Y-63.168 Z3.061 I-0.108 J-0.168
X3.608 Y-62.832 Z3.039 I0.108 J0.168
X3.392 Y-63.168 Z3.017 I-0.108 J-0.168
X3.608 Y-62.832 Z2.995 I0.108 J0.168
X3.392 Y-63.168 Z2.973 I-0.108 J-0.168
X3.608 Y-62.832 Z2.951 I0.108 J0.168
X3.392 Y-63.168 Z2.93 I-0.108 J-0.168
X3.608 Y-62.832 Z2.908 I0.108 J0.168
X3.392 Y-63.168 Z2.886 I-0.108 J-0.168
X3.608 Y-62.832 Z2.864 I0.108 J0.168
X3.392 Y-63.168 Z2.842 I-0.108 J-0.168
X3.608 Y-62.832 Z2.82 I0.108 J0.168
X3.392 Y-63.168 Z2.798 I-0.108 J-0.168
X3.608 Y-62.832 Z2.776 I0.108 J0.168
X3.392 Y-63.168 Z2.754 I-0.108 J-0.168
X3.5 Y-63.2 Z2.75 I0.108 J0.168
Y-62.8 I0. J0.2 F1000.
Y-63.2 I0. J-0.2
Y-62.8 Z2.728 I0. J0.2 F333.
Y-63.2 Z2.706 I0. J-0.2
Y-62.8 Z2.684 I0. J0.2
Y-63.2 Z2.662 I0. J-0.2
Y-62.8 Z2.64 I0. J0.2
Y-63.2 Z2.618 I0. J-0.2
Y-62.8 Z2.596 I0. J0.2
Y-63.2 Z2.574 I0. J-0.2
Y-62.8 Z2.553 I0. J0.2
Y-63.2 Z2.531 I0. J-0.2
Y-62.8 Z2.509 I0. J0.2
X3.311 Y-62.935 Z2.5 I0. J-0.2
X3.689 Y-63.065 I0.189 J-0.065 F1000.
X3.311 Y-62.935 I-0.189 J0.065
X3.689 Y-63.065 Z2.478 I0.189 J-0.065 F333.
X3.311 Y-62.935 Z2.456 I-0.189 J0.065
X3.689 Y-63.065 Z2.434 I0.189 J-0.065
X3.311 Y-62.935 Z2.412 I-0.189 J0.065
X3.689 Y-63.065 Z2.39 I0.189 J-0.065
X3.311 Y-62.935 Z2.368 I-0.189 J0.065
X3.689 Y-63.065 Z2.346 I0.189 J-0.065
X3.311 Y-62.935 Z2.324 I-0.189 J0.065
X3.689 Y-63.065 Z2.303 I0.189 J-0.065
X3.311 Y-62.935 Z2.281 I-0.189 J0.065
X3.689 Y-63.065 Z2.259 I0.189 J-0.065
X3.624 Y-62.843 Z2.25 I-0.189 J0.065
X3.376 Y-63.157 I-0.124 J-0.157 F1000.
X3.624 Y-62.843 I0.124 J0.157
X3.376 Y-63.157 Z2.228 I-0.124 J-0.157 F333.
X3.624 Y-62.843 Z2.206 I0.124 J0.157
X3.376 Y-63.157 Z2.184 I-0.124 J-0.157
X3.624 Y-62.843 Z2.162 I0.124 J0.157
X3.376 Y-63.157 Z2.14 I-0.124 J-0.157
X3.624 Y-62.843 Z2.118 I0.124 J0.157
X3.376 Y-63.157 Z2.096 I-0.124 J-0.157
X3.624 Y-62.843 Z2.074 I0.124 J0.157
X3.376 Y-63.157 Z2.053 I-0.124 J-0.157
X3.624 Y-62.843 Z2.031 I0.124 J0.157
X3.376 Y-63.157 Z2.009 I-0.124 J-0.157
X3.608 Y-63.168 Z2. I0.124 J0.157
X3.392 Y-62.832 I-0.108 J0.168 F1000.
X3.608 Y-63.168 I0.108 J-0.168
X3.392 Y-62.832 Z1.978 I-0.108 J0.168 F333.
X3.608 Y-63.168 Z1.956 I0.108 J-0.168
X3.392 Y-62.832 Z1.934 I-0.108 J0.168
X3.608 Y-63.168 Z1.912 I0.108 J-0.168
X3.392 Y-62.832 Z1.89 I-0.108 J0.168
X3.608 Y-63.168 Z1.868 I0.108 J-0.168
X3.392 Y-62.832 Z1.846 I-0.108 J0.168
X3.608 Y-63.168 Z1.824 I0.108 J-0.168
X3.392 Y-62.832 Z1.803 I-0.108 J0.168
X3.608 Y-63.168 Z1.781 I0.108 J-0.168
X3.392 Y-62.832 Z1.759 I-0.108 J0.168
X3.306 Y-63.047 Z1.75 I0.108 J-0.168
X3.694 Y-62.953 I0.194 J0.047 F1000.
X3.306 Y-63.047 I-0.194 J-0.047
X3.694 Y-62.953 Z1.728 I0.194 J0.047 F333.
X3.306 Y-63.047 Z1.706 I-0.194 J-0.047
X3.694 Y-62.953 Z1.684 I0.194 J0.047
X3.306 Y-63.047 Z1.662 I-0.194 J-0.047
X3.694 Y-62.953 Z1.64 I0.194 J0.047
X3.306 Y-63.047 Z1.618 I-0.194 J-0.047
X3.694 Y-62.953 Z1.596 I0.194 J0.047
X3.306 Y-63.047 Z1.574 I-0.194 J-0.047
X3.694 Y-62.953 Z1.553 I0.194 J0.047
X3.306 Y-63.047 Z1.531 I-0.194 J-0.047
X3.694 Y-62.953 Z1.509 I0.194 J0.047
X3.519 Y-62.801 Z1.5 I-0.194 J-0.047
X3.481 Y-63.199 I-0.019 J-0.199 F1000.
X3.519 Y-62.801 I0.019 J0.199
X3.481 Y-63.199 Z1.478 I-0.019 J-0.199 F333.
X3.519 Y-62.801 Z1.456 I0.019 J0.199
X3.481 Y-63.199 Z1.434 I-0.019 J-0.199
X3.519 Y-62.801 Z1.412 I0.019 J0.199
X3.481 Y-63.199 Z1.39 I-0.019 J-0.199
X3.519 Y-62.801 Z1.368 I0.019 J0.199
X3.481 Y-63.199 Z1.346 I-0.019 J-0.199
X3.519 Y-62.801 Z1.324 I0.019 J0.199
X3.481 Y-63.199 Z1.303 I-0.019 J-0.199
X3.519 Y-62.801 Z1.281 I0.019 J0.199
X3.481 Y-63.199 Z1.259 I-0.019 J-0.199
X3.682 Y-63.083 Z1.25 I0.019 J0.199
X3.318 Y-62.917 I-0.182 J0.083 F1000.
X3.682 Y-63.083 I0.182 J-0.083
X3.318 Y-62.917 Z1.228 I-0.182 J0.083 F333.
X3.682 Y-63.083 Z1.206 I0.182 J-0.083
X3.318 Y-62.917 Z1.184 I-0.182 J0.083
X3.682 Y-63.083 Z1.162 I0.182 J-0.083
X3.318 Y-62.917 Z1.14 I-0.182 J0.083
X3.682 Y-63.083 Z1.118 I0.182 J-0.083
X3.318 Y-62.917 Z1.096 I-0.182 J0.083
X3.682 Y-63.083 Z1.074 I0.182 J-0.083
X3.318 Y-62.917 Z1.053 I-0.182 J0.083
X3.682 Y-63.083 Z1.031 I0.182 J-0.083
X3.318 Y-62.917 Z1.009 I-0.182 J0.083
X3.362 Y-63.145 Z1. I0.182 J-0.083
X3.638 Y-62.855 I0.138 J0.145 F1000.
X3.362 Y-63.145 I-0.138 J-0.145
X3.638 Y-62.855 Z0.978 I0.138 J0.145 F333.
X3.362 Y-63.145 Z0.956 I-0.138 J-0.145
X3.638 Y-62.855 Z0.934 I0.138 J0.145
X3.362 Y-63.145 Z0.912 I-0.138 J-0.145
X3.638 Y-62.855 Z0.89 I0.138 J0.145
X3.362 Y-63.145 Z0.868 I-0.138 J-0.145
X3.638 Y-62.855 Z0.846 I0.138 J0.145
X3.362 Y-63.145 Z0.824 I-0.138 J-0.145
X3.638 Y-62.855 Z0.803 I0.138 J0.145
X3.362 Y-63.145 Z0.781 I-0.138 J-0.145
X3.638 Y-62.855 Z0.759 I0.138 J0.145
X3.408 Y-62.822 Z0.75 I-0.138 J-0.145
X3.592 Y-63.178 I0.092 J-0.178 F1000.
X3.408 Y-62.822 I-0.092 J0.178
X3.592 Y-63.178 Z0.728 I0.092 J-0.178 F333.
X3.408 Y-62.822 Z0.706 I-0.092 J0.178
X3.592 Y-63.178 Z0.684 I0.092 J-0.178
X3.408 Y-62.822 Z0.662 I-0.092 J0.178
X3.592 Y-63.178 Z0.64 I0.092 J-0.178
X3.408 Y-62.822 Z0.618 I-0.092 J0.178
X3.592 Y-63.178 Z0.596 I0.092 J-0.178
X3.408 Y-62.822 Z0.574 I-0.092 J0.178
X3.592 Y-63.178 Z0.553 I0.092 J-0.178
X3.408 Y-62.822 Z0.531 I-0.092 J0.178
X3.592 Y-63.178 Z0.509 I0.092 J-0.178
X3.698 Y-62.971 Z0.5 I-0.092 J0.178
X3.302 Y-63.029 I-0.198 J-0.029 F1000.
X3.698 Y-62.971 I0.198 J0.029
X3.302 Y-63.029 Z0.478 I-0.198 J-0.029 F333.
X3.698 Y-62.971 Z0.456 I0.198 J0.029
X3.302 Y-63.029 Z0.434 I-0.198 J-0.029
X3.698 Y-62.971 Z0.412 I0.198 J0.029
X3.302 Y-63.029 Z0.39 I-0.198 J-0.029
X3.698 Y-62.971 Z0.368 I0.198 J0.029
X3.302 Y-63.029 Z0.346 I-0.198 J-0.029
X3.698 Y-62.971 Z0.324 I0.198 J0.029
X3.302 Y-63.029 Z0.303 I-0.198 J-0.029
X3.698 Y-62.971 Z0.281 I0.198 J0.029
X3.302 Y-63.029 Z0.259 I-0.198 J-0.029
X3.463 Y-63.196 Z0.25 I0.198 J0.029
X3.538 Y-62.803 I0.037 J0.196 F1000.
X3.463 Y-63.196 I-0.037 J-0.196
X3.538 Y-62.803 Z0.228 I0.037 J0.196 F333.
X3.463 Y-63.196 Z0.206 I-0.037 J-0.196
X3.538 Y-62.803 Z0.184 I0.037 J0.196
X3.463 Y-63.196 Z0.162 I-0.037 J-0.196
X3.538 Y-62.803 Z0.14 I0.037 J0.196
X3.463 Y-63.196 Z0.118 I-0.037 J-0.196
X3.538 Y-62.803 Z0.096 I0.037 J0.196
X3.463 Y-63.196 Z0.074 I-0.037 J-0.196
X3.538 Y-62.803 Z0.053 I0.037 J0.196
X3.463 Y-63.196 Z0.031 I-0.037 J-0.196
X3.538 Y-62.803 Z0.009 I0.037 J0.196
X3.327 Y-62.9 Z0. I-0.037 J-0.196
X3.673 Y-63.1 I0.173 J-0.1 F1000.
X3.327 Y-62.9 I-0.173 J0.1
X3.673 Y-63.1 Z-0.022 I0.173 J-0.1 F333.
X3.327 Y-62.9 Z-0.044 I-0.173 J0.1
X3.673 Y-63.1 Z-0.066 I0.173 J-0.1
X3.327 Y-62.9 Z-0.088 I-0.173 J0.1
X3.673 Y-63.1 Z-0.11 I0.173 J-0.1
X3.327 Y-62.9 Z-0.132 I-0.173 J0.1
X3.673 Y-63.1 Z-0.154 I0.173 J-0.1
X3.327 Y-62.9 Z-0.176 I-0.173 J0.1
X3.673 Y-63.1 Z-0.197 I0.173 J-0.1
X3.327 Y-62.9 Z-0.219 I-0.173 J0.1
X3.673 Y-63.1 Z-0.241 I0.173 J-0.1
X3.651 Y-62.869 Z-0.25 I-0.173 J0.1
X3.349 Y-63.131 I-0.151 J-0.131 F1000.
X3.651 Y-62.869 I0.151 J0.131
X3.349 Y-63.131 Z-0.272 I-0.151 J-0.131 F333.
X3.651 Y-62.869 Z-0.294 I0.151 J0.131
X3.349 Y-63.131 Z-0.316 I-0.151 J-0.131
X3.651 Y-62.869 Z-0.338 I0.151 J0.131
X3.349 Y-63.131 Z-0.36 I-0.151 J-0.131
X3.651 Y-62.869 Z-0.382 I0.151 J0.131
X3.349 Y-63.131 Z-0.404 I-0.151 J-0.131
X3.651 Y-62.869 Z-0.426 I0.151 J0.131
X3.349 Y-63.131 Z-0.447 I-0.151 J-0.131
X3.651 Y-62.869 Z-0.469 I0.151 J0.131
X3.349 Y-63.131 Z-0.491 I-0.151 J-0.131
X3.575 Y-63.185 Z-0.5 I0.151 J0.131
X3.425 Y-62.814 I-0.075 J0.185 F1000.
X3.575 Y-63.185 I0.075 J-0.185
G1 X3.602 Y-63.171 Z-0.497
X3.626 Y-63.152 Z-0.488
X3.644 Y-63.131 Z-0.473
X3.657 Y-63.111 Z-0.453
X3.665 Y-63.093 Z-0.429
X3.669 Y-63.079 Z-0.401
X3.672 Y-63.07 Z-0.371
Y-63.067 Z-0.34
G0 Z5.
X-37.305 Y-62.955
G1 Z4.25 F333.
Z3.66
X-37.306 Y-62.951 Z3.625
X-37.309 Y-62.94 Z3.592
X-37.315 Y-62.923 Z3.562
X-37.326 Y-62.901 Z3.537
X-37.342 Y-62.877 Z3.518
X-37.364 Y-62.853 Z3.505
X-37.392 Y-62.832 Z3.5
G3 X-37.608 Y-63.168 Z3.478 I-0.108 J-0.168
X-37.392 Y-62.832 Z3.456 I0.108 J0.168
X-37.608 Y-63.168 Z3.434 I-0.108 J-0.168
X-37.392 Y-62.832 Z3.412 I0.108 J0.168
X-37.608 Y-63.168 Z3.39 I-0.108 J-0.168
X-37.392 Y-62.832 Z3.368 I0.108 J0.168
X-37.608 Y-63.168 Z3.346 I-0.108 J-0.168
X-37.392 Y-62.832 Z3.324 I0.108 J0.168
X-37.608 Y-63.168 Z3.303 I-0.108 J-0.168
X-37.392 Y-62.832 Z3.281 I0.108 J0.168
X-37.608 Y-63.168 Z3.259 I-0.108 J-0.168
X-37.392 Y-62.832 Z3.237 I0.108 J0.168
X-37.608 Y-63.168 Z3.215 I-0.108 J-0.168
X-37.392 Y-62.832 Z3.193 I0.108 J0.168
X-37.608 Y-63.168 Z3.171 I-0.108 J-0.168
X-37.392 Y-62.832 Z3.149 I0.108 J0.168
X-37.608 Y-63.168 Z3.127 I-0.108 J-0.168
X-37.392 Y-62.832 Z3.105 I0.108 J0.168
X-37.608 Y-63.168 Z3.083 I-0.108 J-0.168
X-37.392 Y-62.832 Z3.061 I0.108 J0.168
X-37.608 Y-63.168 Z3.039 I-0.108 J-0.168
X-37.392 Y-62.832 Z3.017 I0.108 J0.168
X-37.608 Y-63.168 Z2.995 I-0.108 J-0.168
X-37.392 Y-62.832 Z2.973 I0.108 J0.168
X-37.608 Y-63.168 Z2.951 I-0.108 J-0.168
X-37.392 Y-62.832 Z2.93 I0.108 J0.168
X-37.608 Y-63.168 Z2.908 I-0.108 J-0.168
X-37.392 Y-62.832 Z2.886 I0.108 J0.168
X-37.608 Y-63.168 Z2.864 I-0.108 J-0.168
X-37.392 Y-62.832 Z2.842 I0.108 J0.168
X-37.608 Y-63.168 Z2.82 I-0.108 J-0.168
X-37.392 Y-62.832 Z2.798 I0.108 J0.168
X-37.608 Y-63.168 Z2.776 I-0.108 J-0.168
X-37.392 Y-62.832 Z2.754 I0.108 J0.168
X-37.5 Y-62.8 Z2.75 I-0.108 J-0.168
Y-63.2 I0. J-0.2 F1000.
Y-62.8 I0. J0.2
Y-63.2 Z2.728 I0. J-0.2 F333.
Y-62.8 Z2.706 I0. J0.2
Y-63.2 Z2.684 I0. J-0.2
Y-62.8 Z2.662 I0. J0.2
Y-63.2 Z2.64 I0. J-0.2
Y-62.8 Z2.618 I0. J0.2
Y-63.2 Z2.596 I0. J-0.2
Y-62.8 Z2.574 I0. J0.2
Y-63.2 Z2.553 I0. J-0.2
Y-62.8 Z2.531 I0. J0.2
Y-63.2 Z2.509 I0. J-0.2
X-37.311 Y-63.065 Z2.5 I0. J0.2
X-37.689 Y-62.935 I-0.189 J0.065 F1000.
X-37.311 Y-63.065 I0.189 J-0.065
X-37.689 Y-62.935 Z2.478 I-0.189 J0.065 F333.
X-37.311 Y-63.065 Z2.456 I0.189 J-0.065
X-37.689 Y-62.935 Z2.434 I-0.189 J0.065
X-37.311 Y-63.065 Z2.412 I0.189 J-0.065
X-37.689 Y-62.935 Z2.39 I-0.189 J0.065
X-37.311 Y-63.065 Z2.368 I0.189 J-0.065
X-37.689 Y-62.935 Z2.346 I-0.189 J0.065
X-37.311 Y-63.065 Z2.324 I0.189 J-0.065
X-37.689 Y-62.935 Z2.303 I-0.189 J0.065
X-37.311 Y-63.065 Z2.281 I0.189 J-0.065
X-37.689 Y-62.935 Z2.259 I-0.189 J0.065
X-37.624 Y-63.157 Z2.25 I0.189 J-0.065
X-37.376 Y-62.843 I0.124 J0.157 F1000.
X-37.624 Y-63.157 I-0.124 J-0.157
X-37.376 Y-62.843 Z2.228 I0.124 J0.157 F333.
X-37.624 Y-63.157 Z2.206 I-0.124 J-0.157
X-37.376 Y-62.843 Z2.184 I0.124 J0.157
X-37.624 Y-63.157 Z2.162 I-0.124 J-0.157
X-37.376 Y-62.843 Z2.14 I0.124 J0.157
X-37.624 Y-63.157 Z2.118 I-0.124 J-0.157
X-37.376 Y-62.843 Z2.096 I0.124 J0.157
X-37.624 Y-63.157 Z2.074 I-0.124 J-0.157
X-37.376 Y-62.843 Z2.053 I0.124 J0.157
X-37.624 Y-63.157 Z2.031 I-0.124 J-0.157
X-37.376 Y-62.843 Z2.009 I0.124 J0.157
X-37.608 Y-62.832 Z2. I-0.124 J-0.157
X-37.392 Y-63.168 I0.108 J-0.168 F1000.
X-37.608 Y-62.832 I-0.108 J0.168
X-37.392 Y-63.168 Z1.978 I0.108 J-0.168 F333.
X-37.608 Y-62.832 Z1.956 I-0.108 J0.168
X-37.392 Y-63.168 Z1.934 I0.108 J-0.168
X-37.608 Y-62.832 Z1.912 I-0.108 J0.168
X-37.392 Y-63.168 Z1.89 I0.108 J-0.168
X-37.608 Y-62.832 Z1.868 I-0.108 J0.168
X-37.392 Y-63.168 Z1.846 I0.108 J-0.168
X-37.608 Y-62.832 Z1.824 I-0.108 J0.168
X-37.392 Y-63.168 Z1.803 I0.108 J-0.168
X-37.608 Y-62.832 Z1.781 I-0.108 J0.168
X-37.392 Y-63.168 Z1.759 I0.108 J-0.168
X-37.306 Y-62.953 Z1.75 I-0.108 J0.168
X-37.694 Y-63.047 I-0.194 J-0.047 F1000.
X-37.306 Y-62.953 I0.194 J0.047
X-37.694 Y-63.047 Z1.728 I-0.194 J-0.047 F333.
X-37.306 Y-62.953 Z1.706 I0.194 J0.047
X-37.694 Y-63.047 Z1.684 I-0.194 J-0.047
X-37.306 Y-62.953 Z1.662 I0.194 J0.047
X-37.694 Y-63.047 Z1.64 I-0.194 J-0.047
X-37.306 Y-62.953 Z1.618 I0.194 J0.047
X-37.694 Y-63.047 Z1.596 I-0.194 J-0.047
X-37.306 Y-62.953 Z1.574 I0.194 J0.047
X-37.694 Y-63.047 Z1.553 I-0.194 J-0.047
X-37.306 Y-62.953 Z1.531 I0.194 J0.047
X-37.694 Y-63.047 Z1.509 I-0.194 J-0.047
X-37.519 Y-63.199 Z1.5 I0.194 J0.047
X-37.481 Y-62.801 I0.019 J0.199 F1000.
X-37.519 Y-63.199 I-0.019 J-0.199
X-37.481 Y-62.801 Z1.478 I0.019 J0.199 F333.
X-37.519 Y-63.199 Z1.456 I-0.019 J-0.199
X-37.481 Y-62.801 Z1.434 I0.019 J0.199
X-37.519 Y-63.199 Z1.412 I-0.019 J-0.199
X-37.481 Y-62.801 Z1.39 I0.019 J0.199
X-37.519 Y-63.199 Z1.368 I-0.019 J-0.199
X-37.481 Y-62.801 Z1.346 I0.019 J0.199
X-37.519 Y-63.199 Z1.324 I-0.019 J-0.199
X-37.481 Y-62.801 Z1.303 I0.019 J0.199
X-37.519 Y-63.199 Z1.281 I-0.019 J-0.199
X-37.481 Y-62.801 Z1.259 I0.019 J0.199
X-37.682 Y-62.917 Z1.25 I-0.019 J-0.199
X-37.318 Y-63.083 I0.182 J-0.083 F1000.
X-37.682 Y-62.917 I-0.182 J0.083
X-37.318 Y-63.083 Z1.228 I0.182 J-0.083 F333.
X-37.682 Y-62.917 Z1.206 I-0.182 J0.083
X-37.318 Y-63.083 Z1.184 I0.182 J-0.083
X-37.682 Y-62.917 Z1.162 I-0.182 J0.083
X-37.318 Y-63.083 Z1.14 I0.182 J-0.083
X-37.682 Y-62.917 Z1.118 I-0.182 J0.083
X-37.318 Y-63.083 Z1.096 I0.182 J-0.083
X-37.682 Y-62.917 Z1.074 I-0.182 J0.083
X-37.318 Y-63.083 Z1.053 I0.182 J-0.083
X-37.682 Y-62.917 Z1.031 I-0.182 J0.083
X-37.318 Y-63.083 Z1.009 I0.182 J-0.083
X-37.362 Y-62.855 Z1. I-0.182 J0.083
X-37.638 Y-63.145 I-0.138 J-0.145 F1000.
X-37.362 Y-62.855 I0.138 J0.145
X-37.638 Y-63.145 Z0.978 I-0.138 J-0.145 F333.
X-37.362 Y-62.855 Z0.956 I0.138 J0.145
X-37.638 Y-63.145 Z0.934 I-0.138 J-0.145
X-37.362 Y-62.855 Z0.912 I0.138 J0.145
X-37.638 Y-63.145 Z0.89 I-0.138 J-0.145
X-37.362 Y-62.855 Z0.868 I0.138 J0.145
X-37.638 Y-63.145 Z0.846 I-0.138 J-0.145
X-37.362 Y-62.855 Z0.824 I0.138 J0.145
X-37.638 Y-63.145 Z0.803 I-0.138 J-0.145
X-37.362 Y-62.855 Z0.781 I0.138 J0.145
X-37.638 Y-63.145 Z0.759 I-0.138 J-0.145
X-37.408 Y-63.178 Z0.75 I0.138 J0.145
X-37.592 Y-62.822 I-0.092 J0.178 F1000.
X-37.408 Y-63.178 I0.092 J-0.178
X-37.592 Y-62.822 Z0.728 I-0.092 J0.178 F333.
X-37.408 Y-63.178 Z0.706 I0.092 J-0.178
X-37.592 Y-62.822 Z0.684 I-0.092 J0.178
X-37.408 Y-63.178 Z0.662 I0.092 J-0.178
X-37.592 Y-62.822 Z0.64 I-0.092 J0.178
X-37.408 Y-63.178 Z0.618 I0.092 J-0.178
X-37.592 Y-62.822 Z0.596 I-0.092 J0.178
X-37.408 Y-63.178 Z0.574 I0.092 J-0.178
X-37.592 Y-62.822 Z0.553 I-0.092 J0.178
X-37.408 Y-63.178 Z0.531 I0.092 J-0.178
X-37.592 Y-62.822 Z0.509 I-0.092 J0.178
X-37.698 Y-63.029 Z0.5 I0.092 J-0.178
X-37.302 Y-62.971 I0.198 J0.029 F1000.
X-37.698 Y-63.029 I-0.198 J-0.029
X-37.302 Y-62.971 Z0.478 I0.198 J0.029 F333.
X-37.698 Y-63.029 Z0.456 I-0.198 J-0.029
X-37.302 Y-62.971 Z0.434 I0.198 J0.029
X-37.698 Y-63.029 Z0.412 I-0.198 J-0.029
X-37.302 Y-62.971 Z0.39 I0.198 J0.029
X-37.698 Y-63.029 Z0.368 I-0.198 J-0.029
X-37.302 Y-62.971 Z0.346 I0.198 J0.029
X-37.698 Y-63.029 Z0.324 I-0.198 J-0.029
X-37.302 Y-62.971 Z0.303 I0.198 J0.029
X-37.698 Y-63.029 Z0.281 I-0.198 J-0.029
X-37.302 Y-62.971 Z0.259 I0.198 J0.029
X-37.463 Y-62.804 Z0.25 I-0.198 J-0.029
X-37.537 Y-63.196 I-0.037 J-0.196 F1000.
X-37.463 Y-62.804 I0.037 J0.196
X-37.537 Y-63.196 Z0.228 I-0.037 J-0.196 F333.
X-37.463 Y-62.804 Z0.206 I0.037 J0.196
X-37.537 Y-63.196 Z0.184 I-0.037 J-0.196
X-37.463 Y-62.804 Z0.162 I0.037 J0.196
X-37.537 Y-63.196 Z0.14 I-0.037 J-0.196
X-37.463 Y-62.804 Z0.118 I0.037 J0.196
X-37.537 Y-63.196 Z0.096 I-0.037 J-0.196
X-37.463 Y-62.804 Z0.074 I0.037 J0.196
X-37.537 Y-63.196 Z0.053 I-0.037 J-0.196
X-37.463 Y-62.804 Z0.031 I0.037 J0.196
X-37.537 Y-63.196 Z0.009 I-0.037 J-0.196
X-37.327 Y-63.1 Z0. I0.037 J0.196
X-37.673 Y-62.9 I-0.173 J0.1 F1000.
X-37.327 Y-63.1 I0.173 J-0.1
X-37.673 Y-62.9 Z-0.022 I-0.173 J0.1 F333.
X-37.327 Y-63.1 Z-0.044 I0.173 J-0.1
X-37.673 Y-62.9 Z-0.066 I-0.173 J0.1
X-37.327 Y-63.1 Z-0.088 I0.173 J-0.1
X-37.673 Y-62.9 Z-0.11 I-0.173 J0.1
X-37.327 Y-63.1 Z-0.132 I0.173 J-0.1
X-37.673 Y-62.9 Z-0.154 I-0.173 J0.1
X-37.327 Y-63.1 Z-0.176 I0.173 J-0.1
X-37.673 Y-62.9 Z-0.197 I-0.173 J0.1
X-37.327 Y-63.1 Z-0.219 I0.173 J-0.1
X-37.673 Y-62.9 Z-0.241 I-0.173 J0.1
X-37.651 Y-63.131 Z-0.25 I0.173 J-0.1
X-37.349 Y-62.869 I0.151 J0.131 F1000.
X-37.651 Y-63.131 I-0.151 J-0.131
X-37.349 Y-62.869 Z-0.272 I0.151 J0.131 F333.
X-37.651 Y-63.131 Z-0.294 I-0.151 J-0.131
X-37.349 Y-62.869 Z-0.316 I0.151 J0.131
X-37.651 Y-63.131 Z-0.338 I-0.151 J-0.131
X-37.349 Y-62.869 Z-0.36 I0.151 J0.131
X-37.651 Y-63.131 Z-0.382 I-0.151 J-0.131
X-37.349 Y-62.869 Z-0.404 I0.151 J0.131
X-37.651 Y-63.131 Z-0.426 I-0.151 J-0.131
X-37.349 Y-62.869 Z-0.447 I0.151 J0.131
X-37.651 Y-63.131 Z-0.469 I-0.151 J-0.131
X-37.349 Y-62.869 Z-0.491 I0.151 J0.131
X-37.575 Y-62.815 Z-0.5 I-0.151 J-0.131
X-37.425 Y-63.185 I0.075 J-0.185 F1000.
X-37.575 Y-62.815 I-0.075 J0.185
G1 X-37.602 Y-62.829 Z-0.497
X-37.626 Y-62.848 Z-0.488
X-37.644 Y-62.868 Z-0.473
X-37.657 Y-62.889 Z-0.453
X-37.665 Y-62.907 Z-0.429
X-37.669 Y-62.921 Z-0.401
X-37.672 Y-62.93 Z-0.371
Y-62.933 Z-0.34
G0 Z5.
X-37.305 Y-46.955
G1 Z4.25 F333.
Z3.66
X-37.306 Y-46.951 Z3.625
X-37.309 Y-46.94 Z3.592
X-37.315 Y-46.923 Z3.562
X-37.326 Y-46.901 Z3.537
X-37.342 Y-46.877 Z3.518
X-37.364 Y-46.853 Z3.505
X-37.392 Y-46.832 Z3.5
G3 X-37.608 Y-47.168 Z3.478 I-0.108 J-0.168
X-37.392 Y-46.832 Z3.456 I0.108 J0.168
X-37.608 Y-47.168 Z3.434 I-0.108 J-0.168
X-37.392 Y-46.832 Z3.412 I0.108 J0.168
X-37.608 Y-47.168 Z3.39 I-0.108 J-0.168
X-37.392 Y-46.832 Z3.368 I0.108 J0.168
X-37.608 Y-47.168 Z3.346 I-0.108 J-0.168
X-37.392 Y-46.832 Z3.324 I0.108 J0.168
X-37.608 Y-47.168 Z3.303 I-0.108 J-0.168
X-37.392 Y-46.832 Z3.281 I0.108 J0.168
X-37.608 Y-47.168 Z3.259 I-0.108 J-0.168
X-37.392 Y-46.832 Z3.237 I0.108 J0.168
X-37.608 Y-47.168 Z3.215 I-0.108 J-0.168
X-37.392 Y-46.832 Z3.193 I0.108 J0.168
X-37.608 Y-47.168 Z3.171 I-0.108 J-0.168
X-37.392 Y-46.832 Z3.149 I0.108 J0.168
X-37.608 Y-47.168 Z3.127 I-0.108 J-0.168
X-37.392 Y-46.832 Z3.105 I0.108 J0.168
X-37.608 Y-47.168 Z3.083 I-0.108 J-0.168
X-37.392 Y-46.832 Z3.061 I0.108 J0.168
X-37.608 Y-47.168 Z3.039 I-0.108 J-0.168
X-37.392 Y-46.832 Z3.017 I0.108 J0.168
X-37.608 Y-47.168 Z2.995 I-0.108 J-0.168
X-37.392 Y-46.832 Z2.973 I0.108 J0.168
X-37.608 Y-47.168 Z2.951 I-0.108 J-0.168
X-37.392 Y-46.832 Z2.93 I0.108 J0.168
X-37.608 Y-47.168 Z2.908 I-0.108 J-0.168
X-37.392 Y-46.832 Z2.886 I0.108 J0.168
X-37.608 Y-47.168 Z2.864 I-0.108 J-0.168
X-37.392 Y-46.832 Z2.842 I0.108 J0.168
X-37.608 Y-47.168 Z2.82 I-0.108 J-0.168
X-37.392 Y-46.832 Z2.798 I0.108 J0.168
X-37.608 Y-47.168 Z2.776 I-0.108 J-0.168
X-37.392 Y-46.832 Z2.754 I0.108 J0.168
X-37.5 Y-46.8 Z2.75 I-0.108 J-0.168
Y-47.2 I0. J-0.2 F1000.
Y-46.8 I0. J0.2
Y-47.2 Z2.728 I0. J-0.2 F333.
Y-46.8 Z2.706 I0. J0.2
Y-47.2 Z2.684 I0. J-0.2
Y-46.8 Z2.662 I0. J0.2
Y-47.2 Z2.64 I0. J-0.2
Y-46.8 Z2.618 I0. J0.2
Y-47.2 Z2.596 I0. J-0.2
Y-46.8 Z2.574 I0. J0.2
Y-47.2 Z2.553 I0. J-0.2
Y-46.8 Z2.531 I0. J0.2
Y-47.2 Z2.509 I0. J-0.2
X-37.311 Y-47.065 Z2.5 I0. J0.2
X-37.689 Y-46.935 I-0.189 J0.065 F1000.
X-37.311 Y-47.065 I0.189 J-0.065
X-37.689 Y-46.935 Z2.478 I-0.189 J0.065 F333.
X-37.311 Y-47.065 Z2.456 I0.189 J-0.065
X-37.689 Y-46.935 Z2.434 I-0.189 J0.065
X-37.311 Y-47.065 Z2.412 I0.189 J-0.065
X-37.689 Y-46.935 Z2.39 I-0.189 J0.065
X-37.311 Y-47.065 Z2.368 I0.189 J-0.065
X-37.689 Y-46.935 Z2.346 I-0.189 J0.065
X-37.311 Y-47.065 Z2.324 I0.189 J-0.065
X-37.689 Y-46.935 Z2.303 I-0.189 J0.065
X-37.311 Y-47.065 Z2.281 I0.189 J-0.065
X-37.689 Y-46.935 Z2.259 I-0.189 J0.065
X-37.624 Y-47.157 Z2.25 I0.189 J-0.065
X-37.376 Y-46.843 I0.124 J0.157 F1000.
X-37.624 Y-47.157 I-0.124 J-0.157
X-37.376 Y-46.843 Z2.228 I0.124 J0.157 F333.
X-37.624 Y-47.157 Z2.206 I-0.124 J-0.157
X-37.376 Y-46.843 Z2.184 I0.124 J0.157
X-37.624 Y-47.157 Z2.162 I-0.124 J-0.157
X-37.376 Y-46.843 Z2.14 I0.124 J0.157
X-37.624 Y-47.157 Z2.118 I-0.124 J-0.157
X-37.376 Y-46.843 Z2.096 I0.124 J0.157
X-37.624 Y-47.157 Z2.074 I-0.124 J-0.157
X-37.376 Y-46.843 Z2.053 I0.124 J0.157
X-37.624 Y-47.157 Z2.031 I-0.124 J-0.157
X-37.376 Y-46.843 Z2.009 I0.124 J0.157
X-37.608 Y-46.832 Z2. I-0.124 J-0.157
X-37.392 Y-47.168 I0.108 J-0.168 F1000.
X-37.608 Y-46.832 I-0.108 J0.168
X-37.392 Y-47.168 Z1.978 I0.108 J-0.168 F333.
X-37.608 Y-46.832 Z1.956 I-0.108 J0.168
X-37.392 Y-47.168 Z1.934 I0.108 J-0.168
X-37.608 Y-46.832 Z1.912 I-0.108 J0.168
X-37.392 Y-47.168 Z1.89 I0.108 J-0.168
X-37.608 Y-46.832 Z1.868 I-0.108 J0.168
X-37.392 Y-47.168 Z1.846 I0.108 J-0.168
X-37.608 Y-46.832 Z1.824 I-0.108 J0.168
X-37.392 Y-47.168 Z1.803 I0.108 J-0.168
X-37.608 Y-46.832 Z1.781 I-0.108 J0.168
X-37.392 Y-47.168 Z1.759 I0.108 J-0.168
X-37.306 Y-46.953 Z1.75 I-0.108 J0.168
X-37.694 Y-47.047 I-0.194 J-0.047 F1000.
X-37.306 Y-46.953 I0.194 J0.047
X-37.694 Y-47.047 Z1.728 I-0.194 J-0.047 F333.
X-37.306 Y-46.953 Z1.706 I0.194 J0.047
X-37.694 Y-47.047 Z1.684 I-0.194 J-0.047
X-37.306 Y-46.953 Z1.662 I0.194 J0.047
X-37.694 Y-47.047 Z1.64 I-0.194 J-0.047
X-37.306 Y-46.953 Z1.618 I0.194 J0.047
X-37.694 Y-47.047 Z1.596 I-0.194 J-0.047
X-37.306 Y-46.953 Z1.574 I0.194 J0.047
X-37.694 Y-47.047 Z1.553 I-0.194 J-0.047
X-37.306 Y-46.953 Z1.531 I0.194 J0.047
X-37.694 Y-47.047 Z1.509 I-0.194 J-0.047
X-37.519 Y-47.199 Z1.5 I0.194 J0.047
X-37.481 Y-46.801 I0.019 J0.199 F1000.
X-37.519 Y-47.199 I-0.019 J-0.199
X-37.481 Y-46.801 Z1.478 I0.019 J0.199 F333.
X-37.519 Y-47.199 Z1.456 I-0.019 J-0.199
X-37.481 Y-46.801 Z1.434 I0.019 J0.199
X-37.519 Y-47.199 Z1.412 I-0.019 J-0.199
X-37.481 Y-46.801 Z1.39 I0.019 J0.199
X-37.519 Y-47.199 Z1.368 I-0.019 J-0.199
X-37.481 Y-46.801 Z1.346 I0.019 J0.199
X-37.519 Y-47.199 Z1.324 I-0.019 J-0.199
X-37.481 Y-46.801 Z1.303 I0.019 J0.199
X-37.519 Y-47.199 Z1.281 I-0.019 J-0.199
X-37.481 Y-46.801 Z1.259 I0.019 J0.199
X-37.682 Y-46.917 Z1.25 I-0.019 J-0.199
X-37.318 Y-47.083 I0.182 J-0.083 F1000.
X-37.682 Y-46.917 I-0.182 J0.083
X-37.318 Y-47.083 Z1.228 I0.182 J-0.083 F333.
X-37.682 Y-46.917 Z1.206 I-0.182 J0.083
X-37.318 Y-47.083 Z1.184 I0.182 J-0.083
X-37.682 Y-46.917 Z1.162 I-0.182 J0.083
X-37.318 Y-47.083 Z1.14 I0.182 J-0.083
X-37.682 Y-46.917 Z1.118 I-0.182 J0.083
X-37.318 Y-47.083 Z1.096 I0.182 J-0.083
X-37.682 Y-46.917 Z1.074 I-0.182 J0.083
X-37.318 Y-47.083 Z1.053 I0.182 J-0.083
X-37.682 Y-46.917 Z1.031 I-0.182 J0.083
X-37.318 Y-47.083 Z1.009 I0.182 J-0.083
X-37.362 Y-46.855 Z1. I-0.182 J0.083
X-37.638 Y-47.145 I-0.138 J-0.145 F1000.
X-37.362 Y-46.855 I0.138 J0.145
X-37.638 Y-47.145 Z0.978 I-0.138 J-0.145 F333.
X-37.362 Y-46.855 Z0.956 I0.138 J0.145
X-37.638 Y-47.145 Z0.934 I-0.138 J-0.145
X-37.362 Y-46.855 Z0.912 I0.138 J0.145
X-37.638 Y-47.145 Z0.89 I-0.138 J-0.145
X-37.362 Y-46.855 Z0.868 I0.138 J0.145
X-37.638 Y-47.145 Z0.846 I-0.138 J-0.145
X-37.362 Y-46.855 Z0.824 I0.138 J0.145
X-37.638 Y-47.145 Z0.803 I-0.138 J-0.145
X-37.362 Y-46.855 Z0.781 I0.138 J0.145
X-37.638 Y-47.145 Z0.759 I-0.138 J-0.145
X-37.408 Y-47.178 Z0.75 I0.138 J0.145
X-37.592 Y-46.822 I-0.092 J0.178 F1000.
X-37.408 Y-47.178 I0.092 J-0.178
X-37.592 Y-46.822 Z0.728 I-0.092 J0.178 F333.
X-37.408 Y-47.178 Z0.706 I0.092 J-0.178
X-37.592 Y-46.822 Z0.684 I-0.092 J0.178
X-37.408 Y-47.178 Z0.662 I0.092 J-0.178
X-37.592 Y-46.822 Z0.64 I-0.092 J0.178
X-37.408 Y-47.178 Z0.618 I0.092 J-0.178
X-37.592 Y-46.822 Z0.596 I-0.092 J0.178
X-37.408 Y-47.178 Z0.574 I0.092 J-0.178
X-37.592 Y-46.822 Z0.553 I-0.092 J0.178
X-37.408 Y-47.178 Z0.531 I0.092 J-0.178
X-37.592 Y-46.822 Z0.509 I-0.092 J0.178
X-37.698 Y-47.029 Z0.5 I0.092 J-0.178
X-37.302 Y-46.971 I0.198 J0.029 F1000.
X-37.698 Y-47.029 I-0.198 J-0.029
X-37.302 Y-46.971 Z0.478 I0.198 J0.029 F333.
X-37.698 Y-47.029 Z0.456 I-0.198 J-0.029
X-37.302 Y-46.971 Z0.434 I0.198 J0.029
X-37.698 Y-47.029 Z0.412 I-0.198 J-0.029
X-37.302 Y-46.971 Z0.39 I0.198 J0.029
X-37.698 Y-47.029 Z0.368 I-0.198 J-0.029
X-37.302 Y-46.971 Z0.346 I0.198 J0.029
X-37.698 Y-47.029 Z0.324 I-0.198 J-0.029
X-37.302 Y-46.971 Z0.303 I0.198 J0.029
X-37.698 Y-47.029 Z0.281 I-0.198 J-0.029
X-37.302 Y-46.971 Z0.259 I0.198 J0.029
X-37.463 Y-46.804 Z0.25 I-0.198 J-0.029
X-37.537 Y-47.196 I-0.037 J-0.196 F1000.
X-37.463 Y-46.804 I0.037 J0.196
X-37.537 Y-47.196 Z0.228 I-0.037 J-0.196 F333.
X-37.463 Y-46.804 Z0.206 I0.037 J0.196
X-37.537 Y-47.196 Z0.184 I-0.037 J-0.196
X-37.463 Y-46.804 Z0.162 I0.037 J0.196
X-37.537 Y-47.196 Z0.14 I-0.037 J-0.196
X-37.463 Y-46.804 Z0.118 I0.037 J0.196
X-37.537 Y-47.196 Z0.096 I-0.037 J-0.196
X-37.463 Y-46.804 Z0.074 I0.037 J0.196
X-37.537 Y-47.196 Z0.053 I-0.037 J-0.196
X-37.463 Y-46.804 Z0.031 I0.037 J0.196
X-37.537 Y-47.196 Z0.009 I-0.037 J-0.196
X-37.327 Y-47.1 Z0. I0.037 J0.196
X-37.673 Y-46.9 I-0.173 J0.1 F1000.
X-37.327 Y-47.1 I0.173 J-0.1
X-37.673 Y-46.9 Z-0.022 I-0.173 J0.1 F333.
X-37.327 Y-47.1 Z-0.044 I0.173 J-0.1
X-37.673 Y-46.9 Z-0.066 I-0.173 J0.1
X-37.327 Y-47.1 Z-0.088 I0.173 J-0.1
X-37.673 Y-46.9 Z-0.11 I-0.173 J0.1
X-37.327 Y-47.1 Z-0.132 I0.173 J-0.1
X-37.673 Y-46.9 Z-0.154 I-0.173 J0.1
X-37.327 Y-47.1 Z-0.176 I0.173 J-0.1
X-37.673 Y-46.9 Z-0.197 I-0.173 J0.1
X-37.327 Y-47.1 Z-0.219 I0.173 J-0.1
X-37.673 Y-46.9 Z-0.241 I-0.173 J0.1
X-37.651 Y-47.131 Z-0.25 I0.173 J-0.1
X-37.349 Y-46.869 I0.151 J0.131 F1000.
X-37.651 Y-47.131 I-0.151 J-0.131
X-37.349 Y-46.869 Z-0.272 I0.151 J0.131 F333.
X-37.651 Y-47.131 Z-0.294 I-0.151 J-0.131
X-37.349 Y-46.869 Z-0.316 I0.151 J0.131
X-37.651 Y-47.131 Z-0.338 I-0.151 J-0.131
X-37.349 Y-46.869 Z-0.36 I0.151 J0.131
X-37.651 Y-47.131 Z-0.382 I-0.151 J-0.131
X-37.349 Y-46.869 Z-0.404 I0.151 J0.131
X-37.651 Y-47.131 Z-0.426 I-0.151 J-0.131
X-37.349 Y-46.869 Z-0.447 I0.151 J0.131
X-37.651 Y-47.131 Z-0.469 I-0.151 J-0.131
X-37.349 Y-46.869 Z-0.491 I0.151 J0.131
X-37.575 Y-46.815 Z-0.5 I-0.151 J-0.131
X-37.425 Y-47.185 I0.075 J-0.185 F1000.
X-37.575 Y-46.815 I-0.075 J0.185
G1 X-37.602 Y-46.829 Z-0.497
X-37.626 Y-46.848 Z-0.488
X-37.644 Y-46.868 Z-0.473
X-37.657 Y-46.889 Z-0.453
X-37.665 Y-46.907 Z-0.429
X-37.669 Y-46.921 Z-0.401
X-37.672 Y-46.93 Z-0.371
Y-46.933 Z-0.34
G0 Z5.
X-42.029 Y-83.229
G1 Z4.25 F333.
Z3.66
X-42.034 Y-83.224 Z3.611 F1000.
X-42.049 Y-83.207 Z3.566
X-42.073 Y-83.181 Z3.531
X-42.103 Y-83.147 Z3.508
X-42.136 Y-83.111 Z3.5
X-42.243 Y-82.992
X-42.282 Y-82.96
X-42.329 Y-82.943
X-42.379 Y-82.94
X-42.427 Y-82.953
X-42.469 Y-82.98
G3 X-41.531 Y-84.02 Z3.423 I0.469 J-0.52 F333.
X-42.469 Y-82.98 Z3.346 I-0.469 J0.52
X-41.531 Y-84.02 Z3.27 I0.469 J-0.52
X-42.469 Y-82.98 Z3.193 I-0.469 J0.52
X-41.531 Y-84.02 Z3.116 I0.469 J-0.52
X-42.469 Y-82.98 Z3.039 I-0.469 J0.52
X-41.531 Y-84.02 Z2.962 I0.469 J-0.52
X-42.469 Y-82.98 Z2.886 I-0.469 J0.52
X-41.531 Y-84.02 Z2.809 I0.469 J-0.52
X-42. Y-82.8 Z2.75 I-0.469 J0.52
Y-84.2 I0. J-0.7 F1000.
Y-82.8 I0. J0.7
Y-84.2 Z2.673 I0. J-0.7 F333.
Y-82.8 Z2.596 I0. J0.7
Y-84.2 Z2.52 I0. J-0.7
X-41.497 Y-83.986 Z2.5 I0. J0.7
X-42.503 Y-83.014 I-0.503 J0.486 F1000.
X-41.497 Y-83.986 I0.503 J-0.486
X-42.503 Y-83.014 Z2.423 I-0.503 J0.486 F333.
X-41.497 Y-83.986 Z2.346 I0.503 J-0.486
X-42.503 Y-83.014 Z2.27 I-0.503 J0.486
X-42.7 Y-83.524 Z2.25 I0.503 J-0.486
X-41.3 Y-83.476 I0.7 J0.024 F1000.
X-42.7 Y-83.524 I-0.7 J-0.024
X-41.3 Y-83.476 Z2.173 I0.7 J0.024 F333.
X-42.7 Y-83.524 Z2.096 I-0.7 J-0.024
X-41.3 Y-83.476 Z2.02 I0.7 J0.024
X-41.531 Y-82.98 Z2. I-0.7 J-0.024
X-42.469 Y-84.02 I-0.469 J-0.52 F1000.
X-41.531 Y-82.98 I0.469 J0.52
X-42.469 Y-84.02 Z1.923 I-0.469 J-0.52 F333.
X-41.531 Y-82.98 Z1.846 I0.469 J0.52
X-42.469 Y-84.02 Z1.77 I-0.469 J-0.52
X-41.952 Y-84.198 Z1.75 I0.469 J0.52
X-42.048 Y-82.802 I-0.048 J0.698 F1000.
X-41.952 Y-84.198 I0.048 J-0.698
X-42.048 Y-82.802 Z1.673 I-0.048 J0.698 F333.
X-41.952 Y-84.198 Z1.596 I0.048 J-0.698
X-42.048 Y-82.802 Z1.52 I-0.048 J0.698
X-42.535 Y-83.049 Z1.5 I0.048 J-0.698
X-41.465 Y-83.951 I0.535 J-0.451 F1000.
X-42.535 Y-83.049 I-0.535 J0.451
X-41.465 Y-83.951 Z1.423 I0.535 J-0.451 F333.
X-42.535 Y-83.049 Z1.346 I-0.535 J0.451
X-41.465 Y-83.951 Z1.27 I0.535 J-0.451
X-41.304 Y-83.428 Z1.25 I-0.535 J0.451
X-42.696 Y-83.572 I-0.696 J-0.072 F1000.
X-41.304 Y-83.428 I0.696 J0.072
X-42.696 Y-83.572 Z1.173 I-0.696 J-0.072 F333.
X-41.304 Y-83.428 Z1.096 I0.696 J0.072
X-42.696 Y-83.572 Z1.02 I-0.696 J-0.072
X-42.432 Y-84.05 Z1. I0.696 J0.072
X-41.568 Y-82.95 I0.432 J0.55 F1000.
X-42.432 Y-84.05 I-0.432 J-0.55
X-41.568 Y-82.95 Z0.923 I0.432 J0.55 F333.
X-42.432 Y-84.05 Z0.846 I-0.432 J-0.55
X-41.568 Y-82.95 Z0.77 I0.432 J0.55
X-42.095 Y-82.807 Z0.75 I-0.432 J-0.55
X-41.905 Y-84.193 I0.095 J-0.693 F1000.
X-42.095 Y-82.807 I-0.095 J0.693
X-41.905 Y-84.193 Z0.673 I0.095 J-0.693 F333.
X-42.095 Y-82.807 Z0.596 I-0.095 J0.693
X-41.905 Y-84.193 Z0.52 I0.095 J-0.693
X-41.435 Y-83.913 Z0.5 I-0.095 J0.693
X-42.565 Y-83.087 I-0.565 J0.413 F1000.
X-41.435 Y-83.913 I0.565 J-0.413
X-42.565 Y-83.087 Z0.423 I-0.565 J0.413 F333.
X-41.435 Y-83.913 Z0.346 I0.565 J-0.413
X-42.565 Y-83.087 Z0.27 I-0.565 J0.413
X-42.69 Y-83.619 Z0.25 I0.565 J-0.413
X-41.31 Y-83.381 I0.69 J0.119 F1000.
X-42.69 Y-83.619 I-0.69 J-0.119
X-41.31 Y-83.381 Z0.173 I0.69 J0.119 F333.
X-42.69 Y-83.619 Z0.096 I-0.69 J-0.119
X-41.31 Y-83.381 Z0.02 I0.69 J0.119
X-41.606 Y-82.921 Z0. I-0.69 J-0.119
X-42.394 Y-84.079 I-0.394 J-0.579 F1000.
X-41.606 Y-82.921 I0.394 J0.579
X-42.394 Y-84.079 Z-0.077 I-0.394 J-0.579 F333.
X-41.606 Y-82.921 Z-0.154 I0.394 J0.579
X-42.394 Y-84.079 Z-0.23 I-0.394 J-0.579
X-41.858 Y-84.185 Z-0.25 I0.394 J0.579
X-42.142 Y-82.815 I-0.142 J0.685 F1000.
X-41.858 Y-84.185 I0.142 J-0.685
X-42.142 Y-82.815 Z-0.327 I-0.142 J0.685 F333.
X-41.858 Y-84.185 Z-0.404 I0.142 J-0.685
X-42.142 Y-82.815 Z-0.48 I-0.142 J0.685
X-42.592 Y-83.126 Z-0.5 I0.142 J-0.685
X-41.408 Y-83.874 I0.592 J-0.374 F1000.
X-42.592 Y-83.126 I-0.592 J0.374
G1 X-42.612 Y-83.172
X-42.616 Y-83.222
X-42.605 Y-83.271
X-42.58 Y-83.314
X-42.542 Y-83.347
X-42.407 Y-83.432
X-42.365 Y-83.459 Z-0.492
X-42.327 Y-83.482 Z-0.469
X-42.297 Y-83.501 Z-0.434
X-42.278 Y-83.514 Z-0.389
X-42.271 Y-83.518 Z-0.34
G0 Z5.
X-42.029 Y-5.729
G1 Z4.25 F333.
Z3.66
X-42.034 Y-5.724 Z3.611 F1000.
X-42.049 Y-5.707 Z3.566
X-42.073 Y-5.681 Z3.531
X-42.103 Y-5.647 Z3.508
X-42.136 Y-5.611 Z3.5
X-42.243 Y-5.492
X-42.282 Y-5.46
X-42.329 Y-5.443
X-42.379 Y-5.44
X-42.427 Y-5.453
X-42.469 Y-5.48
G3 X-41.531 Y-6.52 Z3.423 I0.469 J-0.52 F333.
X-42.469 Y-5.48 Z3.346 I-0.469 J0.52
X-41.531 Y-6.52 Z3.27 I0.469 J-0.52
X-42.469 Y-5.48 Z3.193 I-0.469 J0.52
X-41.531 Y-6.52 Z3.116 I0.469 J-0.52
X-42.469 Y-5.48 Z3.039 I-0.469 J0.52
X-41.531 Y-6.52 Z2.962 I0.469 J-0.52
X-42.469 Y-5.48 Z2.886 I-0.469 J0.52
X-41.531 Y-6.52 Z2.809 I0.469 J-0.52
X-42. Y-5.3 Z2.75 I-0.469 J0.52
Y-6.7 I0. J-0.7 F1000.
Y-5.3 I0. J0.7
Y-6.7 Z2.673 I0. J-0.7 F333.
Y-5.3 Z2.596 I0. J0.7
Y-6.7 Z2.52 I0. J-0.7
X-41.497 Y-6.486 Z2.5 I0. J0.7
X-42.503 Y-5.514 I-0.503 J0.486 F1000.
X-41.497 Y-6.486 I0.503 J-0.486
X-42.503 Y-5.514 Z2.423 I-0.503 J0.486 F333.
X-41.497 Y-6.486 Z2.346 I0.503 J-0.486
X-42.503 Y-5.514 Z2.27 I-0.503 J0.486
X-42.7 Y-6.024 Z2.25 I0.503 J-0.486
X-41.3 Y-5.976 I0.7 J0.024 F1000.
X-42.7 Y-6.024 I-0.7 J-0.024
X-41.3 Y-5.976 Z2.173 I0.7 J0.024 F333.
X-42.7 Y-6.024 Z2.096 I-0.7 J-0.024
X-41.3 Y-5.976 Z2.02 I0.7 J0.024
X-41.531 Y-5.48 Z2. I-0.7 J-0.024
X-42.469 Y-6.52 I-0.469 J-0.52 F1000.
X-41.531 Y-5.48 I0.469 J0.52
X-42.469 Y-6.52 Z1.923 I-0.469 J-0.52 F333.
X-41.531 Y-5.48 Z1.846 I0.469 J0.52
X-42.469 Y-6.52 Z1.77 I-0.469 J-0.52
X-41.952 Y-6.698 Z1.75 I0.469 J0.52
X-42.048 Y-5.302 I-0.048 J0.698 F1000.
X-41.952 Y-6.698 I0.048 J-0.698
X-42.048 Y-5.302 Z1.673 I-0.048 J0.698 F333.
X-41.952 Y-6.698 Z1.596 I0.048 J-0.698
X-42.048 Y-5.302 Z1.52 I-0.048 J0.698
X-42.535 Y-5.549 Z1.5 I0.048 J-0.698
X-41.465 Y-6.451 I0.535 J-0.451 F1000.
X-42.535 Y-5.549 I-0.535 J0.451
X-41.465 Y-6.451 Z1.423 I0.535 J-0.451 F333.
X-42.535 Y-5.549 Z1.346 I-0.535 J0.451
X-41.465 Y-6.451 Z1.27 I0.535 J-0.451
X-41.304 Y-5.928 Z1.25 I-0.535 J0.451
X-42.696 Y-6.072 I-0.696 J-0.072 F1000.
X-41.304 Y-5.928 I0.696 J0.072
X-42.696 Y-6.072 Z1.173 I-0.696 J-0.072 F333.
X-41.304 Y-5.928 Z1.096 I0.696 J0.072
X-42.696 Y-6.072 Z1.02 I-0.696 J-0.072
X-42.432 Y-6.55 Z1. I0.696 J0.072
X-41.568 Y-5.45 I0.432 J0.55 F1000.
X-42.432 Y-6.55 I-0.432 J-0.55
X-41.568 Y-5.45 Z0.923 I0.432 J0.55 F333.
X-42.432 Y-6.55 Z0.846 I-0.432 J-0.55
X-41.568 Y-5.45 Z0.77 I0.432 J0.55
X-42.095 Y-5.307 Z0.75 I-0.432 J-0.55
X-41.905 Y-6.693 I0.095 J-0.693 F1000.
X-42.095 Y-5.307 I-0.095 J0.693
X-41.905 Y-6.693 Z0.673 I0.095 J-0.693 F333.
X-42.095 Y-5.307 Z0.596 I-0.095 J0.693
X-41.905 Y-6.693 Z0.52 I0.095 J-0.693
X-41.435 Y-6.413 Z0.5 I-0.095 J0.693
X-42.565 Y-5.587 I-0.565 J0.413 F1000.
X-41.435 Y-6.413 I0.565 J-0.413
X-42.565 Y-5.587 Z0.423 I-0.565 J0.413 F333.
X-41.435 Y-6.413 Z0.346 I0.565 J-0.413
X-42.565 Y-5.587 Z0.27 I-0.565 J0.413
X-42.69 Y-6.119 Z0.25 I0.565 J-0.413
X-41.31 Y-5.881 I0.69 J0.119 F1000.
X-42.69 Y-6.119 I-0.69 J-0.119
X-41.31 Y-5.881 Z0.173 I0.69 J0.119 F333.
X-42.69 Y-6.119 Z0.096 I-0.69 J-0.119
X-41.31 Y-5.881 Z0.02 I0.69 J0.119
X-41.606 Y-5.421 Z0. I-0.69 J-0.119
X-42.394 Y-6.579 I-0.394 J-0.579 F1000.
X-41.606 Y-5.421 I0.394 J0.579
X-42.394 Y-6.579 Z-0.077 I-0.394 J-0.579 F333.
X-41.606 Y-5.421 Z-0.154 I0.394 J0.579
X-42.394 Y-6.579 Z-0.23 I-0.394 J-0.579
X-41.858 Y-6.685 Z-0.25 I0.394 J0.579
X-42.142 Y-5.315 I-0.142 J0.685 F1000.
X-41.858 Y-6.685 I0.142 J-0.685
X-42.142 Y-5.315 Z-0.327 I-0.142 J0.685 F333.
X-41.858 Y-6.685 Z-0.404 I0.142 J-0.685
X-42.142 Y-5.315 Z-0.48 I-0.142 J0.685
X-42.592 Y-5.626 Z-0.5 I0.142 J-0.685
X-41.408 Y-6.374 I0.592 J-0.374 F1000.
X-42.592 Y-5.626 I-0.592 J0.374
G1 X-42.612 Y-5.672
X-42.616 Y-5.722
X-42.605 Y-5.771
X-42.58 Y-5.814
X-42.542 Y-5.847
X-42.407 Y-5.932
X-42.365 Y-5.959 Z-0.492
X-42.327 Y-5.982 Z-0.469
X-42.297 Y-6.001 Z-0.434
X-42.278 Y-6.014 Z-0.389
X-42.271 Y-6.018 Z-0.34
G0 Z5.
X-37.719 Y21.389
G1 Z4.25 F333.
Z3.66
X-37.72 Y21.381 Z3.611 F1000.
X-37.721 Y21.359 Z3.566
X-37.723 Y21.323 Z3.531
X-37.725 Y21.279 Z3.508
X-37.728 Y21.229 Z3.5
X-37.737 Y21.07
X-37.732 Y21.02
X-37.711 Y20.974
X-37.678 Y20.937
X-37.635 Y20.912
X-37.586 Y20.901
G3 X-37.514 Y22.199 Z3.429 I0.036 J0.649 F333.
X-37.586 Y20.901 Z3.357 I-0.036 J-0.649
X-37.514 Y22.199 Z3.286 I0.036 J0.649
X-37.586 Y20.901 Z3.215 I-0.036 J-0.649
X-37.514 Y22.199 Z3.143 I0.036 J0.649
X-37.586 Y20.901 Z3.072 I-0.036 J-0.649
X-37.514 Y22.199 Z3.001 I0.036 J0.649
X-37.586 Y20.901 Z2.93 I-0.036 J-0.649
X-37.514 Y22.199 Z2.858 I0.036 J0.649
X-37.586 Y20.901 Z2.787 I-0.036 J-0.649
X-36.9 Y21.55 Z2.75 I0.036 J0.649
X-38.2 I-0.65 J0. F1000.
X-36.9 I0.65 J0.
X-38.2 Z2.679 I-0.65 J0. F333.
X-36.9 Z2.607 I0.65 J0.
X-38.2 Z2.536 I-0.65 J0.
X-37.538 Y20.9 Z2.5 I0.65 J0.
X-37.562 Y22.2 I-0.012 J0.65 F1000.
X-37.538 Y20.9 I0.012 J-0.65
X-37.562 Y22.2 Z2.429 I-0.012 J0.65 F333.
X-37.538 Y20.9 Z2.357 I0.012 J-0.65
X-37.562 Y22.2 Z2.286 I-0.012 J0.65
X-38.2 Y21.526 Z2.25 I0.012 J-0.65
X-36.9 Y21.574 I0.65 J0.024 F1000.
X-38.2 Y21.526 I-0.65 J-0.024
X-36.9 Y21.574 Z2.179 I0.65 J0.024 F333.
X-38.2 Y21.526 Z2.107 I-0.65 J-0.024
X-36.9 Y21.574 Z2.036 I0.65 J0.024
X-37.586 Y22.199 Z2. I-0.65 J-0.024
X-37.514 Y20.901 I0.036 J-0.649 F1000.
X-37.586 Y22.199 I-0.036 J0.649
X-37.514 Y20.901 Z1.929 I0.036 J-0.649 F333.
X-37.586 Y22.199 Z1.857 I-0.036 J0.649
X-37.514 Y20.901 Z1.786 I0.036 J-0.649
X-36.902 Y21.598 Z1.75 I-0.036 J0.649
X-38.198 Y21.502 I-0.648 J-0.048 F1000.
X-36.902 Y21.598 I0.648 J0.048
X-38.198 Y21.502 Z1.679 I-0.648 J-0.048 F333.
X-36.902 Y21.598 Z1.607 I0.648 J0.048
X-38.198 Y21.502 Z1.536 I-0.648 J-0.048
X-37.49 Y20.903 Z1.5 I0.648 J0.048
X-37.61 Y22.197 I-0.06 J0.647 F1000.
X-37.49 Y20.903 I0.06 J-0.647
X-37.61 Y22.197 Z1.429 I-0.06 J0.647 F333.
X-37.49 Y20.903 Z1.357 I0.06 J-0.647
X-37.61 Y22.197 Z1.286 I-0.06 J0.647
X-38.196 Y21.479 Z1.25 I0.06 J-0.647
X-36.904 Y21.621 I0.646 J0.071 F1000.
X-38.196 Y21.479 I-0.646 J-0.071
X-36.904 Y21.621 Z1.179 I0.646 J0.071 F333.
X-38.196 Y21.479 Z1.107 I-0.646 J-0.071
X-36.904 Y21.621 Z1.036 I0.646 J0.071
X-37.633 Y22.195 Z1. I-0.646 J-0.071
X-37.467 Y20.905 I0.083 J-0.645 F1000.
X-37.633 Y22.195 I-0.083 J0.645
X-37.467 Y20.905 Z0.929 I0.083 J-0.645 F333.
X-37.633 Y22.195 Z0.857 I-0.083 J0.645
X-37.467 Y20.905 Z0.786 I0.083 J-0.645
X-36.907 Y21.645 Z0.75 I-0.083 J0.645
X-38.193 Y21.455 I-0.643 J-0.095 F1000.
X-36.907 Y21.645 I0.643 J0.095
X-38.193 Y21.455 Z0.679 I-0.643 J-0.095 F333.
X-36.907 Y21.645 Z0.607 I0.643 J0.095
X-38.193 Y21.455 Z0.536 I-0.643 J-0.095
X-37.443 Y20.909 Z0.5 I0.643 J0.095
X-37.657 Y22.191 I-0.107 J0.641 F1000.
X-37.443 Y20.909 I0.107 J-0.641
X-37.657 Y22.191 Z0.429 I-0.107 J0.641 F333.
X-37.443 Y20.909 Z0.357 I0.107 J-0.641
X-37.657 Y22.191 Z0.286 I-0.107 J0.641
X-38.189 Y21.431 Z0.25 I0.107 J-0.641
X-36.911 Y21.669 I0.639 J0.119 F1000.
X-38.189 Y21.431 I-0.639 J-0.119
X-36.911 Y21.669 Z0.179 I0.639 J0.119 F333.
X-38.189 Y21.431 Z0.107 I-0.639 J-0.119
X-36.911 Y21.669 Z0.036 I0.639 J0.119
X-37.68 Y22.187 Z0. I-0.639 J-0.119
X-37.42 Y20.913 I0.13 J-0.637 F1000.
X-37.68 Y22.187 I-0.13 J0.637
X-37.42 Y20.913 Z-0.071 I0.13 J-0.637 F333.
X-37.68 Y22.187 Z-0.143 I-0.13 J0.637
X-37.42 Y20.913 Z-0.214 I0.13 J-0.637
X-36.916 Y21.692 Z-0.25 I-0.13 J0.637
X-38.184 Y21.408 I-0.634 J-0.142 F1000.
X-36.916 Y21.692 I0.634 J0.142
X-38.184 Y21.408 Z-0.321 I-0.634 J-0.142 F333.
X-36.916 Y21.692 Z-0.393 I0.634 J0.142
X-38.184 Y21.408 Z-0.464 I-0.634 J-0.142
X-37.396 Y20.918 Z-0.5 I0.634 J0.142
X-37.704 Y22.182 I-0.154 J0.632 F1000.
X-37.396 Y20.918 I0.154 J-0.632
G1 X-37.35 Y20.938
X-37.312 Y20.97
X-37.286 Y21.013
X-37.275 Y21.062
X-37.279 Y21.112
X-37.316 Y21.267
X-37.328 Y21.315 Z-0.492
X-37.339 Y21.359 Z-0.469
X-37.347 Y21.393 Z-0.434
X-37.352 Y21.415 Z-0.389
X-37.354 Y21.423 Z-0.34
G0 Z5.
X-37.719 Y52.289
G1 Z4.25 F333.
Z3.66
X-37.72 Y52.281 Z3.611 F1000.
X-37.721 Y52.259 Z3.566
X-37.723 Y52.223 Z3.531
X-37.725 Y52.179 Z3.508
X-37.728 Y52.129 Z3.5
X-37.737 Y51.97
X-37.732 Y51.92
X-37.711 Y51.874
X-37.678 Y51.837
X-37.635 Y51.812
X-37.586 Y51.801
G3 X-37.514 Y53.099 Z3.429 I0.036 J0.649 F333.
X-37.586 Y51.801 Z3.357 I-0.036 J-0.649
X-37.514 Y53.099 Z3.286 I0.036 J0.649
X-37.586 Y51.801 Z3.215 I-0.036 J-0.649
X-37.514 Y53.099 Z3.143 I0.036 J0.649
X-37.586 Y51.801 Z3.072 I-0.036 J-0.649
X-37.514 Y53.099 Z3.001 I0.036 J0.649
X-37.586 Y51.801 Z2.93 I-0.036 J-0.649
X-37.514 Y53.099 Z2.858 I0.036 J0.649
X-37.586 Y51.801 Z2.787 I-0.036 J-0.649
X-36.9 Y52.45 Z2.75 I0.036 J0.649
X-38.2 I-0.65 J0. F1000.
X-36.9 I0.65 J0.
X-38.2 Z2.679 I-0.65 J0. F333.
X-36.9 Z2.607 I0.65 J0.
X-38.2 Z2.536 I-0.65 J0.
X-37.538 Y51.8 Z2.5 I0.65 J0.
X-37.562 Y53.1 I-0.012 J0.65 F1000.
X-37.538 Y51.8 I0.012 J-0.65
X-37.562 Y53.1 Z2.429 I-0.012 J0.65 F333.
X-37.538 Y51.8 Z2.357 I0.012 J-0.65
X-37.562 Y53.1 Z2.286 I-0.012 J0.65
X-38.2 Y52.426 Z2.25 I0.012 J-0.65
X-36.9 Y52.474 I0.65 J0.024 F1000.
X-38.2 Y52.426 I-0.65 J-0.024
X-36.9 Y52.474 Z2.179 I0.65 J0.024 F333.
X-38.2 Y52.426 Z2.107 I-0.65 J-0.024
X-36.9 Y52.474 Z2.036 I0.65 J0.024
X-37.586 Y53.099 Z2. I-0.65 J-0.024
X-37.514 Y51.801 I0.036 J-0.649 F1000.
X-37.586 Y53.099 I-0.036 J0.649
X-37.514 Y51.801 Z1.929 I0.036 J-0.649 F333.
X-37.586 Y53.099 Z1.857 I-0.036 J0.649
X-37.514 Y51.801 Z1.786 I0.036 J-0.649
X-36.902 Y52.498 Z1.75 I-0.036 J0.649
X-38.198 Y52.402 I-0.648 J-0.048 F1000.
X-36.902 Y52.498 I0.648 J0.048
X-38.198 Y52.402 Z1.679 I-0.648 J-0.048 F333.
X-36.902 Y52.498 Z1.607 I0.648 J0.048
X-38.198 Y52.402 Z1.536 I-0.648 J-0.048
X-37.49 Y51.803 Z1.5 I0.648 J0.048
X-37.61 Y53.097 I-0.06 J0.647 F1000.
X-37.49 Y51.803 I0.06 J-0.647
X-37.61 Y53.097 Z1.429 I-0.06 J0.647 F333.
X-37.49 Y51.803 Z1.357 I0.06 J-0.647
X-37.61 Y53.097 Z1.286 I-0.06 J0.647
X-38.196 Y52.379 Z1.25 I0.06 J-0.647
X-36.904 Y52.521 I0.646 J0.071 F1000.
X-38.196 Y52.379 I-0.646 J-0.071
X-36.904 Y52.521 Z1.179 I0.646 J0.071 F333.
X-38.196 Y52.379 Z1.107 I-0.646 J-0.071
X-36.904 Y52.521 Z1.036 I0.646 J0.071
X-37.633 Y53.095 Z1. I-0.646 J-0.071
X-37.467 Y51.805 I0.083 J-0.645 F1000.
X-37.633 Y53.095 I-0.083 J0.645
X-37.467 Y51.805 Z0.929 I0.083 J-0.645 F333.
X-37.633 Y53.095 Z0.857 I-0.083 J0.645
X-37.467 Y51.805 Z0.786 I0.083 J-0.645
X-36.907 Y52.545 Z0.75 I-0.083 J0.645
X-38.193 Y52.355 I-0.643 J-0.095 F1000.
X-36.907 Y52.545 I0.643 J0.095
X-38.193 Y52.355 Z0.679 I-0.643 J-0.095 F333.
X-36.907 Y52.545 Z0.607 I0.643 J0.095
X-38.193 Y52.355 Z0.536 I-0.643 J-0.095
X-37.443 Y51.809 Z0.5 I0.643 J0.095
X-37.657 Y53.091 I-0.107 J0.641 F1000.
X-37.443 Y51.809 I0.107 J-0.641
X-37.657 Y53.091 Z0.429 I-0.107 J0.641 F333.
X-37.443 Y51.809 Z0.357 I0.107 J-0.641
X-37.657 Y53.091 Z0.286 I-0.107 J0.641
X-38.189 Y52.331 Z0.25 I0.107 J-0.641
X-36.911 Y52.569 I0.639 J0.119 F1000.
X-38.189 Y52.331 I-0.639 J-0.119
X-36.911 Y52.569 Z0.179 I0.639 J0.119 F333.
X-38.189 Y52.331 Z0.107 I-0.639 J-0.119
X-36.911 Y52.569 Z0.036 I0.639 J0.119
X-37.68 Y53.087 Z0. I-0.639 J-0.119
X-37.42 Y51.813 I0.13 J-0.637 F1000.
X-37.68 Y53.087 I-0.13 J0.637
X-37.42 Y51.813 Z-0.071 I0.13 J-0.637 F333.
X-37.68 Y53.087 Z-0.143 I-0.13 J0.637
X-37.42 Y51.813 Z-0.214 I0.13 J-0.637
X-36.916 Y52.592 Z-0.25 I-0.13 J0.637
X-38.184 Y52.308 I-0.634 J-0.142 F1000.
X-36.916 Y52.592 I0.634 J0.142
X-38.184 Y52.308 Z-0.321 I-0.634 J-0.142 F333.
X-36.916 Y52.592 Z-0.393 I0.634 J0.142
X-38.184 Y52.308 Z-0.464 I-0.634 J-0.142
X-37.396 Y51.818 Z-0.5 I0.634 J0.142
X-37.704 Y53.082 I-0.154 J0.632 F1000.
X-37.396 Y51.818 I0.154 J-0.632
G1 X-37.35 Y51.838
X-37.312 Y51.87
X-37.286 Y51.913
X-37.275 Y51.962
X-37.279 Y52.012
X-37.316 Y52.167
X-37.328 Y52.215 Z-0.492
X-37.339 Y52.259 Z-0.469
X-37.347 Y52.293 Z-0.434
X-37.352 Y52.315 Z-0.389
X-37.354 Y52.323 Z-0.34
G0 Z5.
X0.271 Y69.279
G1 Z4.25 F333.
Z3.66
X0.276 Y69.284 Z3.611 F1000.
X0.293 Y69.299 Z3.566
X0.319 Y69.323 Z3.531
X0.353 Y69.353 Z3.508
X0.389 Y69.386 Z3.5
X0.508 Y69.493
X0.54 Y69.532
X0.557 Y69.579
X0.56 Y69.629
X0.547 Y69.677
X0.52 Y69.719
G3 X-0.52 Y68.781 Z3.423 I-0.52 J-0.469 F333.
X0.52 Y69.719 Z3.346 I0.52 J0.469
X-0.52 Y68.781 Z3.27 I-0.52 J-0.469
X0.52 Y69.719 Z3.193 I0.52 J0.469
X-0.52 Y68.781 Z3.116 I-0.52 J-0.469
X0.52 Y69.719 Z3.039 I0.52 J0.469
X-0.52 Y68.781 Z2.962 I-0.52 J-0.469
X0.52 Y69.719 Z2.886 I0.52 J0.469
X-0.52 Y68.781 Z2.809 I-0.52 J-0.469
X0.7 Y69.25 Z2.75 I0.52 J0.469
X-0.7 I-0.7 J0. F1000.
X0.7 I0.7 J0.
X-0.7 Z2.673 I-0.7 J0. F333.
X0.7 Z2.596 I0.7 J0.
X-0.7 Z2.52 I-0.7 J0.
X-0.486 Y68.747 Z2.5 I0.7 J0.
X0.486 Y69.753 I0.486 J0.503 F1000.
X-0.486 Y68.747 I-0.486 J-0.503
X0.486 Y69.753 Z2.423 I0.486 J0.503 F333.
X-0.486 Y68.747 Z2.346 I-0.486 J-0.503
X0.486 Y69.753 Z2.27 I0.486 J0.503
X-0.024 Y69.95 Z2.25 I-0.486 J-0.503
X0.024 Y68.55 I0.024 J-0.7 F1000.
X-0.024 Y69.95 I-0.024 J0.7
X0.024 Y68.55 Z2.173 I0.024 J-0.7 F333.
X-0.024 Y69.95 Z2.096 I-0.024 J0.7
X0.024 Y68.55 Z2.02 I0.024 J-0.7
X0.52 Y68.781 Z2. I-0.024 J0.7
X-0.52 Y69.719 I-0.52 J0.469 F1000.
X0.52 Y68.781 I0.52 J-0.469
X-0.52 Y69.719 Z1.923 I-0.52 J0.469 F333.
X0.52 Y68.781 Z1.846 I0.52 J-0.469
X-0.52 Y69.719 Z1.77 I-0.52 J0.469
X-0.698 Y69.202 Z1.75 I0.52 J-0.469
X0.698 Y69.298 I0.698 J0.048 F1000.
X-0.698 Y69.202 I-0.698 J-0.048
X0.698 Y69.298 Z1.673 I0.698 J0.048 F333.
X-0.698 Y69.202 Z1.596 I-0.698 J-0.048
X0.698 Y69.298 Z1.52 I0.698 J0.048
X0.451 Y69.785 Z1.5 I-0.698 J-0.048
X-0.451 Y68.715 I-0.451 J-0.535 F1000.
X0.451 Y69.785 I0.451 J0.535
X-0.451 Y68.715 Z1.423 I-0.451 J-0.535 F333.
X0.451 Y69.785 Z1.346 I0.451 J0.535
X-0.451 Y68.715 Z1.27 I-0.451 J-0.535
X0.072 Y68.554 Z1.25 I0.451 J0.535
X-0.072 Y69.946 I-0.072 J0.696 F1000.
X0.072 Y68.554 I0.072 J-0.696
X-0.072 Y69.946 Z1.173 I-0.072 J0.696 F333.
X0.072 Y68.554 Z1.096 I0.072 J-0.696
X-0.072 Y69.946 Z1.02 I-0.072 J0.696
X-0.55 Y69.682 Z1. I0.072 J-0.696
X0.55 Y68.818 I0.55 J-0.432 F1000.
X-0.55 Y69.682 I-0.55 J0.432
X0.55 Y68.818 Z0.923 I0.55 J-0.432 F333.
X-0.55 Y69.682 Z0.846 I-0.55 J0.432
X0.55 Y68.818 Z0.77 I0.55 J-0.432
X0.693 Y69.345 Z0.75 I-0.55 J0.432
X-0.693 Y69.155 I-0.693 J-0.095 F1000.
X0.693 Y69.345 I0.693 J0.095
X-0.693 Y69.155 Z0.673 I-0.693 J-0.095 F333.
X0.693 Y69.345 Z0.596 I0.693 J0.095
X-0.693 Y69.155 Z0.52 I-0.693 J-0.095
X-0.413 Y68.685 Z0.5 I0.693 J0.095
X0.413 Y69.815 I0.413 J0.565 F1000.
X-0.413 Y68.685 I-0.413 J-0.565
X0.413 Y69.815 Z0.423 I0.413 J0.565 F333.
X-0.413 Y68.685 Z0.346 I-0.413 J-0.565
X0.413 Y69.815 Z0.27 I0.413 J0.565
X-0.119 Y69.94 Z0.25 I-0.413 J-0.565
X0.119 Y68.56 I0.119 J-0.69 F1000.
X-0.119 Y69.94 I-0.119 J0.69
X0.119 Y68.56 Z0.173 I0.119 J-0.69 F333.
X-0.119 Y69.94 Z0.096 I-0.119 J0.69
X0.119 Y68.56 Z0.02 I0.119 J-0.69
X0.579 Y68.856 Z0. I-0.119 J0.69
X-0.579 Y69.644 I-0.579 J0.394 F1000.
X0.579 Y68.856 I0.579 J-0.394
X-0.579 Y69.644 Z-0.077 I-0.579 J0.394 F333.
X0.579 Y68.856 Z-0.154 I0.579 J-0.394
X-0.579 Y69.644 Z-0.23 I-0.579 J0.394
X-0.685 Y69.108 Z-0.25 I0.579 J-0.394
X0.685 Y69.392 I0.685 J0.142 F1000.
X-0.685 Y69.108 I-0.685 J-0.142
X0.685 Y69.392 Z-0.327 I0.685 J0.142 F333.
X-0.685 Y69.108 Z-0.404 I-0.685 J-0.142
X0.685 Y69.392 Z-0.48 I0.685 J0.142
X0.374 Y69.842 Z-0.5 I-0.685 J-0.142
X-0.374 Y68.658 I-0.374 J-0.592 F1000.
X0.374 Y69.842 I0.374 J0.592
G1 X0.328 Y69.862
X0.278 Y69.866
X0.229 Y69.855
X0.186 Y69.83
X0.153 Y69.792
X0.068 Y69.657
X0.041 Y69.615 Z-0.492
X0.018 Y69.577 Z-0.469
X-0.001 Y69.547 Z-0.434
X-0.014 Y69.528 Z-0.389
X-0.018 Y69.521 Z-0.34
G0 Z5.
X37.189 Y52.619
G1 Z4.25 F333.
Z3.66
X37.181 Y52.62 Z3.611 F1000.
X37.159 Y52.621 Z3.566
X37.123 Y52.623 Z3.531
X37.079 Y52.625 Z3.508
X37.029 Y52.628 Z3.5
X36.87 Y52.637
X36.82 Y52.632
X36.774 Y52.611
X36.737 Y52.578
X36.712 Y52.535
X36.701 Y52.486
G3 X37.999 Y52.414 Z3.429 I0.649 J-0.036 F333.
X36.701 Y52.486 Z3.357 I-0.649 J0.036
X37.999 Y52.414 Z3.286 I0.649 J-0.036
X36.701 Y52.486 Z3.215 I-0.649 J0.036
X37.999 Y52.414 Z3.143 I0.649 J-0.036
X36.701 Y52.486 Z3.072 I-0.649 J0.036
X37.999 Y52.414 Z3.001 I0.649 J-0.036
X36.701 Y52.486 Z2.93 I-0.649 J0.036
X37.999 Y52.414 Z2.858 I0.649 J-0.036
X36.701 Y52.486 Z2.787 I-0.649 J0.036
X37.35 Y51.8 Z2.75 I0.649 J-0.036
Y53.1 I0. J0.65 F1000.
Y51.8 I0. J-0.65
Y53.1 Z2.679 I0. J0.65 F333.
Y51.8 Z2.607 I0. J-0.65
Y53.1 Z2.536 I0. J0.65
X36.7 Y52.438 Z2.5 I0. J-0.65
X38. Y52.462 I0.65 J0.012 F1000.
X36.7 Y52.438 I-0.65 J-0.012
X38. Y52.462 Z2.429 I0.65 J0.012 F333.
X36.7 Y52.438 Z2.357 I-0.65 J-0.012
X38. Y52.462 Z2.286 I0.65 J0.012
X37.326 Y53.1 Z2.25 I-0.65 J-0.012
X37.374 Y51.8 I0.024 J-0.65 F1000.
X37.326 Y53.1 I-0.024 J0.65
X37.374 Y51.8 Z2.179 I0.024 J-0.65 F333.
X37.326 Y53.1 Z2.107 I-0.024 J0.65
X37.374 Y51.8 Z2.036 I0.024 J-0.65
X37.999 Y52.486 Z2. I-0.024 J0.65
X36.701 Y52.414 I-0.649 J-0.036 F1000.
X37.999 Y52.486 I0.649 J0.036
X36.701 Y52.414 Z1.929 I-0.649 J-0.036 F333.
X37.999 Y52.486 Z1.857 I0.649 J0.036
X36.701 Y52.414 Z1.786 I-0.649 J-0.036
X37.398 Y51.802 Z1.75 I0.649 J0.036
X37.302 Y53.098 I-0.048 J0.648 F1000.
X37.398 Y51.802 I0.048 J-0.648
X37.302 Y53.098 Z1.679 I-0.048 J0.648 F333.
X37.398 Y51.802 Z1.607 I0.048 J-0.648
X37.302 Y53.098 Z1.536 I-0.048 J0.648
X36.703 Y52.39 Z1.5 I0.048 J-0.648
X37.997 Y52.51 I0.647 J0.06 F1000.
X36.703 Y52.39 I-0.647 J-0.06
X37.997 Y52.51 Z1.429 I0.647 J0.06 F333.
X36.703 Y52.39 Z1.357 I-0.647 J-0.06
X37.997 Y52.51 Z1.286 I0.647 J0.06
X37.279 Y53.096 Z1.25 I-0.647 J-0.06
X37.421 Y51.804 I0.071 J-0.646 F1000.
X37.279 Y53.096 I-0.071 J0.646
X37.421 Y51.804 Z1.179 I0.071 J-0.646 F333.
X37.279 Y53.096 Z1.107 I-0.071 J0.646
X37.421 Y51.804 Z1.036 I0.071 J-0.646
X37.995 Y52.533 Z1. I-0.071 J0.646
X36.705 Y52.367 I-0.645 J-0.083 F1000.
X37.995 Y52.533 I0.645 J0.083
X36.705 Y52.367 Z0.929 I-0.645 J-0.083 F333.
X37.995 Y52.533 Z0.857 I0.645 J0.083
X36.705 Y52.367 Z0.786 I-0.645 J-0.083
X37.445 Y51.807 Z0.75 I0.645 J0.083
X37.255 Y53.093 I-0.095 J0.643 F1000.
X37.445 Y51.807 I0.095 J-0.643
X37.255 Y53.093 Z0.679 I-0.095 J0.643 F333.
X37.445 Y51.807 Z0.607 I0.095 J-0.643
X37.255 Y53.093 Z0.536 I-0.095 J0.643
X36.709 Y52.343 Z0.5 I0.095 J-0.643
X37.991 Y52.557 I0.641 J0.107 F1000.
X36.709 Y52.343 I-0.641 J-0.107
X37.991 Y52.557 Z0.429 I0.641 J0.107 F333.
X36.709 Y52.343 Z0.357 I-0.641 J-0.107
X37.991 Y52.557 Z0.286 I0.641 J0.107
X37.231 Y53.089 Z0.25 I-0.641 J-0.107
X37.469 Y51.811 I0.119 J-0.639 F1000.
X37.231 Y53.089 I-0.119 J0.639
X37.469 Y51.811 Z0.179 I0.119 J-0.639 F333.
X37.231 Y53.089 Z0.107 I-0.119 J0.639
X37.469 Y51.811 Z0.036 I0.119 J-0.639
X37.987 Y52.58 Z0. I-0.119 J0.639
X36.713 Y52.32 I-0.637 J-0.13 F1000.
X37.987 Y52.58 I0.637 J0.13
X36.713 Y52.32 Z-0.071 I-0.637 J-0.13 F333.
X37.987 Y52.58 Z-0.143 I0.637 J0.13
X36.713 Y52.32 Z-0.214 I-0.637 J-0.13
X37.492 Y51.816 Z-0.25 I0.637 J0.13
X37.208 Y53.084 I-0.142 J0.634 F1000.
X37.492 Y51.816 I0.142 J-0.634
X37.208 Y53.084 Z-0.321 I-0.142 J0.634 F333.
X37.492 Y51.816 Z-0.393 I0.142 J-0.634
X37.208 Y53.084 Z-0.464 I-0.142 J0.634
X36.718 Y52.296 Z-0.5 I0.142 J-0.634
X37.982 Y52.604 I0.632 J0.154 F1000.
X36.718 Y52.296 I-0.632 J-0.154
G1 X36.738 Y52.25
X36.77 Y52.212
X36.813 Y52.186
X36.862 Y52.175
X36.912 Y52.179
X37.067 Y52.216
X37.115 Y52.228 Z-0.492
X37.159 Y52.239 Z-0.469
X37.193 Y52.247 Z-0.434
X37.215 Y52.252 Z-0.389
X37.223 Y52.254 Z-0.34
G0 Z5.
X37.519 Y21.711
G1 Z4.25 F333.
Z3.66
X37.52 Y21.719 Z3.611 F1000.
X37.521 Y21.741 Z3.566
X37.523 Y21.777 Z3.531
X37.525 Y21.821 Z3.508
X37.528 Y21.871 Z3.5
X37.537 Y22.03
X37.532 Y22.08
X37.511 Y22.126
X37.478 Y22.163
X37.435 Y22.188
X37.386 Y22.199
G3 X37.314 Y20.901 Z3.429 I-0.036 J-0.649 F333.
X37.386 Y22.199 Z3.357 I0.036 J0.649
X37.314 Y20.901 Z3.286 I-0.036 J-0.649
X37.386 Y22.199 Z3.215 I0.036 J0.649
X37.314 Y20.901 Z3.143 I-0.036 J-0.649
X37.386 Y22.199 Z3.072 I0.036 J0.649
X37.314 Y20.901 Z3.001 I-0.036 J-0.649
X37.386 Y22.199 Z2.93 I0.036 J0.649
X37.314 Y20.901 Z2.858 I-0.036 J-0.649
X37.386 Y22.199 Z2.787 I0.036 J0.649
X36.7 Y21.55 Z2.75 I-0.036 J-0.649
X38. I0.65 J0. F1000.
X36.7 I-0.65 J0.
X38. Z2.679 I0.65 J0. F333.
X36.7 Z2.607 I-0.65 J0.
X38. Z2.536 I0.65 J0.
X37.338 Y22.2 Z2.5 I-0.65 J0.
X37.362 Y20.9 I0.012 J-0.65 F1000.
X37.338 Y22.2 I-0.012 J0.65
X37.362 Y20.9 Z2.429 I0.012 J-0.65 F333.
X37.338 Y22.2 Z2.357 I-0.012 J0.65
X37.362 Y20.9 Z2.286 I0.012 J-0.65
X38. Y21.574 Z2.25 I-0.012 J0.65
X36.7 Y21.526 I-0.65 J-0.024 F1000.
X38. Y21.574 I0.65 J0.024
X36.7 Y21.526 Z2.179 I-0.65 J-0.024 F333.
X38. Y21.574 Z2.107 I0.65 J0.024
X36.7 Y21.526 Z2.036 I-0.65 J-0.024
X37.386 Y20.901 Z2. I0.65 J0.024
X37.314 Y22.199 I-0.036 J0.649 F1000.
X37.386 Y20.901 I0.036 J-0.649
X37.314 Y22.199 Z1.929 I-0.036 J0.649 F333.
X37.386 Y20.901 Z1.857 I0.036 J-0.649
X37.314 Y22.199 Z1.786 I-0.036 J0.649
X36.702 Y21.502 Z1.75 I0.036 J-0.649
X37.998 Y21.598 I0.648 J0.048 F1000.
X36.702 Y21.502 I-0.648 J-0.048
X37.998 Y21.598 Z1.679 I0.648 J0.048 F333.
X36.702 Y21.502 Z1.607 I-0.648 J-0.048
X37.998 Y21.598 Z1.536 I0.648 J0.048
X37.29 Y22.197 Z1.5 I-0.648 J-0.048
X37.41 Y20.903 I0.06 J-0.647 F1000.
X37.29 Y22.197 I-0.06 J0.647
X37.41 Y20.903 Z1.429 I0.06 J-0.647 F333.
X37.29 Y22.197 Z1.357 I-0.06 J0.647
X37.41 Y20.903 Z1.286 I0.06 J-0.647
X37.996 Y21.621 Z1.25 I-0.06 J0.647
X36.704 Y21.479 I-0.646 J-0.071 F1000.
X37.996 Y21.621 I0.646 J0.071
X36.704 Y21.479 Z1.179 I-0.646 J-0.071 F333.
X37.996 Y21.621 Z1.107 I0.646 J0.071
X36.704 Y21.479 Z1.036 I-0.646 J-0.071
X37.433 Y20.905 Z1. I0.646 J0.071
X37.267 Y22.195 I-0.083 J0.645 F1000.
X37.433 Y20.905 I0.083 J-0.645
X37.267 Y22.195 Z0.929 I-0.083 J0.645 F333.
X37.433 Y20.905 Z0.857 I0.083 J-0.645
X37.267 Y22.195 Z0.786 I-0.083 J0.645
X36.707 Y21.455 Z0.75 I0.083 J-0.645
X37.993 Y21.645 I0.643 J0.095 F1000.
X36.707 Y21.455 I-0.643 J-0.095
X37.993 Y21.645 Z0.679 I0.643 J0.095 F333.
X36.707 Y21.455 Z0.607 I-0.643 J-0.095
X37.993 Y21.645 Z0.536 I0.643 J0.095
X37.243 Y22.191 Z0.5 I-0.643 J-0.095
X37.457 Y20.909 I0.107 J-0.641 F1000.
X37.243 Y22.191 I-0.107 J0.641
X37.457 Y20.909 Z0.429 I0.107 J-0.641 F333.
X37.243 Y22.191 Z0.357 I-0.107 J0.641
X37.457 Y20.909 Z0.286 I0.107 J-0.641
X37.989 Y21.669 Z0.25 I-0.107 J0.641
X36.711 Y21.431 I-0.639 J-0.119 F1000.
X37.989 Y21.669 I0.639 J0.119
X36.711 Y21.431 Z0.179 I-0.639 J-0.119 F333.
X37.989 Y21.669 Z0.107 I0.639 J0.119
X36.711 Y21.431 Z0.036 I-0.639 J-0.119
X37.48 Y20.913 Z0. I0.639 J0.119
X37.22 Y22.187 I-0.13 J0.637 F1000.
X37.48 Y20.913 I0.13 J-0.637
X37.22 Y22.187 Z-0.071 I-0.13 J0.637 F333.
X37.48 Y20.913 Z-0.143 I0.13 J-0.637
X37.22 Y22.187 Z-0.214 I-0.13 J0.637
X36.716 Y21.408 Z-0.25 I0.13 J-0.637
X37.984 Y21.692 I0.634 J0.142 F1000.
X36.716 Y21.408 I-0.634 J-0.142
X37.984 Y21.692 Z-0.321 I0.634 J0.142 F333.
X36.716 Y21.408 Z-0.393 I-0.634 J-0.142
X37.984 Y21.692 Z-0.464 I0.634 J0.142
X37.196 Y22.182 Z-0.5 I-0.634 J-0.142
X37.504 Y20.918 I0.154 J-0.632 F1000.
X37.196 Y22.182 I-0.154 J0.632
G1 X37.15 Y22.162
X37.112 Y22.13
X37.086 Y22.087
X37.075 Y22.038
X37.079 Y21.988
X37.116 Y21.833
X37.128 Y21.785 Z-0.492
X37.139 Y21.741 Z-0.469
X37.147 Y21.707 Z-0.434
X37.152 Y21.685 Z-0.389
X37.154 Y21.677 Z-0.34
G0 Z5.
X42.271 Y-5.971
G1 Z4.25 F333.
Z3.66
X42.276 Y-5.966 Z3.611 F1000.
X42.293 Y-5.951 Z3.566
X42.319 Y-5.927 Z3.531
X42.353 Y-5.897 Z3.508
X42.389 Y-5.864 Z3.5
X42.508 Y-5.757
X42.54 Y-5.718
X42.557 Y-5.671
X42.56 Y-5.621
X42.547 Y-5.573
X42.52 Y-5.531
G3 X41.48 Y-6.469 Z3.423 I-0.52 J-0.469 F333.
X42.52 Y-5.531 Z3.346 I0.52 J0.469
X41.48 Y-6.469 Z3.27 I-0.52 J-0.469
X42.52 Y-5.531 Z3.193 I0.52 J0.469
X41.48 Y-6.469 Z3.116 I-0.52 J-0.469
X42.52 Y-5.531 Z3.039 I0.52 J0.469
X41.48 Y-6.469 Z2.962 I-0.52 J-0.469
X42.52 Y-5.531 Z2.886 I0.52 J0.469
X41.48 Y-6.469 Z2.809 I-0.52 J-0.469
X42.7 Y-6. Z2.75 I0.52 J0.469
X41.3 I-0.7 J0. F1000.
X42.7 I0.7 J0.
X41.3 Z2.673 I-0.7 J0. F333.
X42.7 Z2.596 I0.7 J0.
X41.3 Z2.52 I-0.7 J0.
X41.514 Y-6.503 Z2.5 I0.7 J0.
X42.486 Y-5.497 I0.486 J0.503 F1000.
X41.514 Y-6.503 I-0.486 J-0.503
X42.486 Y-5.497 Z2.423 I0.486 J0.503 F333.
X41.514 Y-6.503 Z2.346 I-0.486 J-0.503
X42.486 Y-5.497 Z2.27 I0.486 J0.503
X41.976 Y-5.3 Z2.25 I-0.486 J-0.503
X42.024 Y-6.7 I0.024 J-0.7 F1000.
X41.976 Y-5.3 I-0.024 J0.7
X42.024 Y-6.7 Z2.173 I0.024 J-0.7 F333.
X41.976 Y-5.3 Z2.096 I-0.024 J0.7
X42.024 Y-6.7 Z2.02 I0.024 J-0.7
X42.52 Y-6.469 Z2. I-0.024 J0.7
X41.48 Y-5.531 I-0.52 J0.469 F1000.
X42.52 Y-6.469 I0.52 J-0.469
X41.48 Y-5.531 Z1.923 I-0.52 J0.469 F333.
X42.52 Y-6.469 Z1.846 I0.52 J-0.469
X41.48 Y-5.531 Z1.77 I-0.52 J0.469
X41.302 Y-6.048 Z1.75 I0.52 J-0.469
X42.698 Y-5.952 I0.698 J0.048 F1000.
X41.302 Y-6.048 I-0.698 J-0.048
X42.698 Y-5.952 Z1.673 I0.698 J0.048 F333.
X41.302 Y-6.048 Z1.596 I-0.698 J-0.048
X42.698 Y-5.952 Z1.52 I0.698 J0.048
X42.451 Y-5.465 Z1.5 I-0.698 J-0.048
X41.549 Y-6.535 I-0.451 J-0.535 F1000.
X42.451 Y-5.465 I0.451 J0.535
X41.549 Y-6.535 Z1.423 I-0.451 J-0.535 F333.
X42.451 Y-5.465 Z1.346 I0.451 J0.535
X41.549 Y-6.535 Z1.27 I-0.451 J-0.535
X42.072 Y-6.696 Z1.25 I0.451 J0.535
X41.928 Y-5.304 I-0.072 J0.696 F1000.
X42.072 Y-6.696 I0.072 J-0.696
X41.928 Y-5.304 Z1.173 I-0.072 J0.696 F333.
X42.072 Y-6.696 Z1.096 I0.072 J-0.696
X41.928 Y-5.304 Z1.02 I-0.072 J0.696
X41.45 Y-5.568 Z1. I0.072 J-0.696
X42.55 Y-6.432 I0.55 J-0.432 F1000.
X41.45 Y-5.568 I-0.55 J0.432
X42.55 Y-6.432 Z0.923 I0.55 J-0.432 F333.
X41.45 Y-5.568 Z0.846 I-0.55 J0.432
X42.55 Y-6.432 Z0.77 I0.55 J-0.432
X42.693 Y-5.905 Z0.75 I-0.55 J0.432
X41.307 Y-6.095 I-0.693 J-0.095 F1000.
X42.693 Y-5.905 I0.693 J0.095
X41.307 Y-6.095 Z0.673 I-0.693 J-0.095 F333.
X42.693 Y-5.905 Z0.596 I0.693 J0.095
X41.307 Y-6.095 Z0.52 I-0.693 J-0.095
X41.587 Y-6.565 Z0.5 I0.693 J0.095
X42.413 Y-5.435 I0.413 J0.565 F1000.
X41.587 Y-6.565 I-0.413 J-0.565
X42.413 Y-5.435 Z0.423 I0.413 J0.565 F333.
X41.587 Y-6.565 Z0.346 I-0.413 J-0.565
X42.413 Y-5.435 Z0.27 I0.413 J0.565
X41.881 Y-5.31 Z0.25 I-0.413 J-0.565
X42.119 Y-6.69 I0.119 J-0.69 F1000.
X41.881 Y-5.31 I-0.119 J0.69
X42.119 Y-6.69 Z0.173 I0.119 J-0.69 F333.
X41.881 Y-5.31 Z0.096 I-0.119 J0.69
X42.119 Y-6.69 Z0.02 I0.119 J-0.69
X42.579 Y-6.394 Z0. I-0.119 J0.69
X41.421 Y-5.606 I-0.579 J0.394 F1000.
X42.579 Y-6.394 I0.579 J-0.394
X41.421 Y-5.606 Z-0.077 I-0.579 J0.394 F333.
X42.579 Y-6.394 Z-0.154 I0.579 J-0.394
X41.421 Y-5.606 Z-0.23 I-0.579 J0.394
X41.315 Y-6.142 Z-0.25 I0.579 J-0.394
X42.685 Y-5.858 I0.685 J0.142 F1000.
X41.315 Y-6.142 I-0.685 J-0.142
X42.685 Y-5.858 Z-0.327 I0.685 J0.142 F333.
X41.315 Y-6.142 Z-0.404 I-0.685 J-0.142
X42.685 Y-5.858 Z-0.48 I0.685 J0.142
X42.374 Y-5.408 Z-0.5 I-0.685 J-0.142
X41.626 Y-6.592 I-0.374 J-0.592 F1000.
X42.374 Y-5.408 I0.374 J0.592
G1 X42.328 Y-5.388
X42.278 Y-5.384
X42.229 Y-5.395
X42.186 Y-5.42
X42.153 Y-5.458
X42.068 Y-5.593
X42.041 Y-5.635 Z-0.492
X42.018 Y-5.673 Z-0.469
X41.999 Y-5.703 Z-0.434
X41.986 Y-5.722 Z-0.389
X41.982 Y-5.729 Z-0.34
G0 Z5.
X41.729 Y-83.529
G1 Z4.25 F333.
Z3.66
X41.724 Y-83.534 Z3.611 F1000.
X41.707 Y-83.549 Z3.566
X41.681 Y-83.573 Z3.531
X41.647 Y-83.603 Z3.508
X41.611 Y-83.636 Z3.5
X41.492 Y-83.743
X41.46 Y-83.782
X41.443 Y-83.829
X41.44 Y-83.879
X41.453 Y-83.927
X41.48 Y-83.969
G3 X42.52 Y-83.031 Z3.423 I0.52 J0.469 F333.
X41.48 Y-83.969 Z3.346 I-0.52 J-0.469
X42.52 Y-83.031 Z3.27 I0.52 J0.469
X41.48 Y-83.969 Z3.193 I-0.52 J-0.469
X42.52 Y-83.031 Z3.116 I0.52 J0.469
X41.48 Y-83.969 Z3.039 I-0.52 J-0.469
X42.52 Y-83.031 Z2.962 I0.52 J0.469
X41.48 Y-83.969 Z2.886 I-0.52 J-0.469
X42.52 Y-83.031 Z2.809 I0.52 J0.469
X41.3 Y-83.5 Z2.75 I-0.52 J-0.469
X42.7 I0.7 J0. F1000.
X41.3 I-0.7 J0.
X42.7 Z2.673 I0.7 J0. F333.
X41.3 Z2.596 I-0.7 J0.
X42.7 Z2.52 I0.7 J0.
X42.486 Y-82.997 Z2.5 I-0.7 J0.
X41.514 Y-84.003 I-0.486 J-0.503 F1000.
X42.486 Y-82.997 I0.486 J0.503
X41.514 Y-84.003 Z2.423 I-0.486 J-0.503 F333.
X42.486 Y-82.997 Z2.346 I0.486 J0.503
X41.514 Y-84.003 Z2.27 I-0.486 J-0.503
X42.024 Y-84.2 Z2.25 I0.486 J0.503
X41.976 Y-82.8 I-0.024 J0.7 F1000.
X42.024 Y-84.2 I0.024 J-0.7
X41.976 Y-82.8 Z2.173 I-0.024 J0.7 F333.
X42.024 Y-84.2 Z2.096 I0.024 J-0.7
X41.976 Y-82.8 Z2.02 I-0.024 J0.7
X41.48 Y-83.031 Z2. I0.024 J-0.7
X42.52 Y-83.969 I0.52 J-0.469 F1000.
X41.48 Y-83.031 I-0.52 J0.469
X42.52 Y-83.969 Z1.923 I0.52 J-0.469 F333.
X41.48 Y-83.031 Z1.846 I-0.52 J0.469
X42.52 Y-83.969 Z1.77 I0.52 J-0.469
X42.698 Y-83.452 Z1.75 I-0.52 J0.469
X41.302 Y-83.548 I-0.698 J-0.048 F1000.
X42.698 Y-83.452 I0.698 J0.048
X41.302 Y-83.548 Z1.673 I-0.698 J-0.048 F333.
X42.698 Y-83.452 Z1.596 I0.698 J0.048
X41.302 Y-83.548 Z1.52 I-0.698 J-0.048
X41.549 Y-84.035 Z1.5 I0.698 J0.048
X42.451 Y-82.965 I0.451 J0.535 F1000.
X41.549 Y-84.035 I-0.451 J-0.535
X42.451 Y-82.965 Z1.423 I0.451 J0.535 F333.
X41.549 Y-84.035 Z1.346 I-0.451 J-0.535
X42.451 Y-82.965 Z1.27 I0.451 J0.535
X41.928 Y-82.804 Z1.25 I-0.451 J-0.535
X42.072 Y-84.196 I0.072 J-0.696 F1000.
X41.928 Y-82.804 I-0.072 J0.696
X42.072 Y-84.196 Z1.173 I0.072 J-0.696 F333.
X41.928 Y-82.804 Z1.096 I-0.072 J0.696
X42.072 Y-84.196 Z1.02 I0.072 J-0.696
X42.55 Y-83.932 Z1. I-0.072 J0.696
X41.45 Y-83.068 I-0.55 J0.432 F1000.
X42.55 Y-83.932 I0.55 J-0.432
X41.45 Y-83.068 Z0.923 I-0.55 J0.432 F333.
X42.55 Y-83.932 Z0.846 I0.55 J-0.432
X41.45 Y-83.068 Z0.77 I-0.55 J0.432
X41.307 Y-83.595 Z0.75 I0.55 J-0.432
X42.693 Y-83.405 I0.693 J0.095 F1000.
X41.307 Y-83.595 I-0.693 J-0.095
X42.693 Y-83.405 Z0.673 I0.693 J0.095 F333.
X41.307 Y-83.595 Z0.596 I-0.693 J-0.095
X42.693 Y-83.405 Z0.52 I0.693 J0.095
X42.413 Y-82.935 Z0.5 I-0.693 J-0.095
X41.587 Y-84.065 I-0.413 J-0.565 F1000.
X42.413 Y-82.935 I0.413 J0.565
X41.587 Y-84.065 Z0.423 I-0.413 J-0.565 F333.
X42.413 Y-82.935 Z0.346 I0.413 J0.565
X41.587 Y-84.065 Z0.27 I-0.413 J-0.565
X42.119 Y-84.19 Z0.25 I0.413 J0.565
X41.881 Y-82.81 I-0.119 J0.69 F1000.
X42.119 Y-84.19 I0.119 J-0.69
X41.881 Y-82.81 Z0.173 I-0.119 J0.69 F333.
X42.119 Y-84.19 Z0.096 I0.119 J-0.69
X41.881 Y-82.81 Z0.02 I-0.119 J0.69
X41.421 Y-83.106 Z0. I0.119 J-0.69
X42.579 Y-83.894 I0.579 J-0.394 F1000.
X41.421 Y-83.106 I-0.579 J0.394
X42.579 Y-83.894 Z-0.077 I0.579 J-0.394 F333.
X41.421 Y-83.106 Z-0.154 I-0.579 J0.394
X42.579 Y-83.894 Z-0.23 I0.579 J-0.394
X42.685 Y-83.358 Z-0.25 I-0.579 J0.394
X41.315 Y-83.642 I-0.685 J-0.142 F1000.
X42.685 Y-83.358 I0.685 J0.142
X41.315 Y-83.642 Z-0.327 I-0.685 J-0.142 F333.
X42.685 Y-83.358 Z-0.404 I0.685 J0.142
X41.315 Y-83.642 Z-0.48 I-0.685 J-0.142
X41.626 Y-84.092 Z-0.5 I0.685 J0.142
X42.374 Y-82.908 I0.374 J0.592 F1000.
X41.626 Y-84.092 I-0.374 J-0.592
G1 X41.672 Y-84.112
X41.722 Y-84.116
X41.771 Y-84.105
X41.814 Y-84.08
X41.847 Y-84.042
X41.932 Y-83.907
X41.959 Y-83.865 Z-0.492
X41.982 Y-83.827 Z-0.469
X42.001 Y-83.797 Z-0.434
X42.014 Y-83.778 Z-0.389
X42.018 Y-83.771 Z-0.34
G0 Z10.

M9
G28 G91 Z0.
G90
G28 G91 X0. Y0.
G90
M30
