(1001)
(PANELCONTROL)
(T7  D=3. CR=0. TAPER=118DEG - ZMIN=-2.901 - TALADRAR)
G90 G94 G91.1 G40 G49 G17
G21
G28 G91 Z0.
G90

(TALADRAR1)
M5
T7 M6
S5000 M3
G54
G0 X42. Y-83.5
G43 Z16.5 H7
Z6.5
G98 G81 X42. Y-83.5 Z-2.901 R6.5 F1000.
X-42.
Y-6.
X42.
X0. Y69.25
G80
Z16.5

G28 G91 Z0.
G90
G28 G91 X0. Y0.
G90
M30
