(1001)
(PANELCONTROL)
(T5  D=1.4 CR=0. - ZMIN=-3.5 - FRESA CON PUNTA PLANA)
G90 G94 G91.1 G40 G49 G17
G21
G28 G91 Z0.
G90

(2D CONTORNEADO6)
M5
T5 M6
S5000 M3
G54
M8
G0 X7.646 Y-25.92
G43 Z7. H5
Z2.
G1 Z1.5 F333.
Z0.64
X7.639 Y-25.922 Z0.597 F1000.
X7.62 Y-25.928 Z0.558
X7.591 Y-25.938 Z0.527
X7.554 Y-25.95 Z0.507
X7.513 Y-25.963 Z0.5
X7.38 Y-26.007
X7.341 Y-26.027
X7.31 Y-26.058
X7.29 Y-26.097
X7.283 Y-26.141
X7.29 Y-26.184
G3 X14.7 Y-25. Z0.125 I3.61 J1.184 F333.
X7.101 Z-0.292 I-3.799 J0.
X10.9 Y-28.799 Z-0.5 I3.799 J0.
X14.7 Y-25. I0. J3.799 F1000.
X7.101 I-3.799 J0.
X10.9 Y-28.799 I3.799 J0.
X14.7 Y-25. Z-0.708 I0. J3.799 F333.
X8.671 Y-21.923 Z-1. I-3.799 J0.
X7.101 Y-25. I2.229 J-3.077 F1000.
X14.7 I3.799 J0.
X8.671 Y-21.923 I-3.799 J0.
X7.101 Y-25. Z-1.125 I2.229 J-3.077 F333.
X14.511 Y-26.184 Z-1.5 I3.799 J0.
X14.7 Y-25. I-3.61 J1.184 F1000.
X7.101 I-3.799 J0.
X14.511 Y-26.184 I3.799 J0.
X14.7 Y-25. Z-1.542 I-3.61 J1.184 F333.
X7.101 Z-1.959 I-3.799 J0.
X7.282 Y-26.159 Z-2. I3.799 J0.
X14.7 Y-25. I3.618 J1.159 F1000.
X7.101 I-3.799 J0.
X7.282 Y-26.159 I3.799 J0.
X14.7 Y-25. Z-2.376 I3.618 J1.159 F333.
X13.151 Y-21.938 Z-2.5 I-3.799 J0.
X7.101 Y-25. I-2.25 J-3.061 F1000.
X14.7 I3.799 J0.
X13.151 Y-21.938 I-3.799 J0.
X7.101 Y-25. Z-2.793 I-2.25 J-3.061 F333.
X10.874 Y-28.799 Z-3. I3.799 J0.
X13.998 Y-27.2 I0.026 J3.799 F1000.
G1 Z-2.6
G3 X14.7 Y-25. I-3.098 J2.2
X13.998 Y-22.8 I-3.799 J0.
G1 Z-3. F333.
G3 X7.101 Y-25. I-3.098 J-2.2 F1000.
X10.874 Y-28.799 I3.799 J0.
G1 X10.9 Z-3.001 F333.
G3 X13.998 Y-27.2 Z-3.127 I0. J3.799
G1 Z-2.6
G3 X14.7 Y-25. I-3.098 J2.2
X13.998 Y-22.8 I-3.799 J0.
G1 Z-3.291
G3 X8.693 Y-21.907 Z-3.5 I-3.098 J-2.2
X7.101 Y-25. I2.207 J-3.092 F1000.
X13.998 Y-27.2 I3.799 J0.
G1 Z-2.6
G3 X14.7 Y-25. I-3.098 J2.2
X13.998 Y-22.8 I-3.799 J0.
G1 Z-3.5 F333.
G3 X8.693 Y-21.907 I-3.098 J-2.2 F1000.
G1 X8.662 Y-21.938
X8.641 Y-21.977
X8.634 Y-22.02
X8.641 Y-22.063
X8.66 Y-22.103
X8.742 Y-22.216
X8.767 Y-22.252 Z-3.493
X8.789 Y-22.283 Z-3.473
X8.807 Y-22.309 Z-3.442
X8.819 Y-22.325 Z-3.403
X8.823 Y-22.33 Z-3.36
G0 Z2.
X30.78 Y-24.576
G1 Z1.5 F333.
Z0.64
X30.787 Z0.597 F1000.
X30.807 Z0.558
X30.838 Z0.527
X30.877 Z0.507
X30.92 Z0.5
X31.06
X31.103 Y-24.569
X31.142 Y-24.55
X31.173 Y-24.519
X31.193 Y-24.48
X31.2 Y-24.436
Y-19.8 Z0.338 F333.
X21.6 Z0.003
Y-29.4 Z-0.332
X26.4 Z-0.5
X31.2 F1000.
Y-19.8
X21.6
Y-29.4
X26.4
X31.2 Z-0.668 F333.
Y-19.882 Z-1.
Y-19.8 F1000.
X21.6
Y-29.4
X31.2
Y-19.882
Y-19.8 Z-1.003 F333.
X21.6 Z-1.338
Y-24.436 Z-1.5
Y-29.4 F1000.
X31.2
Y-19.882
Y-19.8
X21.6
Y-24.436
Y-29.4 Z-1.673 F333.
X30.954 Z-2.
X31.2 F1000.
Y-19.8
X21.6
Y-29.4
X30.954
X31.2 Z-2.009 F333.
Y-19.8 Z-2.344
X26.727 Z-2.5
X21.6 F1000.
Y-29.4
X30.954
X31.2
Y-19.8
X26.727
X21.6 Z-2.679 F333.
Y-28.991 Z-3.
Y-29.4 F1000.
X31.2
Y-19.8
X21.6
Y-28.991
Y-29.4 Z-3.014 F333.
X31.2 Z-3.35
Y-25.091 Z-3.5
Y-19.8 F1000.
X21.6
Y-28.991
Y-29.4
X31.2
Y-25.091
X31.193 Y-25.048
X31.173 Y-25.009
X31.142 Y-24.978
X31.103 Y-24.958
X31.06 Y-24.951
X30.92
X30.877 Z-3.493
X30.838 Z-3.473
X30.807 Z-3.442
X30.787 Z-3.403
X30.78 Z-3.36
G0 Z2.
X-10.682 Y-23.116
G1 Z1.5 F333.
Z0.64
Y-23.11 Z0.597 F1000.
X-10.685 Y-23.09 Z0.558
X-10.688 Y-23.059 Z0.527
X-10.693 Y-23.02 Z0.507
X-10.698 Y-22.977 Z0.5
X-10.714 Y-22.838
X-10.726 Y-22.796
X-10.751 Y-22.76
X-10.785 Y-22.733
X-10.826 Y-22.718
X-10.87 Y-22.716
G3 X-12.901 Y-25. Z0.383 I0.27 J-2.284 F333.
X-8.3 Z0.131 I2.3 J0.
X-12.901 Z-0.121 I-2.3 J0.
X-8.3 Z-0.374 I2.3 J0.
X-10.6 Y-22.7 Z-0.5 I-2.3 J0.
X-12.901 Y-25. I0. J-2.3 F1000.
X-8.3 I2.3 J0.
X-10.6 Y-22.7 I-2.3 J0.
X-12.901 Y-25. Z-0.626 I0. J-2.3 F333.
X-8.3 Z-0.879 I2.3 J0.
X-10.465 Y-22.704 Z-1. I-2.3 J0.
X-12.901 Y-25. I-0.135 J-2.296 F1000.
X-8.3 I2.3 J0.
X-10.465 Y-22.704 I-2.3 J0.
X-12.901 Y-25. Z-1.131 I-0.135 J-2.296 F333.
X-8.3 Z-1.383 I2.3 J0.
X-10.331 Y-22.716 Z-1.5 I-2.3 J0.
X-12.901 Y-25. I-0.27 J-2.284 F1000.
X-8.3 I2.3 J0.
X-10.331 Y-22.716 I-2.3 J0.
X-12.901 Y-25. Z-1.636 I-0.27 J-2.284 F333.
X-8.3 Z-1.888 I2.3 J0.
X-10.197 Y-22.736 Z-2. I-2.3 J0.
X-12.901 Y-25. I-0.403 J-2.265 F1000.
X-8.3 I2.3 J0.
X-10.197 Y-22.736 I-2.3 J0.
X-12.901 Y-25. Z-2.14 I-0.403 J-2.265 F333.
X-8.3 Z-2.393 I2.3 J0.
X-10.065 Y-22.763 Z-2.5 I-2.3 J0.
X-12.901 Y-25. I-0.535 J-2.237 F1000.
X-8.3 I2.3 J0.
X-10.065 Y-22.763 I-2.3 J0.
X-12.901 Y-25. Z-2.645 I-0.535 J-2.237 F333.
X-9.14 Y-26.777 Z-2.826 I2.3 J0.
G1 Z-2.6
G3 X-8.3 Y-25. I-1.46 J1.777
X-9.14 Y-23.223 I-2.3 J0.
G1 Z-2.968
G3 X-9.934 Y-22.798 Z-3. I-1.46 J-1.777
X-12.901 Y-25. I-0.666 J-2.202 F1000.
X-9.14 Y-26.777 I2.3 J0.
G1 Z-2.6
G3 X-8.3 Y-25. I-1.46 J1.777
X-9.14 Y-23.223 I-2.3 J0.
G1 Z-3. F333.
G3 X-9.934 Y-22.798 I-1.46 J-1.777 F1000.
X-12.901 Y-25. Z-3.15 I-0.666 J-2.202 F333.
X-9.14 Y-26.777 Z-3.331 I2.3 J0.
G1 Z-2.6
G3 X-8.3 Y-25. I-1.46 J1.777
X-9.14 Y-23.223 I-2.3 J0.
G1 Z-3.473
G3 X-9.806 Y-22.841 Z-3.5 I-1.46 J-1.777
X-12.901 Y-25. I-0.794 J-2.159 F1000.
X-9.14 Y-26.777 I2.3 J0.
G1 Z-2.6
G3 X-8.3 Y-25. I-1.46 J1.777
X-9.14 Y-23.223 I-2.3 J0.
G1 Z-3.5 F333.
G3 X-9.806 Y-22.841 I-1.46 J-1.777 F1000.
G1 X-9.849 Y-22.833
X-9.893 Y-22.838
X-9.933 Y-22.856
X-9.965 Y-22.886
X-9.986 Y-22.924
X-10.034 Y-23.056
X-10.049 Y-23.096 Z-3.493
X-10.063 Y-23.133 Z-3.473
X-10.074 Y-23.162 Z-3.442
X-10.08 Y-23.181 Z-3.403
X-10.083 Y-23.187 Z-3.36
G0 Z2.
X-23.178 Y-23.116
G1 Z1.5 F333.
Z0.64
X-23.179 Y-23.11 Z0.597 F1000.
X-23.182 Y-23.09 Z0.558
X-23.185 Y-23.059 Z0.527
X-23.19 Y-23.02 Z0.507
X-23.195 Y-22.977 Z0.5
X-23.211 Y-22.838
X-23.223 Y-22.796
X-23.247 Y-22.76
X-23.281 Y-22.732
X-23.322 Y-22.717
X-23.366 Y-22.715
G3 X-25.4 Y-25. Z0.383 I0.266 J-2.285 F333.
X-20.8 Z0.131 I2.3 J0.
X-25.4 Z-0.122 I-2.3 J0.
X-20.8 Z-0.374 I2.3 J0.
X-23.1 Y-22.7 Z-0.5 I-2.3 J0.
X-25.4 Y-25. I0. J-2.3 F1000.
X-20.8 I2.3 J0.
X-23.1 Y-22.7 I-2.3 J0.
X-25.4 Y-25. Z-0.626 I0. J-2.3 F333.
X-20.8 Z-0.878 I2.3 J0.
X-22.967 Y-22.704 Z-1. I-2.3 J0.
X-25.4 Y-25. I-0.133 J-2.296 F1000.
X-20.8 I2.3 J0.
X-22.967 Y-22.704 I-2.3 J0.
X-25.4 Y-25. Z-1.131 I-0.133 J-2.296 F333.
X-20.8 Z-1.383 I2.3 J0.
X-22.834 Y-22.715 Z-1.5 I-2.3 J0.
X-25.4 Y-25. I-0.266 J-2.285 F1000.
X-20.8 I2.3 J0.
X-22.834 Y-22.715 I-2.3 J0.
X-25.4 Y-25. Z-1.635 I-0.266 J-2.285 F333.
X-20.8 Z-1.888 I2.3 J0.
X-22.702 Y-22.735 Z-2. I-2.3 J0.
X-25.4 Y-25. I-0.398 J-2.265 F1000.
X-20.8 I2.3 J0.
X-22.702 Y-22.735 I-2.3 J0.
X-25.4 Y-25. Z-2.14 I-0.398 J-2.265 F333.
X-20.8 Z-2.392 I2.3 J0.
X-22.572 Y-22.762 Z-2.5 I-2.3 J0.
X-25.4 Y-25. I-0.528 J-2.239 F1000.
X-20.8 I2.3 J0.
X-22.572 Y-22.762 I-2.3 J0.
X-25.4 Y-25. Z-2.645 I-0.528 J-2.239 F333.
X-21.64 Y-26.777 Z-2.826 I2.3 J0.
G1 Z-2.6
G3 X-20.8 Y-25. I-1.46 J1.777
X-21.64 Y-23.223 I-2.3 J0.
G1 Z-2.968
G3 X-22.443 Y-22.796 Z-3. I-1.46 J-1.777
X-25.4 Y-25. I-0.657 J-2.204 F1000.
X-21.64 Y-26.777 I2.3 J0.
G1 Z-2.6
G3 X-20.8 Y-25. I-1.46 J1.777
X-21.64 Y-23.223 I-2.3 J0.
G1 Z-3. F333.
G3 X-22.443 Y-22.796 I-1.46 J-1.777 F1000.
X-25.4 Y-25. Z-3.149 I-0.657 J-2.204 F333.
X-21.64 Y-26.777 Z-3.331 I2.3 J0.
G1 Z-2.6
G3 X-20.8 Y-25. I-1.46 J1.777
X-21.64 Y-23.223 I-2.3 J0.
G1 Z-3.473
G3 X-22.316 Y-22.838 Z-3.5 I-1.46 J-1.777
X-25.4 Y-25. I-0.784 J-2.162 F1000.
X-21.64 Y-26.777 I2.3 J0.
G1 Z-2.6
G3 X-20.8 Y-25. I-1.46 J1.777
X-21.64 Y-23.223 I-2.3 J0.
G1 Z-3.5 F333.
G3 X-22.316 Y-22.838 I-1.46 J-1.777 F1000.
G1 X-22.359 Y-22.829
X-22.403 Y-22.835
X-22.442 Y-22.853
X-22.474 Y-22.883
X-22.496 Y-22.922
X-22.543 Y-23.053
X-22.558 Y-23.094 Z-3.493
X-22.571 Y-23.131 Z-3.473
X-22.582 Y-23.16 Z-3.442
X-22.589 Y-23.178 Z-3.403
X-22.591 Y-23.185 Z-3.36
G0 Z7.

M9
G28 G91 Z0.
G90
G28 G91 X0. Y0.
G90
M30
